(.../pcb-gcode-3.6.2.4/pcb-gcode.ulp)
(Copyright 2005 - 2012 by John Johnson)
(See readme.txt for licensing terms.)
(This file generated from the board:)
(.../Le Cool Stick MainShield/New_Project/RC1.brd)
(Current profile is .../pcb-gcode-3.6.2.4/profiles/turbocnc.pp  )
(This file generated 03/12/2015 17:37)
(Settings from pcb-machine.h)
(spindle on time = 3.0000)
(spindle speed = 15000.0000)
(milling depth = -1.7000)
(tool change at 0.0000 0.0000 25.4000 )
(feed rate xy = F254.00 )
(feed rate z  = F127.00 )
(Z Axis Settings)
(  High     Up        Down     Drill)
(12.7000 	2.5400 	-0.0500 	-1.8000 )
(Settings from pcb-defaults.h)
(isolate min = 0.0254)
(isolate max = 1.0000)
(isolate step = 0.1270)
(Generated bottom outlines, bottom drill, )
(Unit of measure: mm)
(Metric Mode)
G21
(Absolute Coordinates)
G90
G97 S15000
G00 Z12.7000 
G00 X0.0000 Y0.0000 
M03
G04 P3.000000
G00 Z2.5400 
G00 X0.9700 Y-0.9700 
G01 Z-1.7000 F127.00 
G01 X-51.4700 Y-0.9700 F254.00 
G01 X-51.4700 Y51.7700 
G01 X0.9700 Y51.7700 
G01 X0.9700 Y-0.9700 
G00 Z12.7000 
M05
M02
