(.../pcb-gcode-3.6.2.4/pcb-gcode.ulp)
(Copyright 2005 - 2012 by John Johnson)
(See readme.txt for licensing terms.)
(This file generated from the board:)
(.../MainShield/LeCoolStick-v1_1.brd)
(Current profile is .../pcb-gcode-3.6.2.4/profiles/turbocnc.pp  )
(This file generated 16/12/2015 09:30)
(Settings from pcb-machine.h)
(spindle on time = 3.0000)
(  Tool Size)
(0.0580 )
(spindle speed = 30000.0000)
(tool change at 0.0000 0.0000 25.4000 )
(feed rate xy = F254.00 )
(feed rate z  = F254.00 )
(Z Axis Settings)
(  High     Up        Down     Drill)
(12.7000 	2.5400 	-0.0500 	-1.8000 )
(Settings from pcb-defaults.h)
(isolate min = 0.0254)
(isolate max = 0.5000)
(isolate step = 0.1270)
(Generated bottom outlines, bottom drill, milling )
( Tool|       Size       |  Min Sub |  Max Sub |   Count )
( T00 | 60°				 | 0.0000in | 0.0000in |       0 )
( T01 | 0.800mm 0.0400in | 0.0000in | 0.0000in |       0 )
( T02 | 1.000mm 0.0400in | 0.0000in | 0.0000in |       0 )
( T03 | 1.200mm 0.0520in | 0.0000in | 0.0000in |       0 )
( T04 | 2.800mm 0.1102in | 0.0000in | 0.0000in |       0 )
(Unit of measure: mm)
(Metric Mode)
G21
(Absolute Coordinates)
G90
G97 S30000
G00 Z12.7000 
G00 X0.0000 Y0.0000 
M03
G04 P3.000000
G00 Z2.5400 
G00 X0.0544 Y-0.0225 
G01 Z-0.0500 F254.00 
G01 X0.0225 Y-0.0544 F254.00 
G01 X-45.7889 Y-0.0544 
G01 X-45.8079 Y-0.0568 
G01 X-45.8109 Y-0.0544 
G01 X-45.8148 Y-0.0544 
G01 X-45.8283 Y-0.0408 
G01 X-45.8434 Y-0.0291 
G01 X-45.8439 Y-0.0253 
G01 X-45.8466 Y-0.0225 
G01 X-45.8466 Y-0.0034 
G01 X-45.8490 Y0.0156 
G01 X-45.8466 Y0.0187 
G01 X-45.8466 Y0.0225 
G01 X-45.8331 Y0.0361 
G01 X-45.1870 Y0.8662 
G01 X-45.1870 Y0.8701 
G01 X-45.1799 Y0.8771 
G01 X-44.8069 Y1.9638 
G01 X-44.8069 Y3.1162 
G01 X-45.1799 Y4.2029 
G01 X-45.1870 Y4.2099 
G01 X-45.1870 Y4.2138 
G01 X-45.8889 Y5.1157 
G01 X-46.8478 Y5.7421 
G01 X-46.8541 Y5.7421 
G01 X-46.8594 Y5.7474 
G01 X-47.9709 Y6.0289 
G01 X-49.1086 Y5.9346 
G01 X-49.1215 Y5.9328 
G01 X-50.1737 Y5.4713 
G01 X-50.1824 Y5.4626 
G01 X-50.7623 Y4.9299 
G01 X-50.7775 Y4.9148 
G01 X-50.8011 Y4.9148 
G01 X-50.8225 Y4.9148 
G01 X-50.8393 Y4.9315 
G01 X-50.8544 Y4.9467 
G01 X-50.8544 Y4.9703 
G01 X-50.8544 Y45.8297 
G01 X-50.8553 Y45.8511 
G01 X-50.8393 Y45.8685 
G01 X-50.8248 Y45.8842 
G01 X-50.8011 Y45.8852 
G01 X-50.7797 Y45.8861 
G01 X-50.7623 Y45.8701 
G01 X-50.1837 Y45.3374 
G01 X-50.1737 Y45.3287 
G01 X-49.1215 Y44.8672 
G01 X-49.1104 Y44.8672 
G01 X-47.9709 Y44.7711 
G01 X-46.8594 Y45.0525 
G01 X-46.8541 Y45.0579 
G01 X-46.8478 Y45.0579 
G01 X-45.8889 Y45.6843 
G01 X-45.1870 Y46.5862 
G01 X-45.1870 Y46.5901 
G01 X-45.1799 Y46.5971 
G01 X-44.8069 Y47.6838 
G01 X-44.8069 Y48.8362 
G01 X-45.1799 Y49.9229 
G01 X-45.1870 Y49.9299 
G01 X-45.1870 Y49.9338 
G01 X-45.8331 Y50.7639 
G01 X-45.8466 Y50.7775 
G01 X-45.8466 Y50.7813 
G01 X-45.8490 Y50.7844 
G01 X-45.8466 Y50.8034 
G01 X-45.8466 Y50.8225 
G01 X-45.8439 Y50.8253 
G01 X-45.8434 Y50.8291 
G01 X-45.8283 Y50.8409 
G01 X-45.8148 Y50.8544 
G01 X-45.8109 Y50.8544 
G01 X-45.8079 Y50.8568 
G01 X-45.7889 Y50.8544 
G01 X-4.9809 Y50.8544 
G01 X-4.9585 Y50.8544 
G01 X-4.9371 Y50.8544 
G01 X-4.9204 Y50.8377 
G01 X-4.9052 Y50.8225 
G01 X-4.9052 Y50.7989 
G01 X-4.9052 Y50.7775 
G01 X-4.9220 Y50.7608 
G01 X-4.9371 Y50.7456 
G01 X-5.3027 Y50.4103 
G01 X-5.8489 Y49.4009 
G01 X-5.8489 Y49.3921 
G01 X-5.8526 Y49.3885 
G01 X-6.0409 Y48.2600 
G01 X-5.8526 Y47.1315 
G01 X-5.8489 Y47.1279 
G01 X-5.8489 Y47.1191 
G01 X-5.3027 Y46.1097 
G01 X-4.4637 Y45.3374 
G01 X-4.4537 Y45.3287 
G01 X-3.4015 Y44.8672 
G01 X-3.3904 Y44.8672 
G01 X-2.2509 Y44.7711 
G01 X-1.1394 Y45.0525 
G01 X-1.1341 Y45.0579 
G01 X-1.1278 Y45.0579 
G01 X-0.1689 Y45.6843 
G01 X-0.0544 Y45.8315 
G01 X-0.0544 Y45.8353 
G01 X-0.0408 Y45.8489 
G01 X-0.0291 Y45.8640 
G01 X-0.0253 Y45.8645 
G01 X-0.0225 Y45.8672 
G01 X-0.0034 Y45.8672 
G01 X0.0156 Y45.8696 
G01 X0.0187 Y45.8672 
G01 X0.0225 Y45.8672 
G01 X0.0361 Y45.8537 
G01 X0.0512 Y45.8419 
G01 X0.0517 Y45.8381 
G01 X0.0544 Y45.8353 
G01 X0.0544 Y45.8162 
G01 X0.0568 Y45.7972 
G01 X0.0544 Y45.7941 
G01 X0.0544 Y25.3259 
G01 X0.0568 Y25.3228 
G01 X0.0544 Y25.3038 
G01 X0.0544 Y25.2847 
G01 X0.0517 Y25.2819 
G01 X0.0512 Y25.2781 
G01 X0.0361 Y25.2663 
G01 X0.0225 Y25.2528 
G01 X0.0187 Y25.2528 
G01 X0.0156 Y25.2504 
G01 X-0.0034 Y25.2528 
G01 X-0.0225 Y25.2528 
G01 X-0.0253 Y25.2555 
G01 X-0.0291 Y25.2560 
G01 X-0.0408 Y25.2711 
G01 X-0.0544 Y25.2847 
G01 X-0.0544 Y25.2885 
G01 X-0.1689 Y25.4357 
G01 X-1.1278 Y26.0621 
G01 X-1.1341 Y26.0621 
G01 X-1.1394 Y26.0674 
G01 X-2.2509 Y26.3489 
G01 X-3.3886 Y26.2546 
G01 X-3.4015 Y26.2528 
G01 X-4.4537 Y25.7913 
G01 X-4.4624 Y25.7826 
G01 X-5.3027 Y25.0103 
G01 X-5.8489 Y24.0009 
G01 X-5.8489 Y23.9921 
G01 X-5.8526 Y23.9885 
G01 X-6.0409 Y22.8600 
G01 X-5.8526 Y21.7315 
G01 X-5.8489 Y21.7279 
G01 X-5.8489 Y21.7191 
G01 X-5.3027 Y20.7097 
G01 X-4.4637 Y19.9374 
G01 X-4.4537 Y19.9287 
G01 X-3.3994 Y19.4663 
G01 X-3.1936 Y19.4492 
G01 X-3.1734 Y19.4492 
G01 X-3.1689 Y19.4472 
G01 X-3.1558 Y19.4317 
G01 X-3.1415 Y19.4173 
G01 X-3.1415 Y19.4147 
G01 X-3.1415 Y19.3926 
G01 X-3.1415 Y19.3723 
G01 X-3.1435 Y19.3679 
G01 X-3.1590 Y19.3547 
G01 X-3.3983 Y19.1155 
G01 X-3.5524 Y18.7434 
G01 X-3.5524 Y18.6973 
G01 X-3.5843 Y18.6654 
G01 X-4.0357 Y18.6654 
G01 X-4.0676 Y18.6973 
G01 X-4.0676 Y18.7434 
G01 X-4.2217 Y19.1155 
G01 X-4.5065 Y19.4003 
G01 X-4.8786 Y19.5544 
G01 X-5.2814 Y19.5544 
G01 X-5.6535 Y19.4003 
G01 X-5.9383 Y19.1155 
G01 X-6.0924 Y18.7434 
G01 X-6.0924 Y18.6973 
G01 X-6.1243 Y18.6654 
G01 X-6.5757 Y18.6654 
G01 X-6.6076 Y18.6973 
G01 X-6.6076 Y18.7434 
G01 X-6.7263 Y19.0300 
G01 X-6.7346 Y19.0383 
G01 X-6.7346 Y19.0500 
G01 X-6.7391 Y19.0608 
G01 X-6.7346 Y19.0716 
G01 X-6.7346 Y25.7527 
G01 X-6.7027 Y25.7846 
G01 X-5.1739 Y25.7846 
G01 X-4.8484 Y25.9194 
G01 X-4.5994 Y26.1684 
G01 X-4.4646 Y26.4939 
G01 X-4.4646 Y32.7726 
G01 X-4.4691 Y32.7834 
G01 X-4.4646 Y32.7942 
G01 X-4.4646 Y32.8059 
G01 X-4.4563 Y32.8142 
G01 X-4.4456 Y32.8401 
G01 X-4.4456 Y33.1999 
G01 X-4.5833 Y33.5323 
G01 X-4.8377 Y33.7867 
G01 X-5.1701 Y33.9244 
G01 X-5.5299 Y33.9244 
G01 X-5.8623 Y33.7867 
G01 X-6.1167 Y33.5323 
G01 X-6.2544 Y33.1999 
G01 X-6.2544 Y32.8401 
G01 X-6.2437 Y32.8142 
G01 X-6.2354 Y32.8059 
G01 X-6.2354 Y32.7942 
G01 X-6.2309 Y32.7834 
G01 X-6.2354 Y32.7726 
G01 X-6.2354 Y27.5873 
G01 X-6.2673 Y27.5554 
G01 X-7.7961 Y27.5554 
G01 X-8.1215 Y27.4206 
G01 X-8.3706 Y27.1715 
G01 X-8.5054 Y26.8461 
G01 X-8.5054 Y19.0716 
G01 X-8.5009 Y19.0608 
G01 X-8.5054 Y19.0500 
G01 X-8.5054 Y19.0383 
G01 X-8.5137 Y19.0300 
G01 X-8.6324 Y18.7434 
G01 X-8.6324 Y18.6973 
G01 X-8.6643 Y18.6654 
G01 X-9.1157 Y18.6654 
G01 X-9.1476 Y18.6973 
G01 X-9.1476 Y18.7434 
G01 X-9.3017 Y19.1155 
G01 X-9.5865 Y19.4003 
G01 X-9.9586 Y19.5544 
G01 X-10.3614 Y19.5544 
G01 X-10.7335 Y19.4003 
G01 X-11.0183 Y19.1155 
G01 X-11.1724 Y18.7434 
G01 X-11.1724 Y18.6973 
G01 X-11.2043 Y18.6654 
G01 X-12.6784 Y18.6654 
G01 X-12.6892 Y18.6609 
G01 X-12.7000 Y18.6654 
G01 X-12.7117 Y18.6654 
G01 X-12.7200 Y18.6737 
G01 X-13.0066 Y18.7924 
G01 X-14.9334 Y18.7924 
G01 X-15.2200 Y18.6737 
G01 X-15.2283 Y18.6654 
G01 X-15.2400 Y18.6654 
G01 X-15.2508 Y18.6609 
G01 X-15.2616 Y18.6654 
G01 X-17.1840 Y18.6654 
G01 X-17.1948 Y18.6609 
G01 X-17.2056 Y18.6654 
G01 X-17.2174 Y18.6654 
G01 X-17.2256 Y18.6737 
G01 X-17.5736 Y18.8178 
G01 X-17.9864 Y18.8178 
G01 X-18.3344 Y18.6737 
G01 X-18.3426 Y18.6654 
G01 X-18.3544 Y18.6654 
G01 X-18.3652 Y18.6609 
G01 X-18.3760 Y18.6654 
G01 X-20.4961 Y18.6654 
G01 X-20.8215 Y18.5306 
G01 X-21.0706 Y18.2815 
G01 X-21.2054 Y17.9561 
G01 X-21.2054 Y3.4573 
G01 X-21.2373 Y3.4254 
G01 X-25.7527 Y3.4254 
G01 X-25.7846 Y3.4573 
G01 X-25.7846 Y6.9564 
G01 X-25.7527 Y6.9882 
G01 X-25.6333 Y7.1077 
G01 X-25.4956 Y7.4401 
G01 X-25.4956 Y7.7999 
G01 X-25.6333 Y8.1323 
G01 X-25.8877 Y8.3867 
G01 X-26.2201 Y8.5244 
G01 X-26.5799 Y8.5244 
G01 X-26.6058 Y8.5137 
G01 X-26.6140 Y8.5054 
G01 X-26.6258 Y8.5054 
G01 X-26.6366 Y8.5009 
G01 X-26.6474 Y8.5054 
G01 X-26.8461 Y8.5054 
G01 X-27.1715 Y8.3706 
G01 X-27.4206 Y8.1215 
G01 X-27.4376 Y8.0806 
G01 X-27.4376 Y8.0689 
G01 X-27.4459 Y8.0606 
G01 X-27.4503 Y8.0498 
G01 X-27.4612 Y8.0453 
G01 X-27.4694 Y8.0370 
G01 X-27.4812 Y8.0370 
G01 X-27.4920 Y8.0325 
G01 X-27.5028 Y8.0370 
G01 X-27.5145 Y8.0370 
G01 X-27.5228 Y8.0453 
G01 X-27.5336 Y8.0498 
G01 X-27.5381 Y8.0606 
G01 X-27.5464 Y8.0689 
G01 X-27.5464 Y8.0806 
G01 X-27.5509 Y8.0914 
G01 X-27.5464 Y8.1022 
G01 X-27.5464 Y8.3137 
G01 X-27.5768 Y8.3871 
G01 X-27.6329 Y8.4432 
G01 X-27.7063 Y8.4736 
G01 X-28.3456 Y8.4736 
G01 X-28.3456 Y8.3284 
G01 X-27.7235 Y8.3284 
G01 X-27.6916 Y8.2965 
G01 X-27.6916 Y6.9435 
G01 X-27.7235 Y6.9116 
G01 X-28.3456 Y6.9116 
G01 X-28.3456 Y6.7664 
G01 X-27.7063 Y6.7664 
G01 X-27.6406 Y6.7936 
G01 X-27.6323 Y6.8019 
G01 X-27.6206 Y6.8019 
G01 X-27.6098 Y6.8063 
G01 X-27.5990 Y6.8019 
G01 X-27.5873 Y6.8019 
G01 X-27.5790 Y6.7936 
G01 X-27.5682 Y6.7891 
G01 X-27.5637 Y6.7783 
G01 X-27.5554 Y6.7700 
G01 X-27.5554 Y6.7583 
G01 X-27.5509 Y6.7475 
G01 X-27.5554 Y6.7366 
G01 X-27.5554 Y3.4573 
G01 X-27.5873 Y3.4254 
G01 X-40.9927 Y3.4254 
G01 X-41.0246 Y3.4573 
G01 X-41.0246 Y7.7961 
G01 X-41.1594 Y8.1215 
G01 X-41.4084 Y8.3706 
G01 X-41.7339 Y8.5054 
G01 X-44.5327 Y8.5054 
G01 X-44.5646 Y8.5373 
G01 X-44.5646 Y12.4526 
G01 X-44.5691 Y12.4634 
G01 X-44.5646 Y12.4742 
G01 X-44.5646 Y12.4859 
G01 X-44.5563 Y12.4942 
G01 X-44.5456 Y12.5201 
G01 X-44.5456 Y12.8799 
G01 X-44.5563 Y12.9058 
G01 X-44.5646 Y12.9141 
G01 X-44.5646 Y12.9258 
G01 X-44.5691 Y12.9366 
G01 X-44.5646 Y12.9474 
G01 X-44.5646 Y35.3126 
G01 X-44.5691 Y35.3234 
G01 X-44.5646 Y35.3342 
G01 X-44.5646 Y35.3459 
G01 X-44.5563 Y35.3542 
G01 X-44.5456 Y35.3801 
G01 X-44.5456 Y35.7399 
G01 X-44.6833 Y36.0723 
G01 X-44.9377 Y36.3267 
G01 X-45.2701 Y36.4644 
G01 X-45.6299 Y36.4644 
G01 X-45.9623 Y36.3267 
G01 X-46.2167 Y36.0723 
G01 X-46.3544 Y35.7399 
G01 X-46.3544 Y35.3801 
G01 X-46.3437 Y35.3542 
G01 X-46.3354 Y35.3459 
G01 X-46.3354 Y35.3342 
G01 X-46.3309 Y35.3234 
G01 X-46.3354 Y35.3126 
G01 X-46.3354 Y12.9474 
G01 X-46.3309 Y12.9366 
G01 X-46.3354 Y12.9258 
G01 X-46.3354 Y12.9141 
G01 X-46.3437 Y12.9058 
G01 X-46.3544 Y12.8799 
G01 X-46.3544 Y12.5201 
G01 X-46.3437 Y12.4942 
G01 X-46.3354 Y12.4859 
G01 X-46.3354 Y12.4742 
G01 X-46.3309 Y12.4634 
G01 X-46.3354 Y12.4526 
G01 X-46.3354 Y7.4439 
G01 X-46.2006 Y7.1184 
G01 X-45.9515 Y6.8694 
G01 X-45.6261 Y6.7346 
G01 X-42.8273 Y6.7346 
G01 X-42.7954 Y6.7027 
G01 X-42.7954 Y2.3639 
G01 X-42.6606 Y2.0384 
G01 X-42.4115 Y1.7894 
G01 X-42.0861 Y1.6546 
G01 X-20.1439 Y1.6546 
G01 X-19.8184 Y1.7894 
G01 X-19.5694 Y2.0384 
G01 X-19.4346 Y2.3639 
G01 X-19.4346 Y16.8627 
G01 X-19.4027 Y16.8946 
G01 X-18.3760 Y16.8946 
G01 X-18.3652 Y16.8991 
G01 X-18.3544 Y16.8946 
G01 X-18.3426 Y16.8946 
G01 X-18.3344 Y16.8863 
G01 X-17.9864 Y16.7422 
G01 X-17.5736 Y16.7422 
G01 X-17.2256 Y16.8863 
G01 X-17.2174 Y16.8946 
G01 X-17.2056 Y16.8946 
G01 X-17.1948 Y16.8991 
G01 X-17.1840 Y16.8946 
G01 X-15.2616 Y16.8946 
G01 X-15.2508 Y16.8991 
G01 X-15.2400 Y16.8946 
G01 X-15.2283 Y16.8946 
G01 X-15.2200 Y16.8863 
G01 X-14.9334 Y16.7676 
G01 X-13.0066 Y16.7676 
G01 X-12.7200 Y16.8863 
G01 X-12.7117 Y16.8946 
G01 X-12.7000 Y16.8946 
G01 X-12.6892 Y16.8991 
G01 X-12.6784 Y16.8946 
G01 X-11.2043 Y16.8946 
G01 X-11.1724 Y16.8627 
G01 X-11.1724 Y16.8166 
G01 X-11.0183 Y16.4445 
G01 X-10.7335 Y16.1597 
G01 X-10.3614 Y16.0056 
G01 X-9.9586 Y16.0056 
G01 X-9.5865 Y16.1597 
G01 X-9.3017 Y16.4445 
G01 X-9.1476 Y16.8166 
G01 X-9.1476 Y16.8627 
G01 X-9.1157 Y16.8946 
G01 X-8.6643 Y16.8946 
G01 X-8.6324 Y16.8627 
G01 X-8.6324 Y16.8166 
G01 X-8.4783 Y16.4445 
G01 X-8.1935 Y16.1597 
G01 X-7.8214 Y16.0056 
G01 X-7.4186 Y16.0056 
G01 X-7.0465 Y16.1597 
G01 X-6.7617 Y16.4445 
G01 X-6.6076 Y16.8166 
G01 X-6.6076 Y16.8627 
G01 X-6.5757 Y16.8946 
G01 X-6.1243 Y16.8946 
G01 X-6.0924 Y16.8627 
G01 X-6.0924 Y16.8166 
G01 X-5.9383 Y16.4445 
G01 X-5.6535 Y16.1597 
G01 X-5.2814 Y16.0056 
G01 X-4.8786 Y16.0056 
G01 X-4.5065 Y16.1597 
G01 X-4.2217 Y16.4445 
G01 X-4.0676 Y16.8166 
G01 X-4.0676 Y16.8627 
G01 X-4.0357 Y16.8946 
G01 X-3.5843 Y16.8946 
G01 X-3.5524 Y16.8627 
G01 X-3.5524 Y16.8166 
G01 X-3.3983 Y16.4445 
G01 X-3.1135 Y16.1597 
G01 X-2.7414 Y16.0056 
G01 X-2.3386 Y16.0056 
G01 X-1.9665 Y16.1597 
G01 X-1.6817 Y16.4445 
G01 X-1.5276 Y16.8166 
G01 X-1.5276 Y18.7434 
G01 X-1.6817 Y19.1155 
G01 X-1.9282 Y19.3620 
G01 X-1.9417 Y19.3700 
G01 X-1.9436 Y19.3773 
G01 X-1.9489 Y19.3827 
G01 X-1.9489 Y19.3984 
G01 X-1.9528 Y19.4137 
G01 X-1.9489 Y19.4202 
G01 X-1.9489 Y19.4278 
G01 X-1.9378 Y19.4389 
G01 X-1.9297 Y19.4524 
G01 X-1.9224 Y19.4543 
G01 X-1.9170 Y19.4596 
G01 X-1.9013 Y19.4596 
G01 X-1.1337 Y19.6540 
G01 X-0.1689 Y20.2843 
G01 X-0.0544 Y20.4315 
G01 X-0.0544 Y20.4353 
G01 X-0.0408 Y20.4489 
G01 X-0.0291 Y20.4640 
G01 X-0.0253 Y20.4645 
G01 X-0.0225 Y20.4672 
G01 X-0.0034 Y20.4672 
G01 X0.0156 Y20.4696 
G01 X0.0187 Y20.4672 
G01 X0.0225 Y20.4672 
G01 X0.0361 Y20.4536 
G01 X0.0512 Y20.4419 
G01 X0.0517 Y20.4381 
G01 X0.0544 Y20.4353 
G01 X0.0544 Y20.4162 
G01 X0.0568 Y20.3972 
G01 X0.0544 Y20.3941 
G01 X0.0544 Y-0.0225 
G00 Z2.5400 
G00 X-3.0600 Y3.1816 
G01 Z-0.0500 F254.00 
G01 X-2.9276 Y3.3140 F254.00 
G01 X-2.8174 Y3.4656 
G01 X-2.7324 Y3.6325 
G01 X-2.6745 Y3.8107 
G01 X-2.6452 Y3.9957 
G01 X-2.6452 Y5.0256 
G01 X-2.7904 Y5.0256 
G01 X-2.7904 Y4.0072 
G01 X-2.8161 Y3.8447 
G01 X-2.8670 Y3.6883 
G01 X-2.9416 Y3.5417 
G01 X-3.0383 Y3.4086 
G01 X-3.1546 Y3.2923 
G01 X-3.2877 Y3.1956 
G01 X-3.4343 Y3.1210 
G01 X-3.5907 Y3.0701 
G01 X-3.7532 Y3.0444 
G01 X-3.7810 Y3.0444 
G01 X-3.7810 Y2.8992 
G01 X-3.7417 Y2.8992 
G01 X-3.5567 Y2.9285 
G01 X-3.3785 Y2.9864 
G01 X-3.2116 Y3.0714 
G01 X-3.0600 Y3.1816 
G00 Z2.5400 
G00 X-3.8898 Y3.0444 
G01 Z-0.0500 F254.00 
G01 X-3.9176 Y3.0444 F254.00 
G01 X-4.0801 Y3.0701 
G01 X-4.2365 Y3.1210 
G01 X-4.3831 Y3.1956 
G01 X-4.5162 Y3.2923 
G01 X-4.6325 Y3.4086 
G01 X-4.7292 Y3.5417 
G01 X-4.8038 Y3.6883 
G01 X-4.8547 Y3.8447 
G01 X-4.8804 Y4.0072 
G01 X-4.8804 Y5.0256 
G01 X-5.0256 Y5.0256 
G01 X-5.0256 Y3.9957 
G01 X-4.9963 Y3.8107 
G01 X-4.9384 Y3.6325 
G01 X-4.8534 Y3.4656 
G01 X-4.7432 Y3.3140 
G01 X-4.6108 Y3.1816 
G01 X-4.4592 Y3.0714 
G01 X-4.2923 Y2.9864 
G01 X-4.1141 Y2.9285 
G01 X-3.9291 Y2.8992 
G01 X-3.8898 Y2.8992 
G01 X-3.8898 Y3.0444 
G00 Z2.5400 
G00 X-4.8804 Y5.1344 
G01 Z-0.0500 F254.00 
G01 X-4.8804 Y6.1528 F254.00 
G01 X-4.8547 Y6.3153 
G01 X-4.8038 Y6.4717 
G01 X-4.7292 Y6.6183 
G01 X-4.6325 Y6.7514 
G01 X-4.5162 Y6.8677 
G01 X-4.3831 Y6.9644 
G01 X-4.2365 Y7.0390 
G01 X-4.0801 Y7.0899 
G01 X-3.9176 Y7.1156 
G01 X-3.8898 Y7.1156 
G01 X-3.8898 Y7.2608 
G01 X-3.9291 Y7.2608 
G01 X-4.1141 Y7.2315 
G01 X-4.2923 Y7.1736 
G01 X-4.4592 Y7.0886 
G01 X-4.6108 Y6.9784 
G01 X-4.7432 Y6.8460 
G01 X-4.8534 Y6.6944 
G01 X-4.9384 Y6.5275 
G01 X-4.9963 Y6.3493 
G01 X-5.0256 Y6.1643 
G01 X-5.0256 Y5.1344 
G01 X-4.8804 Y5.1344 
G00 Z2.5400 
G00 X-2.7904 Y5.1344 
G01 Z-0.0500 F254.00 
G01 X-2.6452 Y5.1344 F254.00 
G01 X-2.6452 Y6.1643 
G01 X-2.6745 Y6.3493 
G01 X-2.7324 Y6.5275 
G01 X-2.8174 Y6.6944 
G01 X-2.9276 Y6.8460 
G01 X-3.0600 Y6.9784 
G01 X-3.2116 Y7.0886 
G01 X-3.3785 Y7.1736 
G01 X-3.5567 Y7.2315 
G01 X-3.7417 Y7.2608 
G01 X-3.7810 Y7.2608 
G01 X-3.7810 Y7.1156 
G01 X-3.7532 Y7.1156 
G01 X-3.5907 Y7.0899 
G01 X-3.4343 Y7.0390 
G01 X-3.2877 Y6.9644 
G01 X-3.1546 Y6.8677 
G01 X-3.0383 Y6.7514 
G01 X-2.9416 Y6.6183 
G01 X-2.8670 Y6.4717 
G01 X-2.8161 Y6.3153 
G01 X-2.7904 Y6.1528 
G01 X-2.7904 Y5.1344 
G00 Z2.5400 
G00 X-2.8205 Y11.0133 
G01 Z-0.0500 F254.00 
G01 X-2.6347 Y10.9764 F254.00 
G01 X-2.5944 Y10.9764 
G01 X-2.5944 Y11.1216 
G01 X-2.6204 Y11.1216 
G01 X-2.7781 Y11.1530 
G01 X-2.9267 Y11.2145 
G01 X-3.0604 Y11.3039 
G01 X-3.1741 Y11.4176 
G01 X-3.2635 Y11.5513 
G01 X-3.3250 Y11.6999 
G01 X-3.3564 Y11.8576 
G01 X-3.3564 Y12.6456 
G01 X-3.5016 Y12.6456 
G01 X-3.5016 Y11.8433 
G01 X-3.4647 Y11.6575 
G01 X-3.3922 Y11.4825 
G01 X-3.2869 Y11.3250 
G01 X-3.1530 Y11.1911 
G01 X-2.9955 Y11.0858 
G01 X-2.8205 Y11.0133 
G00 Z2.5400 
G00 X-2.4856 Y10.9764 
G01 Z-0.0500 F254.00 
G01 X-2.4453 Y10.9764 F254.00 
G01 X-2.2595 Y11.0133 
G01 X-2.0845 Y11.0858 
G01 X-1.9270 Y11.1911 
G01 X-1.7931 Y11.3250 
G01 X-1.6878 Y11.4825 
G01 X-1.6153 Y11.6575 
G01 X-1.5784 Y11.8433 
G01 X-1.5784 Y12.6456 
G01 X-1.7236 Y12.6456 
G01 X-1.7236 Y11.8576 
G01 X-1.7550 Y11.6999 
G01 X-1.8165 Y11.5513 
G01 X-1.9059 Y11.4176 
G01 X-2.0196 Y11.3039 
G01 X-2.1533 Y11.2145 
G01 X-2.3019 Y11.1530 
G01 X-2.4596 Y11.1216 
G01 X-2.4856 Y11.1216 
G01 X-2.4856 Y10.9764 
G00 Z2.5400 
G00 X-4.4670 Y11.1911 
G01 Z-0.0500 F254.00 
G01 X-4.3331 Y11.3250 F254.00 
G01 X-4.2278 Y11.4825 
G01 X-4.1553 Y11.6575 
G01 X-4.1184 Y11.8433 
G01 X-4.1184 Y12.6456 
G01 X-4.2636 Y12.6456 
G01 X-4.2636 Y11.8576 
G01 X-4.2950 Y11.6999 
G01 X-4.3565 Y11.5513 
G01 X-4.4459 Y11.4176 
G01 X-4.5596 Y11.3039 
G01 X-4.6933 Y11.2145 
G01 X-4.8419 Y11.1530 
G01 X-4.9996 Y11.1216 
G01 X-5.0256 Y11.1216 
G01 X-5.0256 Y10.9764 
G01 X-4.9853 Y10.9764 
G01 X-4.7995 Y11.0133 
G01 X-4.6245 Y11.0858 
G01 X-4.4670 Y11.1911 
G00 Z2.5400 
G00 X-5.1344 Y11.1216 
G01 Z-0.0500 F254.00 
G01 X-5.1604 Y11.1216 F254.00 
G01 X-5.3181 Y11.1530 
G01 X-5.4667 Y11.2145 
G01 X-5.6004 Y11.3039 
G01 X-5.7141 Y11.4176 
G01 X-5.8035 Y11.5513 
G01 X-5.8650 Y11.6999 
G01 X-5.8964 Y11.8576 
G01 X-5.8964 Y12.6456 
G01 X-6.0416 Y12.6456 
G01 X-6.0416 Y11.8433 
G01 X-6.0047 Y11.6575 
G01 X-5.9322 Y11.4825 
G01 X-5.8269 Y11.3250 
G01 X-5.6930 Y11.1911 
G01 X-5.5355 Y11.0858 
G01 X-5.3605 Y11.0133 
G01 X-5.1747 Y10.9764 
G01 X-5.1344 Y10.9764 
G01 X-5.1344 Y11.1216 
G00 Z2.5400 
G00 X-7.0070 Y11.1911 
G01 Z-0.0500 F254.00 
G01 X-6.8731 Y11.3250 F254.00 
G01 X-6.7678 Y11.4825 
G01 X-6.6953 Y11.6575 
G01 X-6.6584 Y11.8433 
G01 X-6.6584 Y12.6456 
G01 X-6.8036 Y12.6456 
G01 X-6.8036 Y11.8576 
G01 X-6.8350 Y11.6999 
G01 X-6.8965 Y11.5513 
G01 X-6.9859 Y11.4176 
G01 X-7.0996 Y11.3039 
G01 X-7.2333 Y11.2145 
G01 X-7.3819 Y11.1530 
G01 X-7.5396 Y11.1216 
G01 X-7.5656 Y11.1216 
G01 X-7.5656 Y10.9764 
G01 X-7.5253 Y10.9764 
G01 X-7.3395 Y11.0133 
G01 X-7.1645 Y11.0858 
G01 X-7.0070 Y11.1911 
G00 Z2.5400 
G00 X-7.6744 Y11.1216 
G01 Z-0.0500 F254.00 
G01 X-7.7004 Y11.1216 F254.00 
G01 X-7.8581 Y11.1530 
G01 X-8.0067 Y11.2145 
G01 X-8.1404 Y11.3039 
G01 X-8.2541 Y11.4176 
G01 X-8.3435 Y11.5513 
G01 X-8.4050 Y11.6999 
G01 X-8.4364 Y11.8576 
G01 X-8.4364 Y12.6456 
G01 X-8.5816 Y12.6456 
G01 X-8.5816 Y11.8433 
G01 X-8.5447 Y11.6575 
G01 X-8.4722 Y11.4825 
G01 X-8.3669 Y11.3250 
G01 X-8.2330 Y11.1911 
G01 X-8.0755 Y11.0858 
G01 X-7.9005 Y11.0133 
G01 X-7.7147 Y10.9764 
G01 X-7.6744 Y10.9764 
G01 X-7.6744 Y11.1216 
G00 Z2.5400 
G00 X-8.3884 Y10.9106 
G01 Z-0.0500 F254.00 
G01 X-8.7139 Y11.0454 F254.00 
G01 X-9.5692 Y11.0454 
G01 X-9.5742 Y11.0421 
G01 X-9.5910 Y11.0454 
G01 X-9.6082 Y11.0454 
G01 X-9.6124 Y11.0497 
G01 X-9.6184 Y11.0509 
G01 X-9.6279 Y11.0651 
G01 X-9.6400 Y11.0773 
G01 X-9.6400 Y11.0833 
G01 X-9.6434 Y11.0883 
G01 X-9.6400 Y11.1052 
G01 X-9.6400 Y11.1223 
G01 X-9.6358 Y11.1266 
G01 X-9.6346 Y11.1325 
G01 X-9.6203 Y11.1421 
G01 X-9.6082 Y11.1542 
G01 X-9.6021 Y11.1542 
G01 X-9.5470 Y11.1911 
G01 X-9.4131 Y11.3250 
G01 X-9.3078 Y11.4825 
G01 X-9.2353 Y11.6575 
G01 X-9.1984 Y11.8433 
G01 X-9.1984 Y12.6456 
G01 X-9.3436 Y12.6456 
G01 X-9.3436 Y11.8576 
G01 X-9.3750 Y11.6999 
G01 X-9.4365 Y11.5513 
G01 X-9.5259 Y11.4176 
G01 X-9.6396 Y11.3039 
G01 X-9.7733 Y11.2145 
G01 X-9.9219 Y11.1530 
G01 X-10.0796 Y11.1216 
G01 X-10.2404 Y11.1216 
G01 X-10.3981 Y11.1530 
G01 X-10.5467 Y11.2145 
G01 X-10.6804 Y11.3039 
G01 X-10.7941 Y11.4176 
G01 X-10.8835 Y11.5513 
G01 X-10.9450 Y11.6999 
G01 X-10.9764 Y11.8576 
G01 X-10.9764 Y12.6456 
G01 X-11.1216 Y12.6456 
G01 X-11.1216 Y11.8433 
G01 X-11.0847 Y11.6575 
G01 X-11.0122 Y11.4825 
G01 X-10.9069 Y11.3250 
G01 X-10.7730 Y11.1911 
G01 X-10.7178 Y11.1542 
G01 X-10.7118 Y11.1542 
G01 X-10.6997 Y11.1421 
G01 X-10.6854 Y11.1325 
G01 X-10.6842 Y11.1266 
G01 X-10.6799 Y11.1223 
G01 X-10.6799 Y11.1052 
G01 X-10.6766 Y11.0883 
G01 X-10.6799 Y11.0833 
G01 X-10.6799 Y11.0773 
G01 X-10.6921 Y11.0651 
G01 X-10.7016 Y11.0509 
G01 X-10.7076 Y11.0497 
G01 X-10.7118 Y11.0454 
G01 X-10.7290 Y11.0454 
G01 X-10.7458 Y11.0421 
G01 X-10.7508 Y11.0454 
G01 X-12.6784 Y11.0454 
G01 X-12.6892 Y11.0409 
G01 X-12.7000 Y11.0454 
G01 X-12.7117 Y11.0454 
G01 X-12.7200 Y11.0537 
G01 X-13.0066 Y11.1724 
G01 X-14.9334 Y11.1724 
G01 X-15.2200 Y11.0537 
G01 X-15.2283 Y11.0454 
G01 X-15.2400 Y11.0454 
G01 X-15.2508 Y11.0409 
G01 X-15.2616 Y11.0454 
G01 X-17.1840 Y11.0454 
G01 X-17.1948 Y11.0409 
G01 X-17.2056 Y11.0454 
G01 X-17.2173 Y11.0454 
G01 X-17.2256 Y11.0537 
G01 X-17.5736 Y11.1978 
G01 X-17.9864 Y11.1978 
G01 X-18.3679 Y11.0398 
G01 X-18.6598 Y10.7479 
G01 X-18.8178 Y10.3664 
G01 X-18.8178 Y9.9536 
G01 X-18.6598 Y9.5721 
G01 X-18.3679 Y9.2802 
G01 X-17.9864 Y9.1222 
G01 X-17.5736 Y9.1222 
G01 X-17.2256 Y9.2663 
G01 X-17.2173 Y9.2746 
G01 X-17.2056 Y9.2746 
G01 X-17.1948 Y9.2791 
G01 X-17.1840 Y9.2746 
G01 X-15.2616 Y9.2746 
G01 X-15.2508 Y9.2791 
G01 X-15.2400 Y9.2746 
G01 X-15.2283 Y9.2746 
G01 X-15.2200 Y9.2663 
G01 X-14.9334 Y9.1476 
G01 X-13.0066 Y9.1476 
G01 X-12.7200 Y9.2663 
G01 X-12.7117 Y9.2746 
G01 X-12.7000 Y9.2746 
G01 X-12.6892 Y9.2791 
G01 X-12.6784 Y9.2746 
G01 X-9.8073 Y9.2746 
G01 X-9.7754 Y9.2427 
G01 X-9.7754 Y6.9148 
G01 X-9.8073 Y6.8830 
G01 X-9.9167 Y6.7736 
G01 X-10.1056 Y6.3175 
G01 X-10.1056 Y3.8425 
G01 X-9.9167 Y3.3864 
G01 X-9.5676 Y3.0373 
G01 X-9.1114 Y2.8484 
G01 X-8.6177 Y2.8484 
G01 X-8.1616 Y3.0373 
G01 X-7.8125 Y3.3864 
G01 X-7.6236 Y3.8425 
G01 X-7.6236 Y6.3175 
G01 X-7.8125 Y6.7736 
G01 X-7.9727 Y6.9338 
G01 X-8.0014 Y6.9625 
G01 X-8.0046 Y6.9656 
G01 X-8.0046 Y10.3361 
G01 X-8.1394 Y10.6615 
G01 X-8.3884 Y10.9106 
G00 Z2.5400 
G00 X-8.4505 Y10.6955 
G01 Z-0.0500 F254.00 
G01 X-8.3545 Y10.5995 F254.00 
G01 X-8.2791 Y10.4866 
G01 X-8.2271 Y10.3611 
G01 X-8.2006 Y10.2279 
G01 X-8.2006 Y6.8799 
G01 X-8.1838 Y6.8677 
G01 X-8.0675 Y6.7514 
G01 X-7.9708 Y6.6183 
G01 X-7.8962 Y6.4717 
G01 X-7.8453 Y6.3153 
G01 X-7.8196 Y6.1528 
G01 X-7.8196 Y4.0072 
G01 X-7.8453 Y3.8447 
G01 X-7.8962 Y3.6883 
G01 X-7.9708 Y3.5417 
G01 X-8.0675 Y3.4086 
G01 X-8.1838 Y3.2923 
G01 X-8.3169 Y3.1956 
G01 X-8.4635 Y3.1210 
G01 X-8.6199 Y3.0701 
G01 X-8.7824 Y3.0444 
G01 X-8.9468 Y3.0444 
G01 X-9.1093 Y3.0701 
G01 X-9.2657 Y3.1210 
G01 X-9.4123 Y3.1956 
G01 X-9.5454 Y3.2923 
G01 X-9.6617 Y3.4086 
G01 X-9.7584 Y3.5417 
G01 X-9.8330 Y3.6883 
G01 X-9.8839 Y3.8447 
G01 X-9.9096 Y4.0072 
G01 X-9.9096 Y6.1528 
G01 X-9.8839 Y6.3153 
G01 X-9.8330 Y6.4717 
G01 X-9.7584 Y6.6183 
G01 X-9.6617 Y6.7514 
G01 X-9.5794 Y6.8336 
G01 X-9.5794 Y9.4706 
G01 X-12.7703 Y9.4706 
G01 X-12.8213 Y9.4365 
G01 X-12.9699 Y9.3750 
G01 X-13.1276 Y9.3436 
G01 X-14.8124 Y9.3436 
G01 X-14.9701 Y9.3750 
G01 X-15.1187 Y9.4365 
G01 X-15.1697 Y9.4706 
G01 X-17.2966 Y9.4706 
G01 X-17.3813 Y9.4140 
G01 X-17.5345 Y9.3506 
G01 X-17.6971 Y9.3182 
G01 X-17.8629 Y9.3182 
G01 X-18.0255 Y9.3506 
G01 X-18.1787 Y9.4140 
G01 X-18.3166 Y9.5061 
G01 X-18.4339 Y9.6234 
G01 X-18.5260 Y9.7613 
G01 X-18.5894 Y9.9145 
G01 X-18.6218 Y10.0771 
G01 X-18.6218 Y10.2429 
G01 X-18.5894 Y10.4055 
G01 X-18.5260 Y10.5587 
G01 X-18.4339 Y10.6966 
G01 X-18.3166 Y10.8139 
G01 X-18.1787 Y10.9060 
G01 X-18.0255 Y10.9694 
G01 X-17.8629 Y11.0018 
G01 X-17.6971 Y11.0018 
G01 X-17.5345 Y10.9694 
G01 X-17.3813 Y10.9060 
G01 X-17.2966 Y10.8494 
G01 X-15.1697 Y10.8494 
G01 X-15.1187 Y10.8835 
G01 X-14.9701 Y10.9450 
G01 X-14.8124 Y10.9764 
G01 X-13.1276 Y10.9764 
G01 X-12.9699 Y10.9450 
G01 X-12.8213 Y10.8835 
G01 X-12.7703 Y10.8494 
G01 X-8.8221 Y10.8494 
G01 X-8.6889 Y10.8229 
G01 X-8.5634 Y10.7709 
G01 X-8.4505 Y10.6955 
G00 Z2.5400 
G00 X-8.4364 Y12.7544 
G01 Z-0.0500 F254.00 
G01 X-8.4364 Y13.5424 F254.00 
G01 X-8.4050 Y13.7001 
G01 X-8.3435 Y13.8487 
G01 X-8.2541 Y13.9824 
G01 X-8.1404 Y14.0961 
G01 X-8.0067 Y14.1855 
G01 X-7.8581 Y14.2470 
G01 X-7.7004 Y14.2784 
G01 X-7.6744 Y14.2784 
G01 X-7.6744 Y14.4236 
G01 X-7.7147 Y14.4236 
G01 X-7.9005 Y14.3867 
G01 X-8.0755 Y14.3142 
G01 X-8.2330 Y14.2089 
G01 X-8.3669 Y14.0750 
G01 X-8.4722 Y13.9175 
G01 X-8.5447 Y13.7425 
G01 X-8.5816 Y13.5567 
G01 X-8.5816 Y12.7544 
G01 X-8.4364 Y12.7544 
G00 Z2.5400 
G00 X-9.1984 Y12.7544 
G01 Z-0.0500 F254.00 
G01 X-9.1984 Y13.5567 F254.00 
G01 X-9.2353 Y13.7425 
G01 X-9.3078 Y13.9175 
G01 X-9.4131 Y14.0750 
G01 X-9.5470 Y14.2089 
G01 X-9.7045 Y14.3142 
G01 X-9.8795 Y14.3867 
G01 X-10.0653 Y14.4236 
G01 X-10.1056 Y14.4236 
G01 X-10.1056 Y14.2784 
G01 X-10.0796 Y14.2784 
G01 X-9.9219 Y14.2470 
G01 X-9.7733 Y14.1855 
G01 X-9.6396 Y14.0961 
G01 X-9.5259 Y13.9824 
G01 X-9.4365 Y13.8487 
G01 X-9.3750 Y13.7001 
G01 X-9.3436 Y13.5424 
G01 X-9.3436 Y12.7544 
G01 X-9.1984 Y12.7544 
G00 Z2.5400 
G00 X-10.9764 Y12.7544 
G01 Z-0.0500 F254.00 
G01 X-10.9764 Y13.5424 F254.00 
G01 X-10.9450 Y13.7001 
G01 X-10.8835 Y13.8487 
G01 X-10.7941 Y13.9824 
G01 X-10.6804 Y14.0961 
G01 X-10.5467 Y14.1855 
G01 X-10.3981 Y14.2470 
G01 X-10.2404 Y14.2784 
G01 X-10.2144 Y14.2784 
G01 X-10.2144 Y14.4236 
G01 X-10.2547 Y14.4236 
G01 X-10.4405 Y14.3867 
G01 X-10.6155 Y14.3142 
G01 X-10.7730 Y14.2089 
G01 X-10.9069 Y14.0750 
G01 X-11.0122 Y13.9175 
G01 X-11.0847 Y13.7425 
G01 X-11.1216 Y13.5567 
G01 X-11.1216 Y12.7544 
G01 X-10.9764 Y12.7544 
G00 Z2.5400 
G00 X-12.2464 Y12.7544 
G01 Z-0.0500 F254.00 
G01 X-12.2464 Y12.7947 F254.00 
G01 X-12.2833 Y12.9805 
G01 X-12.3558 Y13.1555 
G01 X-12.4611 Y13.3130 
G01 X-12.5950 Y13.4469 
G01 X-12.7525 Y13.5522 
G01 X-12.9275 Y13.6247 
G01 X-13.1133 Y13.6616 
G01 X-13.9156 Y13.6616 
G01 X-13.9156 Y13.5164 
G01 X-13.1276 Y13.5164 
G01 X-12.9699 Y13.4850 
G01 X-12.8213 Y13.4235 
G01 X-12.6876 Y13.3341 
G01 X-12.5739 Y13.2204 
G01 X-12.4845 Y13.0867 
G01 X-12.4230 Y12.9381 
G01 X-12.3916 Y12.7804 
G01 X-12.3916 Y12.7544 
G01 X-12.2464 Y12.7544 
G00 Z2.5400 
G00 X-12.2464 Y12.6456 
G01 Z-0.0500 F254.00 
G01 X-12.3916 Y12.6456 F254.00 
G01 X-12.3916 Y12.6196 
G01 X-12.4230 Y12.4619 
G01 X-12.4845 Y12.3133 
G01 X-12.5739 Y12.1796 
G01 X-12.6876 Y12.0659 
G01 X-12.8213 Y11.9765 
G01 X-12.9699 Y11.9150 
G01 X-13.1276 Y11.8836 
G01 X-13.9156 Y11.8836 
G01 X-13.9156 Y11.7384 
G01 X-13.1133 Y11.7384 
G01 X-12.9275 Y11.7753 
G01 X-12.7525 Y11.8478 
G01 X-12.5950 Y11.9531 
G01 X-12.4611 Y12.0870 
G01 X-12.3558 Y12.2445 
G01 X-12.2833 Y12.4195 
G01 X-12.2464 Y12.6053 
G01 X-12.2464 Y12.6456 
G00 Z2.5400 
G00 X-12.3497 Y14.6665 
G01 Z-0.0500 F254.00 
G01 X-12.1956 Y15.0386 F254.00 
G01 X-12.1956 Y15.4414 
G01 X-12.3497 Y15.8135 
G01 X-12.6345 Y16.0983 
G01 X-13.0066 Y16.2524 
G01 X-14.9334 Y16.2524 
G01 X-15.2200 Y16.1337 
G01 X-15.2283 Y16.1254 
G01 X-15.2400 Y16.1254 
G01 X-15.2508 Y16.1209 
G01 X-15.2616 Y16.1254 
G01 X-17.1840 Y16.1254 
G01 X-17.1948 Y16.1209 
G01 X-17.2056 Y16.1254 
G01 X-17.2173 Y16.1254 
G01 X-17.2256 Y16.1337 
G01 X-17.5736 Y16.2778 
G01 X-17.9864 Y16.2778 
G01 X-18.3679 Y16.1198 
G01 X-18.6598 Y15.8279 
G01 X-18.8178 Y15.4464 
G01 X-18.8178 Y15.0336 
G01 X-18.6598 Y14.6521 
G01 X-18.3679 Y14.3602 
G01 X-17.9864 Y14.2022 
G01 X-17.5736 Y14.2022 
G01 X-17.2256 Y14.3463 
G01 X-17.2173 Y14.3546 
G01 X-17.2056 Y14.3546 
G01 X-17.1948 Y14.3591 
G01 X-17.1840 Y14.3546 
G01 X-15.2616 Y14.3546 
G01 X-15.2508 Y14.3591 
G01 X-15.2400 Y14.3546 
G01 X-15.2283 Y14.3546 
G01 X-15.2200 Y14.3463 
G01 X-14.9334 Y14.2276 
G01 X-13.0066 Y14.2276 
G01 X-12.6345 Y14.3817 
G01 X-12.3497 Y14.6665 
G00 Z2.5400 
G00 X-12.5739 Y14.7196 
G01 Z-0.0500 F254.00 
G01 X-12.6876 Y14.6059 F254.00 
G01 X-12.8213 Y14.5165 
G01 X-12.9699 Y14.4550 
G01 X-13.1276 Y14.4236 
G01 X-14.8124 Y14.4236 
G01 X-14.9701 Y14.4550 
G01 X-15.1187 Y14.5165 
G01 X-15.1697 Y14.5506 
G01 X-17.2966 Y14.5506 
G01 X-17.3813 Y14.4940 
G01 X-17.5345 Y14.4306 
G01 X-17.6971 Y14.3982 
G01 X-17.8629 Y14.3982 
G01 X-18.0255 Y14.4306 
G01 X-18.1787 Y14.4940 
G01 X-18.3166 Y14.5861 
G01 X-18.4339 Y14.7034 
G01 X-18.5260 Y14.8413 
G01 X-18.5894 Y14.9945 
G01 X-18.6218 Y15.1571 
G01 X-18.6218 Y15.3229 
G01 X-18.5894 Y15.4855 
G01 X-18.5260 Y15.6387 
G01 X-18.4339 Y15.7766 
G01 X-18.3166 Y15.8939 
G01 X-18.1787 Y15.9860 
G01 X-18.0255 Y16.0494 
G01 X-17.8629 Y16.0818 
G01 X-17.6971 Y16.0818 
G01 X-17.5345 Y16.0494 
G01 X-17.3813 Y15.9860 
G01 X-17.2966 Y15.9294 
G01 X-15.1697 Y15.9294 
G01 X-15.1187 Y15.9635 
G01 X-14.9701 Y16.0250 
G01 X-14.8124 Y16.0564 
G01 X-13.1276 Y16.0564 
G01 X-12.9699 Y16.0250 
G01 X-12.8213 Y15.9635 
G01 X-12.6876 Y15.8741 
G01 X-12.5739 Y15.7604 
G01 X-12.4845 Y15.6267 
G01 X-12.4230 Y15.4781 
G01 X-12.3916 Y15.3204 
G01 X-12.3916 Y15.1596 
G01 X-12.4230 Y15.0019 
G01 X-12.4845 Y14.8533 
G01 X-12.5739 Y14.7196 
G00 Z2.5400 
G00 X-14.0244 Y13.6616 
G01 Z-0.0500 F254.00 
G01 X-14.8267 Y13.6616 F254.00 
G01 X-15.0125 Y13.6247 
G01 X-15.1875 Y13.5522 
G01 X-15.3450 Y13.4469 
G01 X-15.4025 Y13.3894 
G01 X-15.1697 Y13.3894 
G01 X-15.1187 Y13.4235 
G01 X-14.9701 Y13.4850 
G01 X-14.8124 Y13.5164 
G01 X-14.0244 Y13.5164 
G01 X-14.0244 Y13.6616 
G00 Z2.5400 
G00 X-14.0244 Y11.8836 
G01 Z-0.0500 F254.00 
G01 X-14.8124 Y11.8836 F254.00 
G01 X-14.9701 Y11.9150 
G01 X-15.1187 Y11.9765 
G01 X-15.1697 Y12.0106 
G01 X-15.4025 Y12.0106 
G01 X-15.3450 Y11.9531 
G01 X-15.1875 Y11.8478 
G01 X-15.0125 Y11.7753 
G01 X-14.8267 Y11.7384 
G01 X-14.0244 Y11.7384 
G01 X-14.0244 Y11.8836 
G00 Z2.5400 
G00 X-17.1370 Y11.9472 
G01 Z-0.0500 F254.00 
G01 X-17.0735 Y12.0106 F254.00 
G01 X-17.2966 Y12.0106 
G01 X-17.3813 Y11.9540 
G01 X-17.5345 Y11.8905 
G01 X-17.6971 Y11.8582 
G01 X-17.7256 Y11.8582 
G01 X-17.7256 Y11.7130 
G01 X-17.7023 Y11.7130 
G01 X-17.5489 Y11.7373 
G01 X-17.4011 Y11.7853 
G01 X-17.2627 Y11.8558 
G01 X-17.1370 Y11.9472 
G00 Z2.5400 
G00 X-17.8344 Y11.8582 
G01 Z-0.0500 F254.00 
G01 X-17.8629 Y11.8582 F254.00 
G01 X-18.0255 Y11.8905 
G01 X-18.1787 Y11.9540 
G01 X-18.3166 Y12.0461 
G01 X-18.4339 Y12.1634 
G01 X-18.5260 Y12.3013 
G01 X-18.5894 Y12.4545 
G01 X-18.6218 Y12.6171 
G01 X-18.6218 Y12.6456 
G01 X-18.7670 Y12.6456 
G01 X-18.7670 Y12.6223 
G01 X-18.7427 Y12.4689 
G01 X-18.6947 Y12.3211 
G01 X-18.6242 Y12.1827 
G01 X-18.5328 Y12.0570 
G01 X-18.4230 Y11.9472 
G01 X-18.2973 Y11.8558 
G01 X-18.1589 Y11.7853 
G01 X-18.0111 Y11.7373 
G01 X-17.8577 Y11.7130 
G01 X-17.8344 Y11.7130 
G01 X-17.8344 Y11.8582 
G00 Z2.5400 
G00 X-18.6218 Y12.7544 
G01 Z-0.0500 F254.00 
G01 X-18.6218 Y12.7829 F254.00 
G01 X-18.5894 Y12.9455 
G01 X-18.5260 Y13.0987 
G01 X-18.4339 Y13.2366 
G01 X-18.3166 Y13.3539 
G01 X-18.1787 Y13.4460 
G01 X-18.0255 Y13.5094 
G01 X-17.8629 Y13.5418 
G01 X-17.8344 Y13.5418 
G01 X-17.8344 Y13.6870 
G01 X-17.8577 Y13.6870 
G01 X-18.0111 Y13.6627 
G01 X-18.1589 Y13.6147 
G01 X-18.2973 Y13.5442 
G01 X-18.4230 Y13.4528 
G01 X-18.5328 Y13.3430 
G01 X-18.6242 Y13.2173 
G01 X-18.6947 Y13.0789 
G01 X-18.7427 Y12.9311 
G01 X-18.7670 Y12.7777 
G01 X-18.7670 Y12.7544 
G01 X-18.6218 Y12.7544 
G00 Z2.5400 
G00 X-17.7256 Y13.5418 
G01 Z-0.0500 F254.00 
G01 X-17.6971 Y13.5418 F254.00 
G01 X-17.5345 Y13.5094 
G01 X-17.3813 Y13.4460 
G01 X-17.2966 Y13.3894 
G01 X-17.0735 Y13.3894 
G01 X-17.1370 Y13.4528 
G01 X-17.2627 Y13.5442 
G01 X-17.4011 Y13.6147 
G01 X-17.5489 Y13.6627 
G01 X-17.7023 Y13.6870 
G01 X-17.7256 Y13.6870 
G01 X-17.7256 Y13.5418 
G00 Z2.5400 
G00 X-17.6971 Y16.9382 
G01 Z-0.0500 F254.00 
G01 X-17.8629 Y16.9382 F254.00 
G01 X-18.0255 Y16.9705 
G01 X-18.1787 Y17.0340 
G01 X-18.2634 Y17.0906 
G01 X-19.6306 Y17.0906 
G01 X-19.6306 Y2.4721 
G01 X-19.6571 Y2.3389 
G01 X-19.7091 Y2.2134 
G01 X-19.7845 Y2.1005 
G01 X-19.8805 Y2.0045 
G01 X-19.9934 Y1.9291 
G01 X-20.1189 Y1.8771 
G01 X-20.2521 Y1.8506 
G01 X-41.9779 Y1.8506 
G01 X-42.1111 Y1.8771 
G01 X-42.2366 Y1.9291 
G01 X-42.3495 Y2.0045 
G01 X-42.4455 Y2.1005 
G01 X-42.5209 Y2.2134 
G01 X-42.5729 Y2.3389 
G01 X-42.5994 Y2.4721 
G01 X-42.5994 Y6.9306 
G01 X-45.5179 Y6.9306 
G01 X-45.6511 Y6.9571 
G01 X-45.7766 Y7.0091 
G01 X-45.8895 Y7.0845 
G01 X-45.9855 Y7.1805 
G01 X-46.0609 Y7.2934 
G01 X-46.1129 Y7.4189 
G01 X-46.1394 Y7.5521 
G01 X-46.1394 Y12.5347 
G01 X-46.1584 Y12.6302 
G01 X-46.1584 Y12.7698 
G01 X-46.1394 Y12.8653 
G01 X-46.1394 Y35.3947 
G01 X-46.1584 Y35.4902 
G01 X-46.1584 Y35.6298 
G01 X-46.1312 Y35.7666 
G01 X-46.0778 Y35.8956 
G01 X-46.0002 Y36.0116 
G01 X-45.9016 Y36.1102 
G01 X-45.7856 Y36.1878 
G01 X-45.6566 Y36.2412 
G01 X-45.5198 Y36.2684 
G01 X-45.3802 Y36.2684 
G01 X-45.2434 Y36.2412 
G01 X-45.1144 Y36.1878 
G01 X-44.9984 Y36.1102 
G01 X-44.8997 Y36.0116 
G01 X-44.8222 Y35.8956 
G01 X-44.7688 Y35.7666 
G01 X-44.7416 Y35.6298 
G01 X-44.7416 Y35.4902 
G01 X-44.7606 Y35.3947 
G01 X-44.7606 Y12.8653 
G01 X-44.7416 Y12.7698 
G01 X-44.7416 Y12.6302 
G01 X-44.7606 Y12.5347 
G01 X-44.7606 Y8.3094 
G01 X-41.8421 Y8.3094 
G01 X-41.7089 Y8.2829 
G01 X-41.5834 Y8.2309 
G01 X-41.4705 Y8.1555 
G01 X-41.3745 Y8.0595 
G01 X-41.2991 Y7.9466 
G01 X-41.2471 Y7.8211 
G01 X-41.2206 Y7.6879 
G01 X-41.2206 Y3.2294 
G01 X-27.3594 Y3.2294 
G01 X-27.3594 Y7.6879 
G01 X-27.3329 Y7.8211 
G01 X-27.2809 Y7.9466 
G01 X-27.2055 Y8.0595 
G01 X-27.1095 Y8.1555 
G01 X-26.9966 Y8.2309 
G01 X-26.8711 Y8.2829 
G01 X-26.7379 Y8.3094 
G01 X-26.5653 Y8.3094 
G01 X-26.4698 Y8.3284 
G01 X-26.3302 Y8.3284 
G01 X-26.1934 Y8.3012 
G01 X-26.0644 Y8.2478 
G01 X-25.9484 Y8.1702 
G01 X-25.8498 Y8.0716 
G01 X-25.7722 Y7.9556 
G01 X-25.7188 Y7.8266 
G01 X-25.6916 Y7.6898 
G01 X-25.6916 Y7.5502 
G01 X-25.7188 Y7.4134 
G01 X-25.7722 Y7.2844 
G01 X-25.8498 Y7.1684 
G01 X-25.9484 Y7.0697 
G01 X-25.9806 Y7.0483 
G01 X-25.9806 Y3.2294 
G01 X-21.0094 Y3.2294 
G01 X-21.0094 Y17.8479 
G01 X-20.9829 Y17.9811 
G01 X-20.9309 Y18.1066 
G01 X-20.8555 Y18.2195 
G01 X-20.7595 Y18.3155 
G01 X-20.6466 Y18.3909 
G01 X-20.5211 Y18.4429 
G01 X-20.3879 Y18.4694 
G01 X-18.2634 Y18.4694 
G01 X-18.1787 Y18.5260 
G01 X-18.0255 Y18.5894 
G01 X-17.8629 Y18.6218 
G01 X-17.6971 Y18.6218 
G01 X-17.5345 Y18.5894 
G01 X-17.3813 Y18.5260 
G01 X-17.2966 Y18.4694 
G01 X-15.1697 Y18.4694 
G01 X-15.1187 Y18.5035 
G01 X-14.9701 Y18.5650 
G01 X-14.8124 Y18.5964 
G01 X-13.1276 Y18.5964 
G01 X-12.9699 Y18.5650 
G01 X-12.8213 Y18.5035 
G01 X-12.7703 Y18.4694 
G01 X-10.9764 Y18.4694 
G01 X-10.9764 Y18.6224 
G01 X-10.9450 Y18.7801 
G01 X-10.8835 Y18.9287 
G01 X-10.7941 Y19.0624 
G01 X-10.6804 Y19.1761 
G01 X-10.5467 Y19.2655 
G01 X-10.3981 Y19.3270 
G01 X-10.2404 Y19.3584 
G01 X-10.0796 Y19.3584 
G01 X-9.9219 Y19.3270 
G01 X-9.7733 Y19.2655 
G01 X-9.6396 Y19.1761 
G01 X-9.5259 Y19.0624 
G01 X-9.4365 Y18.9287 
G01 X-9.3750 Y18.7801 
G01 X-9.3436 Y18.6224 
G01 X-9.3436 Y18.4694 
G01 X-8.4364 Y18.4694 
G01 X-8.4364 Y18.6224 
G01 X-8.4050 Y18.7801 
G01 X-8.3435 Y18.9287 
G01 X-8.3094 Y18.9797 
G01 X-8.3094 Y26.7379 
G01 X-8.2829 Y26.8711 
G01 X-8.2309 Y26.9966 
G01 X-8.1555 Y27.1095 
G01 X-8.0595 Y27.2055 
G01 X-7.9466 Y27.2809 
G01 X-7.8211 Y27.3329 
G01 X-7.6879 Y27.3594 
G01 X-6.0394 Y27.3594 
G01 X-6.0394 Y32.8547 
G01 X-6.0584 Y32.9502 
G01 X-6.0584 Y33.0898 
G01 X-6.0312 Y33.2266 
G01 X-5.9778 Y33.3556 
G01 X-5.9002 Y33.4716 
G01 X-5.8016 Y33.5702 
G01 X-5.6856 Y33.6478 
G01 X-5.5566 Y33.7012 
G01 X-5.4198 Y33.7284 
G01 X-5.2802 Y33.7284 
G01 X-5.1434 Y33.7012 
G01 X-5.0144 Y33.6478 
G01 X-4.8984 Y33.5702 
G01 X-4.7998 Y33.4716 
G01 X-4.7222 Y33.3556 
G01 X-4.6688 Y33.2266 
G01 X-4.6416 Y33.0898 
G01 X-4.6416 Y32.9502 
G01 X-4.6606 Y32.8547 
G01 X-4.6606 Y26.6021 
G01 X-4.6871 Y26.4689 
G01 X-4.7391 Y26.3434 
G01 X-4.8145 Y26.2305 
G01 X-4.9105 Y26.1345 
G01 X-5.0234 Y26.0591 
G01 X-5.1489 Y26.0071 
G01 X-5.2821 Y25.9806 
G01 X-6.9306 Y25.9806 
G01 X-6.9306 Y18.9797 
G01 X-6.8965 Y18.9287 
G01 X-6.8350 Y18.7801 
G01 X-6.8036 Y18.6224 
G01 X-6.8036 Y18.4694 
G01 X-5.8964 Y18.4694 
G01 X-5.8964 Y18.6224 
G01 X-5.8650 Y18.7801 
G01 X-5.8035 Y18.9287 
G01 X-5.7141 Y19.0624 
G01 X-5.6004 Y19.1761 
G01 X-5.4667 Y19.2655 
G01 X-5.3181 Y19.3270 
G01 X-5.1604 Y19.3584 
G01 X-4.9996 Y19.3584 
G01 X-4.8419 Y19.3270 
G01 X-4.6933 Y19.2655 
G01 X-4.5596 Y19.1761 
G01 X-4.4459 Y19.0624 
G01 X-4.3565 Y18.9287 
G01 X-4.2950 Y18.7801 
G01 X-4.2636 Y18.6224 
G01 X-4.2636 Y18.4694 
G01 X-3.3564 Y18.4694 
G01 X-3.3564 Y18.6224 
G01 X-3.3250 Y18.7801 
G01 X-3.2635 Y18.9287 
G01 X-3.1741 Y19.0624 
G01 X-3.0604 Y19.1761 
G01 X-2.9267 Y19.2655 
G01 X-2.7781 Y19.3270 
G01 X-2.6204 Y19.3584 
G01 X-2.4596 Y19.3584 
G01 X-2.3019 Y19.3270 
G01 X-2.1533 Y19.2655 
G01 X-2.0196 Y19.1761 
G01 X-1.9059 Y19.0624 
G01 X-1.8165 Y18.9287 
G01 X-1.7550 Y18.7801 
G01 X-1.7236 Y18.6224 
G01 X-1.7236 Y16.9376 
G01 X-1.7550 Y16.7799 
G01 X-1.8165 Y16.6313 
G01 X-1.9059 Y16.4976 
G01 X-2.0196 Y16.3839 
G01 X-2.1533 Y16.2945 
G01 X-2.3019 Y16.2330 
G01 X-2.4596 Y16.2016 
G01 X-2.6204 Y16.2016 
G01 X-2.7781 Y16.2330 
G01 X-2.9267 Y16.2945 
G01 X-3.0604 Y16.3839 
G01 X-3.1741 Y16.4976 
G01 X-3.2635 Y16.6313 
G01 X-3.3250 Y16.7799 
G01 X-3.3564 Y16.9376 
G01 X-3.3564 Y17.0906 
G01 X-4.2636 Y17.0906 
G01 X-4.2636 Y16.9376 
G01 X-4.2950 Y16.7799 
G01 X-4.3565 Y16.6313 
G01 X-4.4459 Y16.4976 
G01 X-4.5596 Y16.3839 
G01 X-4.6933 Y16.2945 
G01 X-4.8419 Y16.2330 
G01 X-4.9996 Y16.2016 
G01 X-5.1604 Y16.2016 
G01 X-5.3181 Y16.2330 
G01 X-5.4667 Y16.2945 
G01 X-5.6004 Y16.3839 
G01 X-5.7141 Y16.4976 
G01 X-5.8035 Y16.6313 
G01 X-5.8650 Y16.7799 
G01 X-5.8964 Y16.9376 
G01 X-5.8964 Y17.0906 
G01 X-6.8036 Y17.0906 
G01 X-6.8036 Y16.9376 
G01 X-6.8350 Y16.7799 
G01 X-6.8965 Y16.6313 
G01 X-6.9859 Y16.4976 
G01 X-7.0996 Y16.3839 
G01 X-7.2333 Y16.2945 
G01 X-7.3819 Y16.2330 
G01 X-7.5396 Y16.2016 
G01 X-7.7004 Y16.2016 
G01 X-7.8581 Y16.2330 
G01 X-8.0067 Y16.2945 
G01 X-8.1404 Y16.3839 
G01 X-8.2541 Y16.4976 
G01 X-8.3435 Y16.6313 
G01 X-8.4050 Y16.7799 
G01 X-8.4364 Y16.9376 
G01 X-8.4364 Y17.0906 
G01 X-9.3436 Y17.0906 
G01 X-9.3436 Y16.9376 
G01 X-9.3750 Y16.7799 
G01 X-9.4365 Y16.6313 
G01 X-9.5259 Y16.4976 
G01 X-9.6396 Y16.3839 
G01 X-9.7733 Y16.2945 
G01 X-9.9219 Y16.2330 
G01 X-10.0796 Y16.2016 
G01 X-10.2404 Y16.2016 
G01 X-10.3981 Y16.2330 
G01 X-10.5467 Y16.2945 
G01 X-10.6804 Y16.3839 
G01 X-10.7941 Y16.4976 
G01 X-10.8835 Y16.6313 
G01 X-10.9450 Y16.7799 
G01 X-10.9764 Y16.9376 
G01 X-10.9764 Y17.0906 
G01 X-12.7703 Y17.0906 
G01 X-12.8213 Y17.0565 
G01 X-12.9699 Y16.9950 
G01 X-13.1276 Y16.9636 
G01 X-14.8124 Y16.9636 
G01 X-14.9701 Y16.9950 
G01 X-15.1187 Y17.0565 
G01 X-15.1697 Y17.0906 
G01 X-17.2966 Y17.0906 
G01 X-17.3813 Y17.0340 
G01 X-17.5345 Y16.9705 
G01 X-17.6971 Y16.9382 
G00 Z2.5400 
G00 X-17.5736 Y19.2822 
G01 Z-0.0500 F254.00 
G01 X-17.2256 Y19.4263 F254.00 
G01 X-17.2173 Y19.4346 
G01 X-17.2056 Y19.4346 
G01 X-17.1948 Y19.4391 
G01 X-17.1840 Y19.4346 
G01 X-15.2616 Y19.4346 
G01 X-15.2508 Y19.4391 
G01 X-15.2400 Y19.4346 
G01 X-15.2283 Y19.4346 
G01 X-15.2200 Y19.4263 
G01 X-14.9334 Y19.3076 
G01 X-13.0066 Y19.3076 
G01 X-12.6345 Y19.4617 
G01 X-12.3497 Y19.7465 
G01 X-12.1956 Y20.1186 
G01 X-12.1956 Y20.5214 
G01 X-12.3497 Y20.8935 
G01 X-12.6345 Y21.1783 
G01 X-13.0066 Y21.3324 
G01 X-14.9334 Y21.3324 
G01 X-15.2200 Y21.2137 
G01 X-15.2283 Y21.2054 
G01 X-15.2400 Y21.2054 
G01 X-15.2508 Y21.2009 
G01 X-15.2616 Y21.2054 
G01 X-17.1840 Y21.2054 
G01 X-17.1948 Y21.2009 
G01 X-17.2056 Y21.2054 
G01 X-17.2173 Y21.2054 
G01 X-17.2256 Y21.2137 
G01 X-17.5736 Y21.3578 
G01 X-17.9864 Y21.3578 
G01 X-18.3679 Y21.1998 
G01 X-18.6598 Y20.9079 
G01 X-18.8178 Y20.5264 
G01 X-18.8178 Y20.1136 
G01 X-18.6598 Y19.7321 
G01 X-18.3679 Y19.4402 
G01 X-17.9864 Y19.2822 
G01 X-17.5736 Y19.2822 
G00 Z2.5400 
G00 X-17.5345 Y19.5105 
G01 Z-0.0500 F254.00 
G01 X-17.6971 Y19.4782 F254.00 
G01 X-17.8629 Y19.4782 
G01 X-18.0255 Y19.5105 
G01 X-18.1787 Y19.5740 
G01 X-18.3166 Y19.6661 
G01 X-18.4339 Y19.7834 
G01 X-18.5260 Y19.9213 
G01 X-18.5894 Y20.0745 
G01 X-18.6218 Y20.2371 
G01 X-18.6218 Y20.4029 
G01 X-18.5894 Y20.5655 
G01 X-18.5260 Y20.7187 
G01 X-18.4339 Y20.8566 
G01 X-18.3166 Y20.9739 
G01 X-18.1787 Y21.0660 
G01 X-18.0255 Y21.1294 
G01 X-17.8629 Y21.1618 
G01 X-17.6971 Y21.1618 
G01 X-17.5345 Y21.1294 
G01 X-17.3813 Y21.0660 
G01 X-17.2966 Y21.0094 
G01 X-15.1697 Y21.0094 
G01 X-15.1187 Y21.0435 
G01 X-14.9701 Y21.1050 
G01 X-14.8124 Y21.1364 
G01 X-13.1276 Y21.1364 
G01 X-12.9699 Y21.1050 
G01 X-12.8213 Y21.0435 
G01 X-12.6876 Y20.9541 
G01 X-12.5739 Y20.8404 
G01 X-12.4845 Y20.7067 
G01 X-12.4230 Y20.5581 
G01 X-12.3916 Y20.4004 
G01 X-12.3916 Y20.2396 
G01 X-12.4230 Y20.0819 
G01 X-12.4845 Y19.9333 
G01 X-12.5739 Y19.7996 
G01 X-12.6876 Y19.6859 
G01 X-12.8213 Y19.5965 
G01 X-12.9699 Y19.5350 
G01 X-13.1276 Y19.5036 
G01 X-14.8124 Y19.5036 
G01 X-14.9701 Y19.5350 
G01 X-15.1187 Y19.5965 
G01 X-15.1697 Y19.6306 
G01 X-17.2966 Y19.6306 
G01 X-17.3813 Y19.5740 
G01 X-17.5345 Y19.5105 
G00 Z2.5400 
G00 X-17.5736 Y21.8222 
G01 Z-0.0500 F254.00 
G01 X-17.2256 Y21.9663 F254.00 
G01 X-17.2173 Y21.9746 
G01 X-17.2056 Y21.9746 
G01 X-17.1948 Y21.9791 
G01 X-17.1840 Y21.9746 
G01 X-15.2616 Y21.9746 
G01 X-15.2508 Y21.9791 
G01 X-15.2400 Y21.9746 
G01 X-15.2283 Y21.9746 
G01 X-15.2200 Y21.9663 
G01 X-14.9334 Y21.8476 
G01 X-13.0066 Y21.8476 
G01 X-12.6345 Y22.0017 
G01 X-12.3497 Y22.2865 
G01 X-12.1956 Y22.6586 
G01 X-12.1956 Y23.0614 
G01 X-12.3497 Y23.4335 
G01 X-12.6345 Y23.7183 
G01 X-13.0066 Y23.8724 
G01 X-14.9334 Y23.8724 
G01 X-15.2200 Y23.7537 
G01 X-15.2283 Y23.7454 
G01 X-15.2400 Y23.7454 
G01 X-15.2508 Y23.7409 
G01 X-15.2616 Y23.7454 
G01 X-17.1840 Y23.7454 
G01 X-17.1948 Y23.7409 
G01 X-17.2056 Y23.7454 
G01 X-17.2173 Y23.7454 
G01 X-17.2256 Y23.7537 
G01 X-17.5736 Y23.8978 
G01 X-17.9864 Y23.8978 
G01 X-18.3679 Y23.7398 
G01 X-18.6598 Y23.4479 
G01 X-18.8178 Y23.0664 
G01 X-18.8178 Y22.6536 
G01 X-18.6598 Y22.2721 
G01 X-18.3679 Y21.9802 
G01 X-17.9864 Y21.8222 
G01 X-17.5736 Y21.8222 
G00 Z2.5400 
G00 X-17.5345 Y22.0506 
G01 Z-0.0500 F254.00 
G01 X-17.6971 Y22.0182 F254.00 
G01 X-17.8629 Y22.0182 
G01 X-18.0255 Y22.0506 
G01 X-18.1787 Y22.1140 
G01 X-18.3166 Y22.2061 
G01 X-18.4339 Y22.3234 
G01 X-18.5260 Y22.4613 
G01 X-18.5894 Y22.6145 
G01 X-18.6218 Y22.7771 
G01 X-18.6218 Y22.9429 
G01 X-18.5894 Y23.1055 
G01 X-18.5260 Y23.2587 
G01 X-18.4339 Y23.3966 
G01 X-18.3166 Y23.5139 
G01 X-18.1787 Y23.6060 
G01 X-18.0255 Y23.6694 
G01 X-17.8629 Y23.7018 
G01 X-17.6971 Y23.7018 
G01 X-17.5345 Y23.6694 
G01 X-17.3813 Y23.6060 
G01 X-17.2966 Y23.5494 
G01 X-15.1697 Y23.5494 
G01 X-15.1187 Y23.5835 
G01 X-14.9701 Y23.6450 
G01 X-14.8124 Y23.6764 
G01 X-13.1276 Y23.6764 
G01 X-12.9699 Y23.6450 
G01 X-12.8213 Y23.5835 
G01 X-12.6876 Y23.4941 
G01 X-12.5739 Y23.3804 
G01 X-12.4845 Y23.2467 
G01 X-12.4230 Y23.0981 
G01 X-12.3916 Y22.9404 
G01 X-12.3916 Y22.7796 
G01 X-12.4230 Y22.6219 
G01 X-12.4845 Y22.4733 
G01 X-12.5739 Y22.3396 
G01 X-12.6876 Y22.2259 
G01 X-12.8213 Y22.1365 
G01 X-12.9699 Y22.0750 
G01 X-13.1276 Y22.0436 
G01 X-14.8124 Y22.0436 
G01 X-14.9701 Y22.0750 
G01 X-15.1187 Y22.1365 
G01 X-15.1697 Y22.1706 
G01 X-17.2966 Y22.1706 
G01 X-17.3813 Y22.1140 
G01 X-17.5345 Y22.0506 
G00 Z2.5400 
G00 X-17.5736 Y24.3622 
G01 Z-0.0500 F254.00 
G01 X-17.2256 Y24.5063 F254.00 
G01 X-17.2173 Y24.5146 
G01 X-17.2056 Y24.5146 
G01 X-17.1948 Y24.5191 
G01 X-17.1840 Y24.5146 
G01 X-15.2616 Y24.5146 
G01 X-15.2508 Y24.5191 
G01 X-15.2400 Y24.5146 
G01 X-15.2283 Y24.5146 
G01 X-15.2200 Y24.5063 
G01 X-14.9334 Y24.3876 
G01 X-13.0066 Y24.3876 
G01 X-12.6345 Y24.5417 
G01 X-12.3497 Y24.8265 
G01 X-12.1956 Y25.1986 
G01 X-12.1956 Y25.6014 
G01 X-12.3497 Y25.9735 
G01 X-12.6345 Y26.2583 
G01 X-13.0066 Y26.4124 
G01 X-14.9334 Y26.4124 
G01 X-15.2200 Y26.2937 
G01 X-15.2283 Y26.2854 
G01 X-15.2400 Y26.2854 
G01 X-15.2508 Y26.2809 
G01 X-15.2616 Y26.2854 
G01 X-17.1840 Y26.2854 
G01 X-17.1948 Y26.2809 
G01 X-17.2056 Y26.2854 
G01 X-17.2173 Y26.2854 
G01 X-17.2256 Y26.2937 
G01 X-17.5736 Y26.4378 
G01 X-17.9864 Y26.4378 
G01 X-18.3344 Y26.2937 
G01 X-18.3426 Y26.2854 
G01 X-18.3544 Y26.2854 
G01 X-18.3652 Y26.2809 
G01 X-18.3760 Y26.2854 
G01 X-22.5761 Y26.2854 
G01 X-22.9015 Y26.1506 
G01 X-23.1506 Y25.9015 
G01 X-23.2854 Y25.5761 
G01 X-23.2854 Y7.8674 
G01 X-23.2809 Y7.8566 
G01 X-23.2854 Y7.8458 
G01 X-23.2854 Y7.8341 
G01 X-23.2937 Y7.8258 
G01 X-23.3044 Y7.7999 
G01 X-23.3044 Y7.4401 
G01 X-23.1667 Y7.1077 
G01 X-22.9123 Y6.8533 
G01 X-22.5799 Y6.7156 
G01 X-22.2201 Y6.7156 
G01 X-21.8877 Y6.8533 
G01 X-21.6333 Y7.1077 
G01 X-21.4956 Y7.4401 
G01 X-21.4956 Y7.7999 
G01 X-21.5063 Y7.8258 
G01 X-21.5146 Y7.8341 
G01 X-21.5146 Y7.8458 
G01 X-21.5191 Y7.8566 
G01 X-21.5146 Y7.8674 
G01 X-21.5146 Y24.4827 
G01 X-21.4827 Y24.5146 
G01 X-18.3760 Y24.5146 
G01 X-18.3652 Y24.5191 
G01 X-18.3544 Y24.5146 
G01 X-18.3426 Y24.5146 
G01 X-18.3344 Y24.5063 
G01 X-17.9864 Y24.3622 
G01 X-17.5736 Y24.3622 
G00 Z2.5400 
G00 X-17.5345 Y24.5906 
G01 Z-0.0500 F254.00 
G01 X-17.6971 Y24.5582 F254.00 
G01 X-17.8629 Y24.5582 
G01 X-18.0255 Y24.5906 
G01 X-18.1787 Y24.6540 
G01 X-18.2634 Y24.7106 
G01 X-21.7106 Y24.7106 
G01 X-21.7106 Y7.7853 
G01 X-21.6916 Y7.6898 
G01 X-21.6916 Y7.5502 
G01 X-21.7188 Y7.4134 
G01 X-21.7722 Y7.2844 
G01 X-21.8498 Y7.1684 
G01 X-21.9484 Y7.0697 
G01 X-22.0644 Y6.9922 
G01 X-22.1934 Y6.9388 
G01 X-22.3302 Y6.9116 
G01 X-22.4698 Y6.9116 
G01 X-22.6066 Y6.9388 
G01 X-22.7356 Y6.9922 
G01 X-22.8516 Y7.0697 
G01 X-22.9502 Y7.1684 
G01 X-23.0278 Y7.2844 
G01 X-23.0812 Y7.4134 
G01 X-23.1084 Y7.5502 
G01 X-23.1084 Y7.6898 
G01 X-23.0894 Y7.7853 
G01 X-23.0894 Y25.4679 
G01 X-23.0629 Y25.6011 
G01 X-23.0109 Y25.7266 
G01 X-22.9355 Y25.8395 
G01 X-22.8395 Y25.9355 
G01 X-22.7266 Y26.0109 
G01 X-22.6011 Y26.0629 
G01 X-22.4679 Y26.0894 
G01 X-18.2634 Y26.0894 
G01 X-18.1787 Y26.1460 
G01 X-18.0255 Y26.2094 
G01 X-17.8629 Y26.2418 
G01 X-17.6971 Y26.2418 
G01 X-17.5345 Y26.2094 
G01 X-17.3813 Y26.1460 
G01 X-17.2966 Y26.0894 
G01 X-15.1697 Y26.0894 
G01 X-15.1187 Y26.1235 
G01 X-14.9701 Y26.1850 
G01 X-14.8124 Y26.2164 
G01 X-13.1276 Y26.2164 
G01 X-12.9699 Y26.1850 
G01 X-12.8213 Y26.1235 
G01 X-12.6876 Y26.0341 
G01 X-12.5739 Y25.9204 
G01 X-12.4845 Y25.7867 
G01 X-12.4230 Y25.6381 
G01 X-12.3916 Y25.4804 
G01 X-12.3916 Y25.3196 
G01 X-12.4230 Y25.1619 
G01 X-12.4845 Y25.0133 
G01 X-12.5739 Y24.8796 
G01 X-12.6876 Y24.7659 
G01 X-12.8213 Y24.6765 
G01 X-12.9699 Y24.6150 
G01 X-13.1276 Y24.5836 
G01 X-14.8124 Y24.5836 
G01 X-14.9701 Y24.6150 
G01 X-15.1187 Y24.6765 
G01 X-15.1697 Y24.7106 
G01 X-17.2966 Y24.7106 
G01 X-17.3813 Y24.6540 
G01 X-17.5345 Y24.5906 
G00 Z2.5400 
G00 X-17.5736 Y26.9022 
G01 Z-0.0500 F254.00 
G01 X-17.2256 Y27.0463 F254.00 
G01 X-17.2173 Y27.0546 
G01 X-17.2056 Y27.0546 
G01 X-17.1948 Y27.0591 
G01 X-17.1840 Y27.0546 
G01 X-15.2616 Y27.0546 
G01 X-15.2508 Y27.0591 
G01 X-15.2400 Y27.0546 
G01 X-15.2283 Y27.0546 
G01 X-15.2200 Y27.0463 
G01 X-14.9334 Y26.9276 
G01 X-13.0066 Y26.9276 
G01 X-12.7200 Y27.0463 
G01 X-12.7117 Y27.0546 
G01 X-12.7000 Y27.0546 
G01 X-12.6892 Y27.0591 
G01 X-12.6784 Y27.0546 
G01 X-9.1739 Y27.0546 
G01 X-8.8484 Y27.1894 
G01 X-8.5994 Y27.4384 
G01 X-8.4646 Y27.7639 
G01 X-8.4646 Y32.7726 
G01 X-8.4691 Y32.7834 
G01 X-8.4646 Y32.7942 
G01 X-8.4646 Y32.8059 
G01 X-8.4563 Y32.8142 
G01 X-8.4456 Y32.8401 
G01 X-8.4456 Y33.1999 
G01 X-8.5833 Y33.5323 
G01 X-8.8377 Y33.7867 
G01 X-9.1701 Y33.9244 
G01 X-9.5299 Y33.9244 
G01 X-9.8623 Y33.7867 
G01 X-10.1167 Y33.5323 
G01 X-10.2544 Y33.1999 
G01 X-10.2544 Y32.8401 
G01 X-10.2437 Y32.8142 
G01 X-10.2354 Y32.8059 
G01 X-10.2354 Y32.7942 
G01 X-10.2309 Y32.7834 
G01 X-10.2354 Y32.7726 
G01 X-10.2354 Y28.8573 
G01 X-10.2673 Y28.8254 
G01 X-10.3123 Y28.8254 
G01 X-12.6784 Y28.8254 
G01 X-12.6892 Y28.8209 
G01 X-12.7000 Y28.8254 
G01 X-12.7117 Y28.8254 
G01 X-12.7200 Y28.8337 
G01 X-13.0066 Y28.9524 
G01 X-14.9334 Y28.9524 
G01 X-15.2200 Y28.8337 
G01 X-15.2283 Y28.8254 
G01 X-15.2400 Y28.8254 
G01 X-15.2508 Y28.8209 
G01 X-15.2616 Y28.8254 
G01 X-17.1840 Y28.8254 
G01 X-17.1948 Y28.8209 
G01 X-17.2056 Y28.8254 
G01 X-17.2173 Y28.8254 
G01 X-17.2256 Y28.8337 
G01 X-17.5736 Y28.9778 
G01 X-17.9864 Y28.9778 
G01 X-18.3679 Y28.8198 
G01 X-18.6598 Y28.5279 
G01 X-18.8178 Y28.1464 
G01 X-18.8178 Y27.7336 
G01 X-18.6598 Y27.3521 
G01 X-18.3679 Y27.0602 
G01 X-17.9864 Y26.9022 
G01 X-17.5736 Y26.9022 
G00 Z2.5400 
G00 X-17.5345 Y27.1305 
G01 Z-0.0500 F254.00 
G01 X-17.6971 Y27.0982 F254.00 
G01 X-17.8629 Y27.0982 
G01 X-18.0255 Y27.1305 
G01 X-18.1787 Y27.1940 
G01 X-18.3166 Y27.2861 
G01 X-18.4339 Y27.4034 
G01 X-18.5260 Y27.5413 
G01 X-18.5894 Y27.6945 
G01 X-18.6218 Y27.8571 
G01 X-18.6218 Y28.0229 
G01 X-18.5894 Y28.1855 
G01 X-18.5260 Y28.3387 
G01 X-18.4339 Y28.4766 
G01 X-18.3166 Y28.5939 
G01 X-18.1787 Y28.6860 
G01 X-18.0255 Y28.7494 
G01 X-17.8629 Y28.7818 
G01 X-17.6971 Y28.7818 
G01 X-17.5345 Y28.7494 
G01 X-17.3813 Y28.6860 
G01 X-17.2966 Y28.6294 
G01 X-15.1697 Y28.6294 
G01 X-15.1187 Y28.6635 
G01 X-14.9701 Y28.7250 
G01 X-14.8124 Y28.7564 
G01 X-13.1276 Y28.7564 
G01 X-12.9699 Y28.7250 
G01 X-12.8213 Y28.6635 
G01 X-12.7703 Y28.6294 
G01 X-10.0394 Y28.6294 
G01 X-10.0394 Y32.8547 
G01 X-10.0584 Y32.9502 
G01 X-10.0584 Y33.0898 
G01 X-10.0312 Y33.2266 
G01 X-9.9778 Y33.3556 
G01 X-9.9002 Y33.4716 
G01 X-9.8016 Y33.5702 
G01 X-9.6856 Y33.6478 
G01 X-9.5566 Y33.7012 
G01 X-9.4198 Y33.7284 
G01 X-9.2802 Y33.7284 
G01 X-9.1434 Y33.7012 
G01 X-9.0144 Y33.6478 
G01 X-8.8984 Y33.5702 
G01 X-8.7997 Y33.4716 
G01 X-8.7222 Y33.3556 
G01 X-8.6688 Y33.2266 
G01 X-8.6416 Y33.0898 
G01 X-8.6416 Y32.9502 
G01 X-8.6606 Y32.8547 
G01 X-8.6606 Y27.8721 
G01 X-8.6871 Y27.7389 
G01 X-8.7391 Y27.6134 
G01 X-8.8145 Y27.5005 
G01 X-8.9105 Y27.4045 
G01 X-9.0234 Y27.3291 
G01 X-9.1489 Y27.2771 
G01 X-9.2821 Y27.2506 
G01 X-12.7703 Y27.2506 
G01 X-12.8213 Y27.2165 
G01 X-12.9699 Y27.1550 
G01 X-13.1276 Y27.1236 
G01 X-14.8124 Y27.1236 
G01 X-14.9701 Y27.1550 
G01 X-15.1187 Y27.2165 
G01 X-15.1697 Y27.2506 
G01 X-17.2966 Y27.2506 
G01 X-17.3813 Y27.1940 
G01 X-17.5345 Y27.1305 
G00 Z2.5400 
G00 X-17.5736 Y29.4422 
G01 Z-0.0500 F254.00 
G01 X-17.2256 Y29.5863 F254.00 
G01 X-17.2173 Y29.5946 
G01 X-17.2056 Y29.5946 
G01 X-17.1948 Y29.5991 
G01 X-17.1840 Y29.5946 
G01 X-15.2616 Y29.5946 
G01 X-15.2508 Y29.5991 
G01 X-15.2400 Y29.5946 
G01 X-15.2283 Y29.5946 
G01 X-15.2200 Y29.5863 
G01 X-14.9334 Y29.4676 
G01 X-13.0066 Y29.4676 
G01 X-12.6345 Y29.6217 
G01 X-12.3497 Y29.9065 
G01 X-12.1956 Y30.2786 
G01 X-12.1956 Y30.6814 
G01 X-12.3497 Y31.0535 
G01 X-12.6345 Y31.3383 
G01 X-13.0066 Y31.4924 
G01 X-14.9334 Y31.4924 
G01 X-15.2200 Y31.3737 
G01 X-15.2283 Y31.3654 
G01 X-15.2400 Y31.3654 
G01 X-15.2508 Y31.3609 
G01 X-15.2616 Y31.3654 
G01 X-17.1840 Y31.3654 
G01 X-17.1948 Y31.3609 
G01 X-17.2056 Y31.3654 
G01 X-17.2173 Y31.3654 
G01 X-17.2256 Y31.3737 
G01 X-17.5736 Y31.5178 
G01 X-17.9864 Y31.5178 
G01 X-18.3679 Y31.3598 
G01 X-18.6598 Y31.0679 
G01 X-18.8178 Y30.6864 
G01 X-18.8178 Y30.2736 
G01 X-18.6598 Y29.8921 
G01 X-18.3679 Y29.6002 
G01 X-17.9864 Y29.4422 
G01 X-17.5736 Y29.4422 
G00 Z2.5400 
G00 X-17.5345 Y29.6705 
G01 Z-0.0500 F254.00 
G01 X-17.6971 Y29.6382 F254.00 
G01 X-17.8629 Y29.6382 
G01 X-18.0255 Y29.6705 
G01 X-18.1787 Y29.7340 
G01 X-18.3166 Y29.8261 
G01 X-18.4339 Y29.9434 
G01 X-18.5260 Y30.0813 
G01 X-18.5894 Y30.2345 
G01 X-18.6218 Y30.3971 
G01 X-18.6218 Y30.5629 
G01 X-18.5894 Y30.7255 
G01 X-18.5260 Y30.8787 
G01 X-18.4339 Y31.0166 
G01 X-18.3166 Y31.1339 
G01 X-18.1787 Y31.2260 
G01 X-18.0255 Y31.2894 
G01 X-17.8629 Y31.3218 
G01 X-17.6971 Y31.3218 
G01 X-17.5345 Y31.2894 
G01 X-17.3813 Y31.2260 
G01 X-17.2966 Y31.1694 
G01 X-15.1697 Y31.1694 
G01 X-15.1187 Y31.2035 
G01 X-14.9701 Y31.2650 
G01 X-14.8124 Y31.2964 
G01 X-13.1276 Y31.2964 
G01 X-12.9699 Y31.2650 
G01 X-12.8213 Y31.2035 
G01 X-12.6876 Y31.1141 
G01 X-12.5739 Y31.0004 
G01 X-12.4845 Y30.8667 
G01 X-12.4230 Y30.7181 
G01 X-12.3916 Y30.5604 
G01 X-12.3916 Y30.3996 
G01 X-12.4230 Y30.2419 
G01 X-12.4845 Y30.0933 
G01 X-12.5739 Y29.9596 
G01 X-12.6876 Y29.8459 
G01 X-12.8213 Y29.7565 
G01 X-12.9699 Y29.6950 
G01 X-13.1276 Y29.6636 
G01 X-14.8124 Y29.6636 
G01 X-14.9701 Y29.6950 
G01 X-15.1187 Y29.7565 
G01 X-15.1697 Y29.7906 
G01 X-17.2966 Y29.7906 
G01 X-17.3813 Y29.7340 
G01 X-17.5345 Y29.6705 
G00 Z2.5400 
G00 X-17.5736 Y31.9822 
G01 Z-0.0500 F254.00 
G01 X-17.2256 Y32.1263 F254.00 
G01 X-17.2173 Y32.1346 
G01 X-17.2056 Y32.1346 
G01 X-17.1948 Y32.1391 
G01 X-17.1840 Y32.1346 
G01 X-15.2616 Y32.1346 
G01 X-15.2508 Y32.1391 
G01 X-15.2400 Y32.1346 
G01 X-15.2283 Y32.1346 
G01 X-15.2200 Y32.1263 
G01 X-14.9334 Y32.0076 
G01 X-13.0066 Y32.0076 
G01 X-12.6345 Y32.1617 
G01 X-12.3497 Y32.4465 
G01 X-12.1956 Y32.8186 
G01 X-12.1956 Y33.2214 
G01 X-12.3497 Y33.5935 
G01 X-12.6345 Y33.8783 
G01 X-13.0066 Y34.0324 
G01 X-14.9334 Y34.0324 
G01 X-15.2200 Y33.9137 
G01 X-15.2283 Y33.9054 
G01 X-15.2400 Y33.9054 
G01 X-15.2508 Y33.9009 
G01 X-15.2616 Y33.9054 
G01 X-17.1840 Y33.9054 
G01 X-17.1948 Y33.9009 
G01 X-17.2056 Y33.9054 
G01 X-17.2173 Y33.9054 
G01 X-17.2256 Y33.9137 
G01 X-17.5736 Y34.0578 
G01 X-17.9864 Y34.0578 
G01 X-18.3679 Y33.8998 
G01 X-18.6598 Y33.6079 
G01 X-18.8178 Y33.2264 
G01 X-18.8178 Y32.8136 
G01 X-18.6598 Y32.4321 
G01 X-18.3679 Y32.1402 
G01 X-17.9864 Y31.9822 
G01 X-17.5736 Y31.9822 
G00 Z2.5400 
G00 X-17.5345 Y32.2105 
G01 Z-0.0500 F254.00 
G01 X-17.6971 Y32.1782 F254.00 
G01 X-17.8629 Y32.1782 
G01 X-18.0255 Y32.2105 
G01 X-18.1787 Y32.2740 
G01 X-18.3166 Y32.3661 
G01 X-18.4339 Y32.4834 
G01 X-18.5260 Y32.6213 
G01 X-18.5894 Y32.7745 
G01 X-18.6218 Y32.9371 
G01 X-18.6218 Y33.1029 
G01 X-18.5894 Y33.2655 
G01 X-18.5260 Y33.4187 
G01 X-18.4339 Y33.5566 
G01 X-18.3166 Y33.6739 
G01 X-18.1787 Y33.7660 
G01 X-18.0255 Y33.8294 
G01 X-17.8629 Y33.8618 
G01 X-17.6971 Y33.8618 
G01 X-17.5345 Y33.8294 
G01 X-17.3813 Y33.7660 
G01 X-17.2966 Y33.7094 
G01 X-15.1697 Y33.7094 
G01 X-15.1187 Y33.7435 
G01 X-14.9701 Y33.8050 
G01 X-14.8124 Y33.8364 
G01 X-13.1276 Y33.8364 
G01 X-12.9699 Y33.8050 
G01 X-12.8213 Y33.7435 
G01 X-12.6876 Y33.6541 
G01 X-12.5739 Y33.5404 
G01 X-12.4845 Y33.4067 
G01 X-12.4230 Y33.2581 
G01 X-12.3916 Y33.1004 
G01 X-12.3916 Y32.9396 
G01 X-12.4230 Y32.7819 
G01 X-12.4845 Y32.6333 
G01 X-12.5739 Y32.4996 
G01 X-12.6876 Y32.3859 
G01 X-12.8213 Y32.2965 
G01 X-12.9699 Y32.2350 
G01 X-13.1276 Y32.2036 
G01 X-14.8124 Y32.2036 
G01 X-14.9701 Y32.2350 
G01 X-15.1187 Y32.2965 
G01 X-15.1697 Y32.3306 
G01 X-17.2966 Y32.3306 
G01 X-17.3813 Y32.2740 
G01 X-17.5345 Y32.2105 
G00 Z2.5400 
G00 X-17.5736 Y34.5222 
G01 Z-0.0500 F254.00 
G01 X-17.2256 Y34.6663 F254.00 
G01 X-17.2173 Y34.6746 
G01 X-17.2056 Y34.6746 
G01 X-17.1948 Y34.6791 
G01 X-17.1840 Y34.6746 
G01 X-15.2616 Y34.6746 
G01 X-15.2508 Y34.6791 
G01 X-15.2400 Y34.6746 
G01 X-15.2283 Y34.6746 
G01 X-15.2200 Y34.6663 
G01 X-14.9334 Y34.5476 
G01 X-13.0066 Y34.5476 
G01 X-12.6345 Y34.7017 
G01 X-12.3497 Y34.9865 
G01 X-12.1956 Y35.3586 
G01 X-12.1956 Y35.7614 
G01 X-12.3497 Y36.1335 
G01 X-12.6345 Y36.4183 
G01 X-13.0066 Y36.5724 
G01 X-14.9334 Y36.5724 
G01 X-15.2200 Y36.4537 
G01 X-15.2283 Y36.4454 
G01 X-15.2400 Y36.4454 
G01 X-15.2508 Y36.4409 
G01 X-15.2616 Y36.4454 
G01 X-17.1840 Y36.4454 
G01 X-17.1948 Y36.4409 
G01 X-17.2056 Y36.4454 
G01 X-17.2173 Y36.4454 
G01 X-17.2256 Y36.4537 
G01 X-17.5736 Y36.5978 
G01 X-17.9864 Y36.5978 
G01 X-18.3679 Y36.4398 
G01 X-18.6598 Y36.1479 
G01 X-18.8178 Y35.7664 
G01 X-18.8178 Y35.3536 
G01 X-18.6598 Y34.9721 
G01 X-18.3679 Y34.6802 
G01 X-17.9864 Y34.5222 
G01 X-17.5736 Y34.5222 
G00 Z2.5400 
G00 X-17.5345 Y34.7505 
G01 Z-0.0500 F254.00 
G01 X-17.6971 Y34.7182 F254.00 
G01 X-17.8629 Y34.7182 
G01 X-18.0255 Y34.7505 
G01 X-18.1787 Y34.8140 
G01 X-18.3166 Y34.9061 
G01 X-18.4339 Y35.0234 
G01 X-18.5260 Y35.1613 
G01 X-18.5894 Y35.3145 
G01 X-18.6218 Y35.4771 
G01 X-18.6218 Y35.6429 
G01 X-18.5894 Y35.8055 
G01 X-18.5260 Y35.9587 
G01 X-18.4339 Y36.0966 
G01 X-18.3166 Y36.2139 
G01 X-18.1787 Y36.3060 
G01 X-18.0255 Y36.3694 
G01 X-17.8629 Y36.4018 
G01 X-17.6971 Y36.4018 
G01 X-17.5345 Y36.3694 
G01 X-17.3813 Y36.3060 
G01 X-17.2966 Y36.2494 
G01 X-15.1697 Y36.2494 
G01 X-15.1187 Y36.2835 
G01 X-14.9701 Y36.3450 
G01 X-14.8124 Y36.3764 
G01 X-13.1276 Y36.3764 
G01 X-12.9699 Y36.3450 
G01 X-12.8213 Y36.2835 
G01 X-12.6876 Y36.1941 
G01 X-12.5739 Y36.0804 
G01 X-12.4845 Y35.9467 
G01 X-12.4230 Y35.7981 
G01 X-12.3916 Y35.6404 
G01 X-12.3916 Y35.4796 
G01 X-12.4230 Y35.3219 
G01 X-12.4845 Y35.1733 
G01 X-12.5739 Y35.0396 
G01 X-12.6876 Y34.9259 
G01 X-12.8213 Y34.8365 
G01 X-12.9699 Y34.7750 
G01 X-13.1276 Y34.7436 
G01 X-14.8124 Y34.7436 
G01 X-14.9701 Y34.7750 
G01 X-15.1187 Y34.8365 
G01 X-15.1697 Y34.8706 
G01 X-17.2966 Y34.8706 
G01 X-17.3813 Y34.8140 
G01 X-17.5345 Y34.7505 
G00 Z2.5400 
G00 X-17.5736 Y37.0622 
G01 Z-0.0500 F254.00 
G01 X-17.2256 Y37.2063 F254.00 
G01 X-17.2173 Y37.2146 
G01 X-17.2056 Y37.2146 
G01 X-17.1948 Y37.2191 
G01 X-17.1840 Y37.2146 
G01 X-15.2616 Y37.2146 
G01 X-15.2508 Y37.2191 
G01 X-15.2400 Y37.2146 
G01 X-15.2283 Y37.2146 
G01 X-15.2200 Y37.2063 
G01 X-14.9334 Y37.0876 
G01 X-13.0066 Y37.0876 
G01 X-12.6345 Y37.2417 
G01 X-12.3497 Y37.5265 
G01 X-12.1956 Y37.8986 
G01 X-12.1956 Y38.3014 
G01 X-12.3497 Y38.6735 
G01 X-12.6345 Y38.9583 
G01 X-13.0066 Y39.1124 
G01 X-14.9334 Y39.1124 
G01 X-15.2200 Y38.9937 
G01 X-15.2283 Y38.9854 
G01 X-15.2400 Y38.9854 
G01 X-15.2508 Y38.9809 
G01 X-15.2616 Y38.9854 
G01 X-17.1840 Y38.9854 
G01 X-17.1948 Y38.9809 
G01 X-17.2056 Y38.9854 
G01 X-17.2173 Y38.9854 
G01 X-17.2256 Y38.9937 
G01 X-17.5736 Y39.1378 
G01 X-17.9864 Y39.1378 
G01 X-18.3679 Y38.9798 
G01 X-18.6598 Y38.6879 
G01 X-18.8178 Y38.3064 
G01 X-18.8178 Y37.8936 
G01 X-18.6598 Y37.5121 
G01 X-18.3679 Y37.2202 
G01 X-17.9864 Y37.0622 
G01 X-17.5736 Y37.0622 
G00 Z2.5400 
G00 X-17.5345 Y37.2906 
G01 Z-0.0500 F254.00 
G01 X-17.6971 Y37.2582 F254.00 
G01 X-17.8629 Y37.2582 
G01 X-18.0255 Y37.2906 
G01 X-18.1787 Y37.3540 
G01 X-18.3166 Y37.4461 
G01 X-18.4339 Y37.5634 
G01 X-18.5260 Y37.7013 
G01 X-18.5894 Y37.8545 
G01 X-18.6218 Y38.0171 
G01 X-18.6218 Y38.1829 
G01 X-18.5894 Y38.3455 
G01 X-18.5260 Y38.4987 
G01 X-18.4339 Y38.6366 
G01 X-18.3166 Y38.7539 
G01 X-18.1787 Y38.8460 
G01 X-18.0255 Y38.9094 
G01 X-17.8629 Y38.9418 
G01 X-17.6971 Y38.9418 
G01 X-17.5345 Y38.9094 
G01 X-17.3813 Y38.8460 
G01 X-17.2966 Y38.7894 
G01 X-15.1697 Y38.7894 
G01 X-15.1187 Y38.8235 
G01 X-14.9701 Y38.8850 
G01 X-14.8124 Y38.9164 
G01 X-13.1276 Y38.9164 
G01 X-12.9699 Y38.8850 
G01 X-12.8213 Y38.8235 
G01 X-12.6876 Y38.7341 
G01 X-12.5739 Y38.6204 
G01 X-12.4845 Y38.4867 
G01 X-12.4230 Y38.3381 
G01 X-12.3916 Y38.1804 
G01 X-12.3916 Y38.0196 
G01 X-12.4230 Y37.8619 
G01 X-12.4845 Y37.7133 
G01 X-12.5739 Y37.5796 
G01 X-12.6876 Y37.4659 
G01 X-12.8213 Y37.3765 
G01 X-12.9699 Y37.3150 
G01 X-13.1276 Y37.2836 
G01 X-14.8124 Y37.2836 
G01 X-14.9701 Y37.3150 
G01 X-15.1187 Y37.3765 
G01 X-15.1697 Y37.4106 
G01 X-17.2966 Y37.4106 
G01 X-17.3813 Y37.3540 
G01 X-17.5345 Y37.2906 
G00 Z2.5400 
G00 X-17.5736 Y39.6022 
G01 Z-0.0500 F254.00 
G01 X-17.2256 Y39.7463 F254.00 
G01 X-17.2173 Y39.7546 
G01 X-17.2056 Y39.7546 
G01 X-17.1948 Y39.7591 
G01 X-17.1840 Y39.7546 
G01 X-15.2616 Y39.7546 
G01 X-15.2508 Y39.7591 
G01 X-15.2400 Y39.7546 
G01 X-15.2283 Y39.7546 
G01 X-15.2200 Y39.7463 
G01 X-14.9334 Y39.6276 
G01 X-13.0066 Y39.6276 
G01 X-12.6345 Y39.7817 
G01 X-12.3497 Y40.0665 
G01 X-12.1956 Y40.4386 
G01 X-12.1956 Y40.8414 
G01 X-12.3497 Y41.2135 
G01 X-12.6345 Y41.4983 
G01 X-13.0066 Y41.6524 
G01 X-14.9334 Y41.6524 
G01 X-15.2200 Y41.5337 
G01 X-15.2283 Y41.5254 
G01 X-15.2400 Y41.5254 
G01 X-15.2508 Y41.5209 
G01 X-15.2616 Y41.5254 
G01 X-17.1840 Y41.5254 
G01 X-17.1948 Y41.5209 
G01 X-17.2056 Y41.5254 
G01 X-17.2173 Y41.5254 
G01 X-17.2256 Y41.5337 
G01 X-17.5736 Y41.6778 
G01 X-17.9864 Y41.6778 
G01 X-18.3679 Y41.5198 
G01 X-18.6598 Y41.2279 
G01 X-18.8178 Y40.8464 
G01 X-18.8178 Y40.4336 
G01 X-18.6598 Y40.0521 
G01 X-18.3679 Y39.7602 
G01 X-17.9864 Y39.6022 
G01 X-17.5736 Y39.6022 
G00 Z2.5400 
G00 X-17.5345 Y39.8306 
G01 Z-0.0500 F254.00 
G01 X-17.6971 Y39.7982 F254.00 
G01 X-17.8629 Y39.7982 
G01 X-18.0255 Y39.8306 
G01 X-18.1787 Y39.8940 
G01 X-18.3166 Y39.9861 
G01 X-18.4339 Y40.1034 
G01 X-18.5260 Y40.2413 
G01 X-18.5894 Y40.3945 
G01 X-18.6218 Y40.5571 
G01 X-18.6218 Y40.7229 
G01 X-18.5894 Y40.8855 
G01 X-18.5260 Y41.0387 
G01 X-18.4339 Y41.1766 
G01 X-18.3166 Y41.2939 
G01 X-18.1787 Y41.3860 
G01 X-18.0255 Y41.4494 
G01 X-17.8629 Y41.4818 
G01 X-17.6971 Y41.4818 
G01 X-17.5345 Y41.4494 
G01 X-17.3813 Y41.3860 
G01 X-17.2966 Y41.3294 
G01 X-15.1697 Y41.3294 
G01 X-15.1187 Y41.3635 
G01 X-14.9701 Y41.4250 
G01 X-14.8124 Y41.4564 
G01 X-13.1276 Y41.4564 
G01 X-12.9699 Y41.4250 
G01 X-12.8213 Y41.3635 
G01 X-12.6876 Y41.2741 
G01 X-12.5739 Y41.1604 
G01 X-12.4845 Y41.0267 
G01 X-12.4230 Y40.8781 
G01 X-12.3916 Y40.7204 
G01 X-12.3916 Y40.5596 
G01 X-12.4230 Y40.4019 
G01 X-12.4845 Y40.2533 
G01 X-12.5739 Y40.1196 
G01 X-12.6876 Y40.0059 
G01 X-12.8213 Y39.9165 
G01 X-12.9699 Y39.8550 
G01 X-13.1276 Y39.8236 
G01 X-14.8124 Y39.8236 
G01 X-14.9701 Y39.8550 
G01 X-15.1187 Y39.9165 
G01 X-15.1697 Y39.9506 
G01 X-17.2966 Y39.9506 
G01 X-17.3813 Y39.8940 
G01 X-17.5345 Y39.8306 
G00 Z2.5400 
G00 X-17.5736 Y42.1422 
G01 Z-0.0500 F254.00 
G01 X-17.2256 Y42.2863 F254.00 
G01 X-17.2173 Y42.2946 
G01 X-17.2056 Y42.2946 
G01 X-17.1948 Y42.2991 
G01 X-17.1840 Y42.2946 
G01 X-15.2616 Y42.2946 
G01 X-15.2508 Y42.2991 
G01 X-15.2400 Y42.2946 
G01 X-15.2283 Y42.2946 
G01 X-15.2200 Y42.2863 
G01 X-14.9334 Y42.1676 
G01 X-13.0066 Y42.1676 
G01 X-12.6345 Y42.3217 
G01 X-12.3497 Y42.6065 
G01 X-12.1956 Y42.9786 
G01 X-12.1956 Y43.3814 
G01 X-12.3497 Y43.7535 
G01 X-12.6345 Y44.0383 
G01 X-13.0066 Y44.1924 
G01 X-14.9334 Y44.1924 
G01 X-15.2200 Y44.0737 
G01 X-15.2283 Y44.0654 
G01 X-15.2400 Y44.0654 
G01 X-15.2508 Y44.0609 
G01 X-15.2616 Y44.0654 
G01 X-17.1840 Y44.0654 
G01 X-17.1948 Y44.0609 
G01 X-17.2056 Y44.0654 
G01 X-17.2173 Y44.0654 
G01 X-17.2256 Y44.0737 
G01 X-17.5736 Y44.2178 
G01 X-17.9864 Y44.2178 
G01 X-18.3679 Y44.0598 
G01 X-18.6598 Y43.7679 
G01 X-18.8178 Y43.3864 
G01 X-18.8178 Y42.9736 
G01 X-18.6598 Y42.5921 
G01 X-18.3679 Y42.3002 
G01 X-17.9864 Y42.1422 
G01 X-17.5736 Y42.1422 
G00 Z2.5400 
G00 X-17.5345 Y42.3706 
G01 Z-0.0500 F254.00 
G01 X-17.6971 Y42.3382 F254.00 
G01 X-17.8629 Y42.3382 
G01 X-18.0255 Y42.3706 
G01 X-18.1787 Y42.4340 
G01 X-18.3166 Y42.5261 
G01 X-18.4339 Y42.6434 
G01 X-18.5260 Y42.7813 
G01 X-18.5894 Y42.9345 
G01 X-18.6218 Y43.0971 
G01 X-18.6218 Y43.2629 
G01 X-18.5894 Y43.4255 
G01 X-18.5260 Y43.5787 
G01 X-18.4339 Y43.7166 
G01 X-18.3166 Y43.8339 
G01 X-18.1787 Y43.9260 
G01 X-18.0255 Y43.9894 
G01 X-17.8629 Y44.0218 
G01 X-17.6971 Y44.0218 
G01 X-17.5345 Y43.9894 
G01 X-17.3813 Y43.9260 
G01 X-17.2966 Y43.8694 
G01 X-15.1697 Y43.8694 
G01 X-15.1187 Y43.9035 
G01 X-14.9701 Y43.9650 
G01 X-14.8124 Y43.9964 
G01 X-13.1276 Y43.9964 
G01 X-12.9699 Y43.9650 
G01 X-12.8213 Y43.9035 
G01 X-12.6876 Y43.8141 
G01 X-12.5739 Y43.7004 
G01 X-12.4845 Y43.5667 
G01 X-12.4230 Y43.4181 
G01 X-12.3916 Y43.2604 
G01 X-12.3916 Y43.0996 
G01 X-12.4230 Y42.9419 
G01 X-12.4845 Y42.7933 
G01 X-12.5739 Y42.6596 
G01 X-12.6876 Y42.5459 
G01 X-12.8213 Y42.4565 
G01 X-12.9699 Y42.3950 
G01 X-13.1276 Y42.3636 
G01 X-14.8124 Y42.3636 
G01 X-14.9701 Y42.3950 
G01 X-15.1187 Y42.4565 
G01 X-15.1697 Y42.4906 
G01 X-17.2966 Y42.4906 
G01 X-17.3813 Y42.4340 
G01 X-17.5345 Y42.3706 
G00 Z2.5400 
G00 X-17.5736 Y44.6822 
G01 Z-0.0500 F254.00 
G01 X-17.2256 Y44.8263 F254.00 
G01 X-17.2173 Y44.8346 
G01 X-17.2056 Y44.8346 
G01 X-17.1948 Y44.8391 
G01 X-17.1840 Y44.8346 
G01 X-15.2616 Y44.8346 
G01 X-15.2508 Y44.8391 
G01 X-15.2400 Y44.8346 
G01 X-15.2283 Y44.8346 
G01 X-15.2200 Y44.8263 
G01 X-14.9334 Y44.7076 
G01 X-13.0066 Y44.7076 
G01 X-12.6345 Y44.8617 
G01 X-12.3497 Y45.1465 
G01 X-12.1956 Y45.5186 
G01 X-12.1956 Y45.9214 
G01 X-12.3497 Y46.2935 
G01 X-12.6345 Y46.5783 
G01 X-13.0066 Y46.7324 
G01 X-14.9334 Y46.7324 
G01 X-15.2200 Y46.6137 
G01 X-15.2283 Y46.6054 
G01 X-15.2400 Y46.6054 
G01 X-15.2508 Y46.6009 
G01 X-15.2616 Y46.6054 
G01 X-17.1840 Y46.6054 
G01 X-17.1948 Y46.6009 
G01 X-17.2056 Y46.6054 
G01 X-17.2173 Y46.6054 
G01 X-17.2256 Y46.6137 
G01 X-17.5736 Y46.7578 
G01 X-17.9864 Y46.7578 
G01 X-18.3679 Y46.5998 
G01 X-18.6598 Y46.3079 
G01 X-18.8178 Y45.9264 
G01 X-18.8178 Y45.5136 
G01 X-18.6598 Y45.1321 
G01 X-18.3679 Y44.8402 
G01 X-17.9864 Y44.6822 
G01 X-17.5736 Y44.6822 
G00 Z2.5400 
G00 X-17.5345 Y44.9106 
G01 Z-0.0500 F254.00 
G01 X-17.6971 Y44.8782 F254.00 
G01 X-17.8629 Y44.8782 
G01 X-18.0255 Y44.9106 
G01 X-18.1787 Y44.9740 
G01 X-18.3166 Y45.0661 
G01 X-18.4339 Y45.1834 
G01 X-18.5260 Y45.3213 
G01 X-18.5894 Y45.4745 
G01 X-18.6218 Y45.6371 
G01 X-18.6218 Y45.8029 
G01 X-18.5894 Y45.9655 
G01 X-18.5260 Y46.1187 
G01 X-18.4339 Y46.2566 
G01 X-18.3166 Y46.3739 
G01 X-18.1787 Y46.4660 
G01 X-18.0255 Y46.5294 
G01 X-17.8629 Y46.5618 
G01 X-17.6971 Y46.5618 
G01 X-17.5345 Y46.5294 
G01 X-17.3813 Y46.4660 
G01 X-17.2966 Y46.4094 
G01 X-15.1697 Y46.4094 
G01 X-15.1187 Y46.4435 
G01 X-14.9701 Y46.5050 
G01 X-14.8124 Y46.5364 
G01 X-13.1276 Y46.5364 
G01 X-12.9699 Y46.5050 
G01 X-12.8213 Y46.4435 
G01 X-12.6876 Y46.3541 
G01 X-12.5739 Y46.2404 
G01 X-12.4845 Y46.1067 
G01 X-12.4230 Y45.9581 
G01 X-12.3916 Y45.8004 
G01 X-12.3916 Y45.6396 
G01 X-12.4230 Y45.4819 
G01 X-12.4845 Y45.3333 
G01 X-12.5739 Y45.1996 
G01 X-12.6876 Y45.0859 
G01 X-12.8213 Y44.9965 
G01 X-12.9699 Y44.9350 
G01 X-13.1276 Y44.9036 
G01 X-14.8124 Y44.9036 
G01 X-14.9701 Y44.9350 
G01 X-15.1187 Y44.9965 
G01 X-15.1697 Y45.0306 
G01 X-17.2966 Y45.0306 
G01 X-17.3813 Y44.9740 
G01 X-17.5345 Y44.9106 
G00 Z2.5400 
G00 X-32.1402 Y45.1321 
G01 Z-0.0500 F254.00 
G01 X-31.9822 Y45.5136 F254.00 
G01 X-31.9822 Y45.9264 
G01 X-32.1402 Y46.3079 
G01 X-32.4321 Y46.5998 
G01 X-32.8136 Y46.7578 
G01 X-33.2264 Y46.7578 
G01 X-33.5744 Y46.6137 
G01 X-33.5826 Y46.6054 
G01 X-33.5944 Y46.6054 
G01 X-33.6052 Y46.6009 
G01 X-33.6160 Y46.6054 
G01 X-35.5384 Y46.6054 
G01 X-35.5492 Y46.6009 
G01 X-35.5600 Y46.6054 
G01 X-35.5717 Y46.6054 
G01 X-35.5800 Y46.6137 
G01 X-35.8666 Y46.7324 
G01 X-37.7934 Y46.7324 
G01 X-38.1655 Y46.5783 
G01 X-38.4503 Y46.2935 
G01 X-38.6044 Y45.9214 
G01 X-38.6044 Y45.5186 
G01 X-38.4503 Y45.1465 
G01 X-38.1655 Y44.8617 
G01 X-37.7934 Y44.7076 
G01 X-35.8666 Y44.7076 
G01 X-35.5800 Y44.8263 
G01 X-35.5717 Y44.8346 
G01 X-35.5600 Y44.8346 
G01 X-35.5492 Y44.8391 
G01 X-35.5384 Y44.8346 
G01 X-33.6160 Y44.8346 
G01 X-33.6052 Y44.8391 
G01 X-33.5944 Y44.8346 
G01 X-33.5826 Y44.8346 
G01 X-33.5744 Y44.8263 
G01 X-33.2264 Y44.6822 
G01 X-32.8136 Y44.6822 
G01 X-32.4321 Y44.8402 
G01 X-32.1402 Y45.1321 
G00 Z2.5400 
G00 X-32.3661 Y45.1834 
G01 Z-0.0500 F254.00 
G01 X-32.4834 Y45.0661 F254.00 
G01 X-32.6213 Y44.9740 
G01 X-32.7745 Y44.9106 
G01 X-32.9371 Y44.8782 
G01 X-33.1029 Y44.8782 
G01 X-33.2655 Y44.9106 
G01 X-33.4187 Y44.9740 
G01 X-33.5034 Y45.0306 
G01 X-35.6303 Y45.0306 
G01 X-35.6813 Y44.9965 
G01 X-35.8299 Y44.9350 
G01 X-35.9876 Y44.9036 
G01 X-37.6724 Y44.9036 
G01 X-37.8301 Y44.9350 
G01 X-37.9787 Y44.9965 
G01 X-38.1124 Y45.0859 
G01 X-38.2261 Y45.1996 
G01 X-38.3155 Y45.3333 
G01 X-38.3770 Y45.4819 
G01 X-38.4084 Y45.6396 
G01 X-38.4084 Y45.8004 
G01 X-38.3770 Y45.9581 
G01 X-38.3155 Y46.1067 
G01 X-38.2261 Y46.2404 
G01 X-38.1124 Y46.3541 
G01 X-37.9787 Y46.4435 
G01 X-37.8301 Y46.5050 
G01 X-37.6724 Y46.5364 
G01 X-35.9876 Y46.5364 
G01 X-35.8299 Y46.5050 
G01 X-35.6813 Y46.4435 
G01 X-35.6303 Y46.4094 
G01 X-33.5034 Y46.4094 
G01 X-33.4187 Y46.4660 
G01 X-33.2655 Y46.5294 
G01 X-33.1029 Y46.5618 
G01 X-32.9371 Y46.5618 
G01 X-32.7745 Y46.5294 
G01 X-32.6213 Y46.4660 
G01 X-32.4834 Y46.3739 
G01 X-32.3661 Y46.2566 
G01 X-32.2740 Y46.1187 
G01 X-32.2105 Y45.9655 
G01 X-32.1782 Y45.8029 
G01 X-32.1782 Y45.6371 
G01 X-32.2105 Y45.4745 
G01 X-32.2740 Y45.3213 
G01 X-32.3661 Y45.1834 
G00 Z2.5400 
G00 X-32.4321 Y44.0598 
G01 Z-0.0500 F254.00 
G01 X-32.8136 Y44.2178 F254.00 
G01 X-33.2264 Y44.2178 
G01 X-33.5744 Y44.0737 
G01 X-33.5826 Y44.0654 
G01 X-33.5944 Y44.0654 
G01 X-33.6052 Y44.0609 
G01 X-33.6160 Y44.0654 
G01 X-35.5384 Y44.0654 
G01 X-35.5492 Y44.0609 
G01 X-35.5600 Y44.0654 
G01 X-35.5717 Y44.0654 
G01 X-35.5800 Y44.0737 
G01 X-35.8666 Y44.1924 
G01 X-37.7934 Y44.1924 
G01 X-38.1655 Y44.0383 
G01 X-38.4503 Y43.7535 
G01 X-38.6044 Y43.3814 
G01 X-38.6044 Y42.9786 
G01 X-38.4503 Y42.6065 
G01 X-38.1655 Y42.3217 
G01 X-37.7934 Y42.1676 
G01 X-35.8666 Y42.1676 
G01 X-35.5800 Y42.2863 
G01 X-35.5717 Y42.2946 
G01 X-35.5600 Y42.2946 
G01 X-35.5492 Y42.2991 
G01 X-35.5384 Y42.2946 
G01 X-33.6160 Y42.2946 
G01 X-33.6052 Y42.2991 
G01 X-33.5944 Y42.2946 
G01 X-33.5826 Y42.2946 
G01 X-33.5744 Y42.2863 
G01 X-33.2264 Y42.1422 
G01 X-32.8136 Y42.1422 
G01 X-32.4321 Y42.3002 
G01 X-32.1402 Y42.5921 
G01 X-31.9822 Y42.9736 
G01 X-31.9822 Y43.3864 
G01 X-32.1402 Y43.7679 
G01 X-32.4321 Y44.0598 
G00 Z2.5400 
G00 X-32.4834 Y43.8339 
G01 Z-0.0500 F254.00 
G01 X-32.3661 Y43.7166 F254.00 
G01 X-32.2740 Y43.5787 
G01 X-32.2105 Y43.4255 
G01 X-32.1782 Y43.2629 
G01 X-32.1782 Y43.0971 
G01 X-32.2105 Y42.9345 
G01 X-32.2740 Y42.7813 
G01 X-32.3661 Y42.6434 
G01 X-32.4834 Y42.5261 
G01 X-32.6213 Y42.4340 
G01 X-32.7745 Y42.3706 
G01 X-32.9371 Y42.3382 
G01 X-33.1029 Y42.3382 
G01 X-33.2655 Y42.3706 
G01 X-33.4187 Y42.4340 
G01 X-33.5034 Y42.4906 
G01 X-35.6303 Y42.4906 
G01 X-35.6813 Y42.4565 
G01 X-35.8299 Y42.3950 
G01 X-35.9876 Y42.3636 
G01 X-37.6724 Y42.3636 
G01 X-37.8301 Y42.3950 
G01 X-37.9787 Y42.4565 
G01 X-38.1124 Y42.5459 
G01 X-38.2261 Y42.6596 
G01 X-38.3155 Y42.7933 
G01 X-38.3770 Y42.9419 
G01 X-38.4084 Y43.0996 
G01 X-38.4084 Y43.2604 
G01 X-38.3770 Y43.4181 
G01 X-38.3155 Y43.5667 
G01 X-38.2261 Y43.7004 
G01 X-38.1124 Y43.8141 
G01 X-37.9787 Y43.9035 
G01 X-37.8301 Y43.9650 
G01 X-37.6724 Y43.9964 
G01 X-35.9876 Y43.9964 
G01 X-35.8299 Y43.9650 
G01 X-35.6813 Y43.9035 
G01 X-35.6303 Y43.8694 
G01 X-33.5034 Y43.8694 
G01 X-33.4187 Y43.9260 
G01 X-33.2655 Y43.9894 
G01 X-33.1029 Y44.0218 
G01 X-32.9371 Y44.0218 
G01 X-32.7745 Y43.9894 
G01 X-32.6213 Y43.9260 
G01 X-32.4834 Y43.8339 
G00 Z2.5400 
G00 X-32.4321 Y41.5198 
G01 Z-0.0500 F254.00 
G01 X-32.8136 Y41.6778 F254.00 
G01 X-33.2264 Y41.6778 
G01 X-33.5744 Y41.5337 
G01 X-33.5826 Y41.5254 
G01 X-33.5944 Y41.5254 
G01 X-33.6052 Y41.5209 
G01 X-33.6160 Y41.5254 
G01 X-35.5384 Y41.5254 
G01 X-35.5492 Y41.5209 
G01 X-35.5600 Y41.5254 
G01 X-35.5717 Y41.5254 
G01 X-35.5800 Y41.5337 
G01 X-35.8666 Y41.6524 
G01 X-37.7934 Y41.6524 
G01 X-38.1655 Y41.4983 
G01 X-38.4503 Y41.2135 
G01 X-38.6044 Y40.8414 
G01 X-38.6044 Y40.4386 
G01 X-38.4503 Y40.0665 
G01 X-38.1655 Y39.7817 
G01 X-37.7934 Y39.6276 
G01 X-35.8666 Y39.6276 
G01 X-35.5800 Y39.7463 
G01 X-35.5717 Y39.7546 
G01 X-35.5600 Y39.7546 
G01 X-35.5492 Y39.7591 
G01 X-35.5384 Y39.7546 
G01 X-33.6160 Y39.7546 
G01 X-33.6052 Y39.7591 
G01 X-33.5944 Y39.7546 
G01 X-33.5826 Y39.7546 
G01 X-33.5744 Y39.7463 
G01 X-33.2264 Y39.6022 
G01 X-32.8136 Y39.6022 
G01 X-32.4321 Y39.7602 
G01 X-32.1402 Y40.0521 
G01 X-31.9822 Y40.4336 
G01 X-31.9822 Y40.8464 
G01 X-32.1402 Y41.2279 
G01 X-32.4321 Y41.5198 
G00 Z2.5400 
G00 X-32.4834 Y41.2939 
G01 Z-0.0500 F254.00 
G01 X-32.3661 Y41.1766 F254.00 
G01 X-32.2740 Y41.0387 
G01 X-32.2105 Y40.8855 
G01 X-32.1782 Y40.7229 
G01 X-32.1782 Y40.5571 
G01 X-32.2105 Y40.3945 
G01 X-32.2740 Y40.2413 
G01 X-32.3661 Y40.1034 
G01 X-32.4834 Y39.9861 
G01 X-32.6213 Y39.8940 
G01 X-32.7745 Y39.8306 
G01 X-32.9371 Y39.7982 
G01 X-33.1029 Y39.7982 
G01 X-33.2655 Y39.8306 
G01 X-33.4187 Y39.8940 
G01 X-33.5034 Y39.9506 
G01 X-35.6303 Y39.9506 
G01 X-35.6813 Y39.9165 
G01 X-35.8299 Y39.8550 
G01 X-35.9876 Y39.8236 
G01 X-37.6724 Y39.8236 
G01 X-37.8301 Y39.8550 
G01 X-37.9787 Y39.9165 
G01 X-38.1124 Y40.0059 
G01 X-38.2261 Y40.1196 
G01 X-38.3155 Y40.2533 
G01 X-38.3770 Y40.4019 
G01 X-38.4084 Y40.5596 
G01 X-38.4084 Y40.7204 
G01 X-38.3770 Y40.8781 
G01 X-38.3155 Y41.0267 
G01 X-38.2261 Y41.1604 
G01 X-38.1124 Y41.2741 
G01 X-37.9787 Y41.3635 
G01 X-37.8301 Y41.4250 
G01 X-37.6724 Y41.4564 
G01 X-35.9876 Y41.4564 
G01 X-35.8299 Y41.4250 
G01 X-35.6813 Y41.3635 
G01 X-35.6303 Y41.3294 
G01 X-33.5034 Y41.3294 
G01 X-33.4187 Y41.3860 
G01 X-33.2655 Y41.4494 
G01 X-33.1029 Y41.4818 
G01 X-32.9371 Y41.4818 
G01 X-32.7745 Y41.4494 
G01 X-32.6213 Y41.3860 
G01 X-32.4834 Y41.2939 
G00 Z2.5400 
G00 X-32.4321 Y38.9798 
G01 Z-0.0500 F254.00 
G01 X-32.8136 Y39.1378 F254.00 
G01 X-33.2264 Y39.1378 
G01 X-33.5744 Y38.9937 
G01 X-33.5826 Y38.9854 
G01 X-33.5944 Y38.9854 
G01 X-33.6052 Y38.9809 
G01 X-33.6160 Y38.9854 
G01 X-35.5384 Y38.9854 
G01 X-35.5492 Y38.9809 
G01 X-35.5600 Y38.9854 
G01 X-35.5717 Y38.9854 
G01 X-35.5800 Y38.9937 
G01 X-35.8666 Y39.1124 
G01 X-37.7934 Y39.1124 
G01 X-38.0800 Y38.9937 
G01 X-38.0883 Y38.9854 
G01 X-38.1000 Y38.9854 
G01 X-38.1108 Y38.9809 
G01 X-38.1216 Y38.9854 
G01 X-43.6261 Y38.9854 
G01 X-43.9515 Y38.8506 
G01 X-44.2006 Y38.6015 
G01 X-44.3354 Y38.2761 
G01 X-44.3354 Y35.8074 
G01 X-44.3309 Y35.7966 
G01 X-44.3354 Y35.7858 
G01 X-44.3354 Y35.7741 
G01 X-44.3437 Y35.7658 
G01 X-44.3544 Y35.7399 
G01 X-44.3544 Y35.3801 
G01 X-44.2167 Y35.0477 
G01 X-43.9623 Y34.7933 
G01 X-43.6299 Y34.6556 
G01 X-43.2701 Y34.6556 
G01 X-42.9377 Y34.7933 
G01 X-42.6833 Y35.0477 
G01 X-42.5456 Y35.3801 
G01 X-42.5456 Y35.7399 
G01 X-42.5563 Y35.7658 
G01 X-42.5646 Y35.7741 
G01 X-42.5646 Y35.7858 
G01 X-42.5691 Y35.7966 
G01 X-42.5646 Y35.8074 
G01 X-42.5646 Y37.1827 
G01 X-42.5327 Y37.2146 
G01 X-38.1216 Y37.2146 
G01 X-38.1108 Y37.2191 
G01 X-38.1000 Y37.2146 
G01 X-38.0883 Y37.2146 
G01 X-38.0800 Y37.2063 
G01 X-37.7934 Y37.0876 
G01 X-35.8666 Y37.0876 
G01 X-35.5800 Y37.2063 
G01 X-35.5717 Y37.2146 
G01 X-35.5600 Y37.2146 
G01 X-35.5492 Y37.2191 
G01 X-35.5384 Y37.2146 
G01 X-33.6160 Y37.2146 
G01 X-33.6052 Y37.2191 
G01 X-33.5944 Y37.2146 
G01 X-33.5826 Y37.2146 
G01 X-33.5744 Y37.2063 
G01 X-33.2264 Y37.0622 
G01 X-32.8136 Y37.0622 
G01 X-32.4321 Y37.2202 
G01 X-32.1402 Y37.5121 
G01 X-31.9822 Y37.8936 
G01 X-31.9822 Y38.3064 
G01 X-32.1402 Y38.6879 
G01 X-32.4321 Y38.9798 
G00 Z2.5400 
G00 X-32.4834 Y38.7539 
G01 Z-0.0500 F254.00 
G01 X-32.3661 Y38.6366 F254.00 
G01 X-32.2740 Y38.4987 
G01 X-32.2105 Y38.3455 
G01 X-32.1782 Y38.1829 
G01 X-32.1782 Y38.0171 
G01 X-32.2105 Y37.8545 
G01 X-32.2740 Y37.7013 
G01 X-32.3661 Y37.5634 
G01 X-32.4834 Y37.4461 
G01 X-32.6213 Y37.3540 
G01 X-32.7745 Y37.2906 
G01 X-32.9371 Y37.2582 
G01 X-33.1029 Y37.2582 
G01 X-33.2655 Y37.2906 
G01 X-33.4187 Y37.3540 
G01 X-33.5034 Y37.4106 
G01 X-35.6303 Y37.4106 
G01 X-35.6813 Y37.3765 
G01 X-35.8299 Y37.3150 
G01 X-35.9876 Y37.2836 
G01 X-37.6724 Y37.2836 
G01 X-37.8301 Y37.3150 
G01 X-37.9787 Y37.3765 
G01 X-38.0297 Y37.4106 
G01 X-42.7606 Y37.4106 
G01 X-42.7606 Y35.7253 
G01 X-42.7416 Y35.6298 
G01 X-42.7416 Y35.4902 
G01 X-42.7688 Y35.3534 
G01 X-42.8222 Y35.2244 
G01 X-42.8997 Y35.1084 
G01 X-42.9984 Y35.0097 
G01 X-43.1144 Y34.9322 
G01 X-43.2434 Y34.8788 
G01 X-43.3802 Y34.8516 
G01 X-43.5198 Y34.8516 
G01 X-43.6566 Y34.8788 
G01 X-43.7856 Y34.9322 
G01 X-43.9016 Y35.0097 
G01 X-44.0002 Y35.1084 
G01 X-44.0778 Y35.2244 
G01 X-44.1312 Y35.3534 
G01 X-44.1584 Y35.4902 
G01 X-44.1584 Y35.6298 
G01 X-44.1394 Y35.7253 
G01 X-44.1394 Y38.1679 
G01 X-44.1129 Y38.3011 
G01 X-44.0609 Y38.4266 
G01 X-43.9855 Y38.5395 
G01 X-43.8895 Y38.6355 
G01 X-43.7766 Y38.7109 
G01 X-43.6511 Y38.7629 
G01 X-43.5179 Y38.7894 
G01 X-38.0297 Y38.7894 
G01 X-37.9787 Y38.8235 
G01 X-37.8301 Y38.8850 
G01 X-37.6724 Y38.9164 
G01 X-35.9876 Y38.9164 
G01 X-35.8299 Y38.8850 
G01 X-35.6813 Y38.8235 
G01 X-35.6303 Y38.7894 
G01 X-33.5034 Y38.7894 
G01 X-33.4187 Y38.8460 
G01 X-33.2655 Y38.9094 
G01 X-33.1029 Y38.9418 
G01 X-32.9371 Y38.9418 
G01 X-32.7745 Y38.9094 
G01 X-32.6213 Y38.8460 
G01 X-32.4834 Y38.7539 
G00 Z2.5400 
G00 X-32.4321 Y36.4398 
G01 Z-0.0500 F254.00 
G01 X-32.8136 Y36.5978 F254.00 
G01 X-33.2264 Y36.5978 
G01 X-33.5744 Y36.4537 
G01 X-33.5826 Y36.4454 
G01 X-33.5944 Y36.4454 
G01 X-33.6052 Y36.4409 
G01 X-33.6160 Y36.4454 
G01 X-35.5384 Y36.4454 
G01 X-35.5492 Y36.4409 
G01 X-35.5600 Y36.4454 
G01 X-35.5717 Y36.4454 
G01 X-35.5800 Y36.4537 
G01 X-35.8666 Y36.5724 
G01 X-37.7934 Y36.5724 
G01 X-38.0800 Y36.4537 
G01 X-38.0883 Y36.4454 
G01 X-38.1000 Y36.4454 
G01 X-38.1108 Y36.4409 
G01 X-38.1216 Y36.4454 
G01 X-41.2026 Y36.4454 
G01 X-41.2134 Y36.4409 
G01 X-41.2242 Y36.4454 
G01 X-41.2359 Y36.4454 
G01 X-41.2442 Y36.4537 
G01 X-41.2701 Y36.4644 
G01 X-41.6299 Y36.4644 
G01 X-41.9623 Y36.3267 
G01 X-42.2167 Y36.0723 
G01 X-42.3544 Y35.7399 
G01 X-42.3544 Y35.3801 
G01 X-42.2167 Y35.0477 
G01 X-41.9623 Y34.7933 
G01 X-41.6299 Y34.6556 
G01 X-41.2701 Y34.6556 
G01 X-41.2442 Y34.6663 
G01 X-41.2359 Y34.6746 
G01 X-41.2242 Y34.6746 
G01 X-41.2134 Y34.6791 
G01 X-41.2026 Y34.6746 
G01 X-38.1216 Y34.6746 
G01 X-38.1108 Y34.6791 
G01 X-38.1000 Y34.6746 
G01 X-38.0883 Y34.6746 
G01 X-38.0800 Y34.6663 
G01 X-37.7934 Y34.5476 
G01 X-35.8666 Y34.5476 
G01 X-35.5800 Y34.6663 
G01 X-35.5717 Y34.6746 
G01 X-35.5600 Y34.6746 
G01 X-35.5492 Y34.6791 
G01 X-35.5384 Y34.6746 
G01 X-33.6160 Y34.6746 
G01 X-33.6052 Y34.6791 
G01 X-33.5944 Y34.6746 
G01 X-33.5826 Y34.6746 
G01 X-33.5744 Y34.6663 
G01 X-33.2264 Y34.5222 
G01 X-32.8136 Y34.5222 
G01 X-32.4321 Y34.6802 
G01 X-32.1402 Y34.9721 
G01 X-31.9822 Y35.3536 
G01 X-31.9822 Y35.7664 
G01 X-32.1402 Y36.1479 
G01 X-32.4321 Y36.4398 
G00 Z2.5400 
G00 X-32.4834 Y36.2139 
G01 Z-0.0500 F254.00 
G01 X-32.3661 Y36.0966 F254.00 
G01 X-32.2740 Y35.9587 
G01 X-32.2105 Y35.8055 
G01 X-32.1782 Y35.6429 
G01 X-32.1782 Y35.4771 
G01 X-32.2105 Y35.3145 
G01 X-32.2740 Y35.1613 
G01 X-32.3661 Y35.0234 
G01 X-32.4834 Y34.9061 
G01 X-32.6213 Y34.8140 
G01 X-32.7745 Y34.7505 
G01 X-32.9371 Y34.7182 
G01 X-33.1029 Y34.7182 
G01 X-33.2655 Y34.7505 
G01 X-33.4187 Y34.8140 
G01 X-33.5034 Y34.8706 
G01 X-35.6303 Y34.8706 
G01 X-35.6813 Y34.8365 
G01 X-35.8299 Y34.7750 
G01 X-35.9876 Y34.7436 
G01 X-37.6724 Y34.7436 
G01 X-37.8301 Y34.7750 
G01 X-37.9787 Y34.8365 
G01 X-38.0297 Y34.8706 
G01 X-41.2847 Y34.8706 
G01 X-41.3802 Y34.8516 
G01 X-41.5198 Y34.8516 
G01 X-41.6566 Y34.8788 
G01 X-41.7856 Y34.9322 
G01 X-41.9016 Y35.0097 
G01 X-42.0002 Y35.1084 
G01 X-42.0778 Y35.2244 
G01 X-42.1312 Y35.3534 
G01 X-42.1584 Y35.4902 
G01 X-42.1584 Y35.6298 
G01 X-42.1312 Y35.7666 
G01 X-42.0778 Y35.8956 
G01 X-42.0002 Y36.0116 
G01 X-41.9016 Y36.1102 
G01 X-41.7856 Y36.1878 
G01 X-41.6566 Y36.2412 
G01 X-41.5198 Y36.2684 
G01 X-41.3802 Y36.2684 
G01 X-41.2847 Y36.2494 
G01 X-38.0297 Y36.2494 
G01 X-37.9787 Y36.2835 
G01 X-37.8301 Y36.3450 
G01 X-37.6724 Y36.3764 
G01 X-35.9876 Y36.3764 
G01 X-35.8299 Y36.3450 
G01 X-35.6813 Y36.2835 
G01 X-35.6303 Y36.2494 
G01 X-33.5034 Y36.2494 
G01 X-33.4187 Y36.3060 
G01 X-33.2655 Y36.3694 
G01 X-33.1029 Y36.4018 
G01 X-32.9371 Y36.4018 
G01 X-32.7745 Y36.3694 
G01 X-32.6213 Y36.3060 
G01 X-32.4834 Y36.2139 
G00 Z2.5400 
G00 X-32.4321 Y33.8998 
G01 Z-0.0500 F254.00 
G01 X-32.8136 Y34.0578 F254.00 
G01 X-33.2264 Y34.0578 
G01 X-33.5744 Y33.9137 
G01 X-33.5826 Y33.9054 
G01 X-33.5944 Y33.9054 
G01 X-33.6052 Y33.9009 
G01 X-33.6160 Y33.9054 
G01 X-35.5384 Y33.9054 
G01 X-35.5492 Y33.9009 
G01 X-35.5600 Y33.9054 
G01 X-35.5717 Y33.9054 
G01 X-35.5800 Y33.9137 
G01 X-35.8666 Y34.0324 
G01 X-37.7934 Y34.0324 
G01 X-38.1655 Y33.8783 
G01 X-38.4503 Y33.5935 
G01 X-38.6044 Y33.2214 
G01 X-38.6044 Y32.8186 
G01 X-38.4503 Y32.4465 
G01 X-38.1655 Y32.1617 
G01 X-37.7934 Y32.0076 
G01 X-35.8666 Y32.0076 
G01 X-35.5800 Y32.1263 
G01 X-35.5717 Y32.1346 
G01 X-35.5600 Y32.1346 
G01 X-35.5492 Y32.1391 
G01 X-35.5384 Y32.1346 
G01 X-33.6160 Y32.1346 
G01 X-33.6052 Y32.1391 
G01 X-33.5944 Y32.1346 
G01 X-33.5826 Y32.1346 
G01 X-33.5744 Y32.1263 
G01 X-33.2264 Y31.9822 
G01 X-32.8136 Y31.9822 
G01 X-32.4321 Y32.1402 
G01 X-32.1402 Y32.4321 
G01 X-31.9822 Y32.8136 
G01 X-31.9822 Y33.2264 
G01 X-32.1402 Y33.6079 
G01 X-32.4321 Y33.8998 
G00 Z2.5400 
G00 X-32.4834 Y33.6739 
G01 Z-0.0500 F254.00 
G01 X-32.3661 Y33.5566 F254.00 
G01 X-32.2740 Y33.4187 
G01 X-32.2105 Y33.2655 
G01 X-32.1782 Y33.1029 
G01 X-32.1782 Y32.9371 
G01 X-32.2105 Y32.7745 
G01 X-32.2740 Y32.6213 
G01 X-32.3661 Y32.4834 
G01 X-32.4834 Y32.3661 
G01 X-32.6213 Y32.2740 
G01 X-32.7745 Y32.2105 
G01 X-32.9371 Y32.1782 
G01 X-33.1029 Y32.1782 
G01 X-33.2655 Y32.2105 
G01 X-33.4187 Y32.2740 
G01 X-33.5034 Y32.3306 
G01 X-35.6303 Y32.3306 
G01 X-35.6813 Y32.2965 
G01 X-35.8299 Y32.2350 
G01 X-35.9876 Y32.2036 
G01 X-37.6724 Y32.2036 
G01 X-37.8301 Y32.2350 
G01 X-37.9787 Y32.2965 
G01 X-38.1124 Y32.3859 
G01 X-38.2261 Y32.4996 
G01 X-38.3155 Y32.6333 
G01 X-38.3770 Y32.7819 
G01 X-38.4084 Y32.9396 
G01 X-38.4084 Y33.1004 
G01 X-38.3770 Y33.2581 
G01 X-38.3155 Y33.4067 
G01 X-38.2261 Y33.5404 
G01 X-38.1124 Y33.6541 
G01 X-37.9787 Y33.7435 
G01 X-37.8301 Y33.8050 
G01 X-37.6724 Y33.8364 
G01 X-35.9876 Y33.8364 
G01 X-35.8299 Y33.8050 
G01 X-35.6813 Y33.7435 
G01 X-35.6303 Y33.7094 
G01 X-33.5034 Y33.7094 
G01 X-33.4187 Y33.7660 
G01 X-33.2655 Y33.8294 
G01 X-33.1029 Y33.8618 
G01 X-32.9371 Y33.8618 
G01 X-32.7745 Y33.8294 
G01 X-32.6213 Y33.7660 
G01 X-32.4834 Y33.6739 
G00 Z2.5400 
G00 X-32.4321 Y31.3598 
G01 Z-0.0500 F254.00 
G01 X-32.8136 Y31.5178 F254.00 
G01 X-33.2264 Y31.5178 
G01 X-33.5744 Y31.3737 
G01 X-33.5826 Y31.3654 
G01 X-33.5944 Y31.3654 
G01 X-33.6052 Y31.3609 
G01 X-33.6160 Y31.3654 
G01 X-35.5384 Y31.3654 
G01 X-35.5492 Y31.3609 
G01 X-35.5600 Y31.3654 
G01 X-35.5717 Y31.3654 
G01 X-35.5800 Y31.3737 
G01 X-35.8666 Y31.4924 
G01 X-37.7934 Y31.4924 
G01 X-38.1655 Y31.3383 
G01 X-38.4503 Y31.0535 
G01 X-38.6044 Y30.6814 
G01 X-38.6044 Y30.2786 
G01 X-38.4503 Y29.9065 
G01 X-38.1655 Y29.6217 
G01 X-37.7934 Y29.4676 
G01 X-35.8666 Y29.4676 
G01 X-35.5800 Y29.5863 
G01 X-35.5717 Y29.5946 
G01 X-35.5600 Y29.5946 
G01 X-35.5492 Y29.5991 
G01 X-35.5384 Y29.5946 
G01 X-33.6160 Y29.5946 
G01 X-33.6052 Y29.5991 
G01 X-33.5944 Y29.5946 
G01 X-33.5826 Y29.5946 
G01 X-33.5744 Y29.5863 
G01 X-33.2264 Y29.4422 
G01 X-32.8136 Y29.4422 
G01 X-32.4321 Y29.6002 
G01 X-32.1402 Y29.8921 
G01 X-31.9822 Y30.2736 
G01 X-31.9822 Y30.6864 
G01 X-32.1402 Y31.0679 
G01 X-32.4321 Y31.3598 
G00 Z2.5400 
G00 X-32.4834 Y31.1339 
G01 Z-0.0500 F254.00 
G01 X-32.3661 Y31.0166 F254.00 
G01 X-32.2740 Y30.8787 
G01 X-32.2105 Y30.7255 
G01 X-32.1782 Y30.5629 
G01 X-32.1782 Y30.3971 
G01 X-32.2105 Y30.2345 
G01 X-32.2740 Y30.0813 
G01 X-32.3661 Y29.9434 
G01 X-32.4834 Y29.8261 
G01 X-32.6213 Y29.7340 
G01 X-32.7745 Y29.6705 
G01 X-32.9371 Y29.6382 
G01 X-33.1029 Y29.6382 
G01 X-33.2655 Y29.6705 
G01 X-33.4187 Y29.7340 
G01 X-33.5034 Y29.7906 
G01 X-35.6303 Y29.7906 
G01 X-35.6813 Y29.7565 
G01 X-35.8299 Y29.6950 
G01 X-35.9876 Y29.6636 
G01 X-37.6724 Y29.6636 
G01 X-37.8301 Y29.6950 
G01 X-37.9787 Y29.7565 
G01 X-38.1124 Y29.8459 
G01 X-38.2261 Y29.9596 
G01 X-38.3155 Y30.0933 
G01 X-38.3770 Y30.2419 
G01 X-38.4084 Y30.3996 
G01 X-38.4084 Y30.5604 
G01 X-38.3770 Y30.7181 
G01 X-38.3155 Y30.8667 
G01 X-38.2261 Y31.0004 
G01 X-38.1124 Y31.1141 
G01 X-37.9787 Y31.2035 
G01 X-37.8301 Y31.2650 
G01 X-37.6724 Y31.2964 
G01 X-35.9876 Y31.2964 
G01 X-35.8299 Y31.2650 
G01 X-35.6813 Y31.2035 
G01 X-35.6303 Y31.1694 
G01 X-33.5034 Y31.1694 
G01 X-33.4187 Y31.2260 
G01 X-33.2655 Y31.2894 
G01 X-33.1029 Y31.3218 
G01 X-32.9371 Y31.3218 
G01 X-32.7745 Y31.2894 
G01 X-32.6213 Y31.2260 
G01 X-32.4834 Y31.1339 
G00 Z2.5400 
G00 X-32.4321 Y28.8198 
G01 Z-0.0500 F254.00 
G01 X-32.8136 Y28.9778 F254.00 
G01 X-33.2264 Y28.9778 
G01 X-33.5744 Y28.8337 
G01 X-33.5826 Y28.8254 
G01 X-33.5944 Y28.8254 
G01 X-33.6052 Y28.8209 
G01 X-33.6160 Y28.8254 
G01 X-35.5384 Y28.8254 
G01 X-35.5492 Y28.8209 
G01 X-35.5600 Y28.8254 
G01 X-35.5717 Y28.8254 
G01 X-35.5800 Y28.8337 
G01 X-35.8666 Y28.9524 
G01 X-37.7934 Y28.9524 
G01 X-38.1655 Y28.7983 
G01 X-38.4503 Y28.5135 
G01 X-38.6044 Y28.1414 
G01 X-38.6044 Y27.7386 
G01 X-38.4503 Y27.3665 
G01 X-38.1655 Y27.0817 
G01 X-37.7934 Y26.9276 
G01 X-35.8666 Y26.9276 
G01 X-35.5800 Y27.0463 
G01 X-35.5717 Y27.0546 
G01 X-35.5600 Y27.0546 
G01 X-35.5492 Y27.0591 
G01 X-35.5384 Y27.0546 
G01 X-33.6160 Y27.0546 
G01 X-33.6052 Y27.0591 
G01 X-33.5944 Y27.0546 
G01 X-33.5826 Y27.0546 
G01 X-33.5744 Y27.0463 
G01 X-33.2264 Y26.9022 
G01 X-32.8136 Y26.9022 
G01 X-32.4321 Y27.0602 
G01 X-32.1402 Y27.3521 
G01 X-31.9822 Y27.7336 
G01 X-31.9822 Y28.1464 
G01 X-32.1402 Y28.5279 
G01 X-32.4321 Y28.8198 
G00 Z2.5400 
G00 X-32.4834 Y28.5939 
G01 Z-0.0500 F254.00 
G01 X-32.3661 Y28.4766 F254.00 
G01 X-32.2740 Y28.3387 
G01 X-32.2105 Y28.1855 
G01 X-32.1782 Y28.0229 
G01 X-32.1782 Y27.8571 
G01 X-32.2105 Y27.6945 
G01 X-32.2740 Y27.5413 
G01 X-32.3661 Y27.4034 
G01 X-32.4834 Y27.2861 
G01 X-32.6213 Y27.1940 
G01 X-32.7745 Y27.1305 
G01 X-32.9371 Y27.0982 
G01 X-33.1029 Y27.0982 
G01 X-33.2655 Y27.1305 
G01 X-33.4187 Y27.1940 
G01 X-33.5034 Y27.2506 
G01 X-35.6303 Y27.2506 
G01 X-35.6813 Y27.2165 
G01 X-35.8299 Y27.1550 
G01 X-35.9876 Y27.1236 
G01 X-37.6724 Y27.1236 
G01 X-37.8301 Y27.1550 
G01 X-37.9787 Y27.2165 
G01 X-38.1124 Y27.3059 
G01 X-38.2261 Y27.4196 
G01 X-38.3155 Y27.5533 
G01 X-38.3770 Y27.7019 
G01 X-38.4084 Y27.8596 
G01 X-38.4084 Y28.0204 
G01 X-38.3770 Y28.1781 
G01 X-38.3155 Y28.3267 
G01 X-38.2261 Y28.4604 
G01 X-38.1124 Y28.5741 
G01 X-37.9787 Y28.6635 
G01 X-37.8301 Y28.7250 
G01 X-37.6724 Y28.7564 
G01 X-35.9876 Y28.7564 
G01 X-35.8299 Y28.7250 
G01 X-35.6813 Y28.6635 
G01 X-35.6303 Y28.6294 
G01 X-33.5034 Y28.6294 
G01 X-33.4187 Y28.6860 
G01 X-33.2655 Y28.7494 
G01 X-33.1029 Y28.7818 
G01 X-32.9371 Y28.7818 
G01 X-32.7745 Y28.7494 
G01 X-32.6213 Y28.6860 
G01 X-32.4834 Y28.5939 
G00 Z2.5400 
G00 X-32.4321 Y26.2798 
G01 Z-0.0500 F254.00 
G01 X-32.8136 Y26.4378 F254.00 
G01 X-33.2264 Y26.4378 
G01 X-33.5744 Y26.2937 
G01 X-33.5826 Y26.2854 
G01 X-33.5944 Y26.2854 
G01 X-33.6052 Y26.2809 
G01 X-33.6160 Y26.2854 
G01 X-35.5384 Y26.2854 
G01 X-35.5492 Y26.2809 
G01 X-35.5600 Y26.2854 
G01 X-35.5717 Y26.2854 
G01 X-35.5800 Y26.2937 
G01 X-35.8666 Y26.4124 
G01 X-37.7934 Y26.4124 
G01 X-38.1655 Y26.2583 
G01 X-38.4503 Y25.9735 
G01 X-38.6044 Y25.6014 
G01 X-38.6044 Y25.1986 
G01 X-38.4503 Y24.8265 
G01 X-38.1655 Y24.5417 
G01 X-37.7934 Y24.3876 
G01 X-35.8666 Y24.3876 
G01 X-35.5800 Y24.5063 
G01 X-35.5717 Y24.5146 
G01 X-35.5600 Y24.5146 
G01 X-35.5492 Y24.5191 
G01 X-35.5384 Y24.5146 
G01 X-33.6160 Y24.5146 
G01 X-33.6052 Y24.5191 
G01 X-33.5944 Y24.5146 
G01 X-33.5826 Y24.5146 
G01 X-33.5744 Y24.5063 
G01 X-33.2264 Y24.3622 
G01 X-32.8136 Y24.3622 
G01 X-32.4321 Y24.5202 
G01 X-32.1402 Y24.8121 
G01 X-31.9822 Y25.1936 
G01 X-31.9822 Y25.6064 
G01 X-32.1402 Y25.9879 
G01 X-32.4321 Y26.2798 
G00 Z2.5400 
G00 X-32.4834 Y26.0539 
G01 Z-0.0500 F254.00 
G01 X-32.3661 Y25.9366 F254.00 
G01 X-32.2740 Y25.7987 
G01 X-32.2105 Y25.6455 
G01 X-32.1782 Y25.4829 
G01 X-32.1782 Y25.3171 
G01 X-32.2105 Y25.1545 
G01 X-32.2740 Y25.0013 
G01 X-32.3661 Y24.8634 
G01 X-32.4834 Y24.7461 
G01 X-32.6213 Y24.6540 
G01 X-32.7745 Y24.5906 
G01 X-32.9371 Y24.5582 
G01 X-33.1029 Y24.5582 
G01 X-33.2655 Y24.5906 
G01 X-33.4187 Y24.6540 
G01 X-33.5034 Y24.7106 
G01 X-35.6303 Y24.7106 
G01 X-35.6813 Y24.6765 
G01 X-35.8299 Y24.6150 
G01 X-35.9876 Y24.5836 
G01 X-37.6724 Y24.5836 
G01 X-37.8301 Y24.6150 
G01 X-37.9787 Y24.6765 
G01 X-38.1124 Y24.7659 
G01 X-38.2261 Y24.8796 
G01 X-38.3155 Y25.0133 
G01 X-38.3770 Y25.1619 
G01 X-38.4084 Y25.3196 
G01 X-38.4084 Y25.4804 
G01 X-38.3770 Y25.6381 
G01 X-38.3155 Y25.7867 
G01 X-38.2261 Y25.9204 
G01 X-38.1124 Y26.0341 
G01 X-37.9787 Y26.1235 
G01 X-37.8301 Y26.1850 
G01 X-37.6724 Y26.2164 
G01 X-35.9876 Y26.2164 
G01 X-35.8299 Y26.1850 
G01 X-35.6813 Y26.1235 
G01 X-35.6303 Y26.0894 
G01 X-33.5034 Y26.0894 
G01 X-33.4187 Y26.1460 
G01 X-33.2655 Y26.2094 
G01 X-33.1029 Y26.2418 
G01 X-32.9371 Y26.2418 
G01 X-32.7745 Y26.2094 
G01 X-32.6213 Y26.1460 
G01 X-32.4834 Y26.0539 
G00 Z2.5400 
G00 X-32.4321 Y23.7398 
G01 Z-0.0500 F254.00 
G01 X-32.8136 Y23.8978 F254.00 
G01 X-33.2264 Y23.8978 
G01 X-33.5744 Y23.7537 
G01 X-33.5826 Y23.7454 
G01 X-33.5944 Y23.7454 
G01 X-33.6052 Y23.7409 
G01 X-33.6160 Y23.7454 
G01 X-35.5384 Y23.7454 
G01 X-35.5492 Y23.7409 
G01 X-35.5600 Y23.7454 
G01 X-35.5717 Y23.7454 
G01 X-35.5800 Y23.7537 
G01 X-35.8666 Y23.8724 
G01 X-37.7934 Y23.8724 
G01 X-38.1655 Y23.7183 
G01 X-38.4503 Y23.4335 
G01 X-38.6044 Y23.0614 
G01 X-38.6044 Y22.6586 
G01 X-38.4503 Y22.2865 
G01 X-38.1655 Y22.0017 
G01 X-37.7934 Y21.8476 
G01 X-35.8666 Y21.8476 
G01 X-35.5800 Y21.9663 
G01 X-35.5717 Y21.9746 
G01 X-35.5600 Y21.9746 
G01 X-35.5492 Y21.9791 
G01 X-35.5384 Y21.9746 
G01 X-33.6160 Y21.9746 
G01 X-33.6052 Y21.9791 
G01 X-33.5944 Y21.9746 
G01 X-33.5826 Y21.9746 
G01 X-33.5744 Y21.9663 
G01 X-33.2264 Y21.8222 
G01 X-32.8136 Y21.8222 
G01 X-32.4321 Y21.9802 
G01 X-32.1402 Y22.2721 
G01 X-31.9822 Y22.6536 
G01 X-31.9822 Y23.0664 
G01 X-32.1402 Y23.4479 
G01 X-32.4321 Y23.7398 
G00 Z2.5400 
G00 X-32.4834 Y23.5139 
G01 Z-0.0500 F254.00 
G01 X-32.3661 Y23.3966 F254.00 
G01 X-32.2740 Y23.2587 
G01 X-32.2105 Y23.1055 
G01 X-32.1782 Y22.9429 
G01 X-32.1782 Y22.7771 
G01 X-32.2105 Y22.6145 
G01 X-32.2740 Y22.4613 
G01 X-32.3661 Y22.3234 
G01 X-32.4834 Y22.2061 
G01 X-32.6213 Y22.1140 
G01 X-32.7745 Y22.0506 
G01 X-32.9371 Y22.0182 
G01 X-33.1029 Y22.0182 
G01 X-33.2655 Y22.0506 
G01 X-33.4187 Y22.1140 
G01 X-33.5034 Y22.1706 
G01 X-35.6303 Y22.1706 
G01 X-35.6813 Y22.1365 
G01 X-35.8299 Y22.0750 
G01 X-35.9876 Y22.0436 
G01 X-37.6724 Y22.0436 
G01 X-37.8301 Y22.0750 
G01 X-37.9787 Y22.1365 
G01 X-38.1124 Y22.2259 
G01 X-38.2261 Y22.3396 
G01 X-38.3155 Y22.4733 
G01 X-38.3770 Y22.6219 
G01 X-38.4084 Y22.7796 
G01 X-38.4084 Y22.9404 
G01 X-38.3770 Y23.0981 
G01 X-38.3155 Y23.2467 
G01 X-38.2261 Y23.3804 
G01 X-38.1124 Y23.4941 
G01 X-37.9787 Y23.5835 
G01 X-37.8301 Y23.6450 
G01 X-37.6724 Y23.6764 
G01 X-35.9876 Y23.6764 
G01 X-35.8299 Y23.6450 
G01 X-35.6813 Y23.5835 
G01 X-35.6303 Y23.5494 
G01 X-33.5034 Y23.5494 
G01 X-33.4187 Y23.6060 
G01 X-33.2655 Y23.6694 
G01 X-33.1029 Y23.7018 
G01 X-32.9371 Y23.7018 
G01 X-32.7745 Y23.6694 
G01 X-32.6213 Y23.6060 
G01 X-32.4834 Y23.5139 
G00 Z2.5400 
G00 X-32.4321 Y21.1998 
G01 Z-0.0500 F254.00 
G01 X-32.8136 Y21.3578 F254.00 
G01 X-33.2264 Y21.3578 
G01 X-33.5744 Y21.2137 
G01 X-33.5826 Y21.2054 
G01 X-33.5944 Y21.2054 
G01 X-33.6052 Y21.2009 
G01 X-33.6160 Y21.2054 
G01 X-35.5384 Y21.2054 
G01 X-35.5492 Y21.2009 
G01 X-35.5600 Y21.2054 
G01 X-35.5717 Y21.2054 
G01 X-35.5800 Y21.2137 
G01 X-35.8666 Y21.3324 
G01 X-37.7934 Y21.3324 
G01 X-38.0800 Y21.2137 
G01 X-38.0883 Y21.2054 
G01 X-38.1000 Y21.2054 
G01 X-38.1108 Y21.2009 
G01 X-38.1216 Y21.2054 
G01 X-41.6261 Y21.2054 
G01 X-41.9515 Y21.0706 
G01 X-42.2006 Y20.8215 
G01 X-42.3354 Y20.4961 
G01 X-42.3354 Y12.9474 
G01 X-42.3309 Y12.9366 
G01 X-42.3354 Y12.9258 
G01 X-42.3354 Y12.9141 
G01 X-42.3437 Y12.9058 
G01 X-42.3544 Y12.8799 
G01 X-42.3544 Y12.5201 
G01 X-42.2167 Y12.1877 
G01 X-41.9623 Y11.9333 
G01 X-41.6299 Y11.7956 
G01 X-41.2701 Y11.7956 
G01 X-40.9377 Y11.9333 
G01 X-40.6833 Y12.1877 
G01 X-40.5456 Y12.5201 
G01 X-40.5456 Y12.8799 
G01 X-40.5563 Y12.9058 
G01 X-40.5646 Y12.9141 
G01 X-40.5646 Y12.9258 
G01 X-40.5691 Y12.9366 
G01 X-40.5646 Y12.9474 
G01 X-40.5646 Y19.4027 
G01 X-40.5327 Y19.4346 
G01 X-38.1216 Y19.4346 
G01 X-38.1108 Y19.4391 
G01 X-38.1000 Y19.4346 
G01 X-38.0883 Y19.4346 
G01 X-38.0800 Y19.4263 
G01 X-37.7934 Y19.3076 
G01 X-35.8666 Y19.3076 
G01 X-35.5800 Y19.4263 
G01 X-35.5717 Y19.4346 
G01 X-35.5600 Y19.4346 
G01 X-35.5492 Y19.4391 
G01 X-35.5384 Y19.4346 
G01 X-33.6160 Y19.4346 
G01 X-33.6052 Y19.4391 
G01 X-33.5944 Y19.4346 
G01 X-33.5826 Y19.4346 
G01 X-33.5744 Y19.4263 
G01 X-33.2264 Y19.2822 
G01 X-32.8136 Y19.2822 
G01 X-32.4321 Y19.4402 
G01 X-32.1402 Y19.7321 
G01 X-31.9822 Y20.1136 
G01 X-31.9822 Y20.5264 
G01 X-32.1402 Y20.9079 
G01 X-32.4321 Y21.1998 
G00 Z2.5400 
G00 X-32.4834 Y20.9739 
G01 Z-0.0500 F254.00 
G01 X-32.3661 Y20.8566 F254.00 
G01 X-32.2740 Y20.7187 
G01 X-32.2105 Y20.5655 
G01 X-32.1782 Y20.4029 
G01 X-32.1782 Y20.2371 
G01 X-32.2105 Y20.0745 
G01 X-32.2740 Y19.9213 
G01 X-32.3661 Y19.7834 
G01 X-32.4834 Y19.6661 
G01 X-32.6213 Y19.5740 
G01 X-32.7745 Y19.5105 
G01 X-32.9371 Y19.4782 
G01 X-33.1029 Y19.4782 
G01 X-33.2655 Y19.5105 
G01 X-33.4187 Y19.5740 
G01 X-33.5034 Y19.6306 
G01 X-35.6303 Y19.6306 
G01 X-35.6813 Y19.5965 
G01 X-35.8299 Y19.5350 
G01 X-35.9876 Y19.5036 
G01 X-37.6724 Y19.5036 
G01 X-37.8301 Y19.5350 
G01 X-37.9787 Y19.5965 
G01 X-38.0297 Y19.6306 
G01 X-40.7606 Y19.6306 
G01 X-40.7606 Y12.8653 
G01 X-40.7416 Y12.7698 
G01 X-40.7416 Y12.6302 
G01 X-40.7688 Y12.4934 
G01 X-40.8222 Y12.3644 
G01 X-40.8997 Y12.2484 
G01 X-40.9984 Y12.1497 
G01 X-41.1144 Y12.0722 
G01 X-41.2434 Y12.0188 
G01 X-41.3802 Y11.9916 
G01 X-41.5198 Y11.9916 
G01 X-41.6566 Y12.0188 
G01 X-41.7856 Y12.0722 
G01 X-41.9016 Y12.1497 
G01 X-42.0002 Y12.2484 
G01 X-42.0778 Y12.3644 
G01 X-42.1312 Y12.4934 
G01 X-42.1584 Y12.6302 
G01 X-42.1584 Y12.7698 
G01 X-42.1394 Y12.8653 
G01 X-42.1394 Y20.3879 
G01 X-42.1129 Y20.5211 
G01 X-42.0609 Y20.6466 
G01 X-41.9855 Y20.7595 
G01 X-41.8895 Y20.8555 
G01 X-41.7766 Y20.9309 
G01 X-41.6511 Y20.9829 
G01 X-41.5179 Y21.0094 
G01 X-38.0297 Y21.0094 
G01 X-37.9787 Y21.0435 
G01 X-37.8301 Y21.1050 
G01 X-37.6724 Y21.1364 
G01 X-35.9876 Y21.1364 
G01 X-35.8299 Y21.1050 
G01 X-35.6813 Y21.0435 
G01 X-35.6303 Y21.0094 
G01 X-33.5034 Y21.0094 
G01 X-33.4187 Y21.0660 
G01 X-33.2655 Y21.1294 
G01 X-33.1029 Y21.1618 
G01 X-32.9371 Y21.1618 
G01 X-32.7745 Y21.1294 
G01 X-32.6213 Y21.0660 
G01 X-32.4834 Y20.9739 
G00 Z2.5400 
G00 X-32.5027 Y18.6242 
G01 Z-0.0500 F254.00 
G01 X-32.6411 Y18.6947 F254.00 
G01 X-32.7889 Y18.7427 
G01 X-32.9423 Y18.7670 
G01 X-32.9656 Y18.7670 
G01 X-32.9656 Y18.6218 
G01 X-32.9371 Y18.6218 
G01 X-32.7745 Y18.5894 
G01 X-32.6213 Y18.5260 
G01 X-32.4834 Y18.4339 
G01 X-32.3661 Y18.3166 
G01 X-32.2740 Y18.1787 
G01 X-32.2105 Y18.0255 
G01 X-32.1782 Y17.8629 
G01 X-32.1782 Y17.8344 
G01 X-32.0330 Y17.8344 
G01 X-32.0330 Y17.8577 
G01 X-32.0573 Y18.0111 
G01 X-32.1053 Y18.1589 
G01 X-32.1758 Y18.2973 
G01 X-32.2672 Y18.4230 
G01 X-32.3770 Y18.5328 
G01 X-32.5027 Y18.6242 
G00 Z2.5400 
G00 X-33.0744 Y18.6218 
G01 Z-0.0500 F254.00 
G01 X-33.0744 Y18.7670 F254.00 
G01 X-33.0977 Y18.7670 
G01 X-33.2511 Y18.7427 
G01 X-33.3989 Y18.6947 
G01 X-33.5373 Y18.6242 
G01 X-33.6630 Y18.5328 
G01 X-33.7265 Y18.4694 
G01 X-33.5034 Y18.4694 
G01 X-33.4187 Y18.5260 
G01 X-33.2655 Y18.5894 
G01 X-33.1029 Y18.6218 
G01 X-33.0744 Y18.6218 
G00 Z2.5400 
G00 X-33.0744 Y16.9382 
G01 Z-0.0500 F254.00 
G01 X-33.1029 Y16.9382 F254.00 
G01 X-33.2655 Y16.9705 
G01 X-33.4187 Y17.0340 
G01 X-33.5034 Y17.0906 
G01 X-33.7265 Y17.0906 
G01 X-33.6630 Y17.0271 
G01 X-33.5373 Y16.9358 
G01 X-33.3989 Y16.8653 
G01 X-33.2511 Y16.8173 
G01 X-33.0977 Y16.7930 
G01 X-33.0744 Y16.7930 
G01 X-33.0744 Y16.9382 
G00 Z2.5400 
G00 X-32.9656 Y16.9382 
G01 Z-0.0500 F254.00 
G01 X-32.9656 Y16.7930 F254.00 
G01 X-32.9423 Y16.7930 
G01 X-32.7889 Y16.8173 
G01 X-32.6411 Y16.8653 
G01 X-32.5027 Y16.9358 
G01 X-32.3770 Y17.0271 
G01 X-32.2672 Y17.1370 
G01 X-32.1758 Y17.2627 
G01 X-32.1053 Y17.4011 
G01 X-32.0573 Y17.5489 
G01 X-32.0330 Y17.7023 
G01 X-32.0330 Y17.7256 
G01 X-32.1782 Y17.7256 
G01 X-32.1782 Y17.6971 
G01 X-32.2105 Y17.5345 
G01 X-32.2740 Y17.3813 
G01 X-32.3661 Y17.2434 
G01 X-32.4834 Y17.1261 
G01 X-32.6213 Y17.0340 
G01 X-32.7745 Y16.9705 
G01 X-32.9371 Y16.9382 
G01 X-32.9656 Y16.9382 
G00 Z2.5400 
G00 X-32.8136 Y16.2778 
G01 Z-0.0500 F254.00 
G01 X-33.2264 Y16.2778 F254.00 
G01 X-33.5744 Y16.1337 
G01 X-33.5826 Y16.1254 
G01 X-33.5944 Y16.1254 
G01 X-33.6052 Y16.1209 
G01 X-33.6160 Y16.1254 
G01 X-35.5384 Y16.1254 
G01 X-35.5492 Y16.1209 
G01 X-35.5600 Y16.1254 
G01 X-35.5717 Y16.1254 
G01 X-35.5800 Y16.1337 
G01 X-35.8666 Y16.2524 
G01 X-37.7934 Y16.2524 
G01 X-38.1655 Y16.0983 
G01 X-38.4503 Y15.8135 
G01 X-38.6044 Y15.4414 
G01 X-38.6044 Y15.0386 
G01 X-38.4503 Y14.6665 
G01 X-38.1655 Y14.3817 
G01 X-37.7934 Y14.2276 
G01 X-35.8666 Y14.2276 
G01 X-35.5800 Y14.3463 
G01 X-35.5717 Y14.3546 
G01 X-35.5600 Y14.3546 
G01 X-35.5492 Y14.3591 
G01 X-35.5384 Y14.3546 
G01 X-33.6160 Y14.3546 
G01 X-33.6052 Y14.3591 
G01 X-33.5944 Y14.3546 
G01 X-33.5826 Y14.3546 
G01 X-33.5744 Y14.3463 
G01 X-33.2264 Y14.2022 
G01 X-32.8136 Y14.2022 
G01 X-32.4321 Y14.3602 
G01 X-32.1402 Y14.6521 
G01 X-31.9822 Y15.0336 
G01 X-31.9822 Y15.4464 
G01 X-32.1402 Y15.8279 
G01 X-32.4321 Y16.1198 
G01 X-32.8136 Y16.2778 
G00 Z2.5400 
G00 X-32.7745 Y16.0494 
G01 Z-0.0500 F254.00 
G01 X-32.6213 Y15.9860 F254.00 
G01 X-32.4834 Y15.8939 
G01 X-32.3661 Y15.7766 
G01 X-32.2740 Y15.6387 
G01 X-32.2105 Y15.4855 
G01 X-32.1782 Y15.3229 
G01 X-32.1782 Y15.1571 
G01 X-32.2105 Y14.9945 
G01 X-32.2740 Y14.8413 
G01 X-32.3661 Y14.7034 
G01 X-32.4834 Y14.5861 
G01 X-32.6213 Y14.4940 
G01 X-32.7745 Y14.4306 
G01 X-32.9371 Y14.3982 
G01 X-33.1029 Y14.3982 
G01 X-33.2655 Y14.4306 
G01 X-33.4187 Y14.4940 
G01 X-33.5034 Y14.5506 
G01 X-35.6303 Y14.5506 
G01 X-35.6813 Y14.5165 
G01 X-35.8299 Y14.4550 
G01 X-35.9876 Y14.4236 
G01 X-37.6724 Y14.4236 
G01 X-37.8301 Y14.4550 
G01 X-37.9787 Y14.5165 
G01 X-38.1124 Y14.6059 
G01 X-38.2261 Y14.7196 
G01 X-38.3155 Y14.8533 
G01 X-38.3770 Y15.0019 
G01 X-38.4084 Y15.1596 
G01 X-38.4084 Y15.3204 
G01 X-38.3770 Y15.4781 
G01 X-38.3155 Y15.6267 
G01 X-38.2261 Y15.7604 
G01 X-38.1124 Y15.8741 
G01 X-37.9787 Y15.9635 
G01 X-37.8301 Y16.0250 
G01 X-37.6724 Y16.0564 
G01 X-35.9876 Y16.0564 
G01 X-35.8299 Y16.0250 
G01 X-35.6813 Y15.9635 
G01 X-35.6303 Y15.9294 
G01 X-33.5034 Y15.9294 
G01 X-33.4187 Y15.9860 
G01 X-33.2655 Y16.0494 
G01 X-33.1029 Y16.0818 
G01 X-32.9371 Y16.0818 
G01 X-32.7745 Y16.0494 
G00 Z2.5400 
G00 X-32.8136 Y13.7378 
G01 Z-0.0500 F254.00 
G01 X-33.2264 Y13.7378 F254.00 
G01 X-33.5744 Y13.5937 
G01 X-33.5826 Y13.5854 
G01 X-33.5944 Y13.5854 
G01 X-33.6052 Y13.5809 
G01 X-33.6160 Y13.5854 
G01 X-35.5384 Y13.5854 
G01 X-35.5492 Y13.5809 
G01 X-35.5600 Y13.5854 
G01 X-35.5717 Y13.5854 
G01 X-35.5800 Y13.5937 
G01 X-35.8666 Y13.7124 
G01 X-37.7934 Y13.7124 
G01 X-38.1655 Y13.5583 
G01 X-38.4503 Y13.2735 
G01 X-38.6044 Y12.9014 
G01 X-38.6044 Y12.4986 
G01 X-38.4503 Y12.1265 
G01 X-38.1655 Y11.8417 
G01 X-37.7934 Y11.6876 
G01 X-35.8666 Y11.6876 
G01 X-35.5800 Y11.8063 
G01 X-35.5717 Y11.8146 
G01 X-35.5600 Y11.8146 
G01 X-35.5492 Y11.8191 
G01 X-35.5384 Y11.8146 
G01 X-33.6160 Y11.8146 
G01 X-33.6052 Y11.8191 
G01 X-33.5944 Y11.8146 
G01 X-33.5826 Y11.8146 
G01 X-33.5744 Y11.8063 
G01 X-33.2264 Y11.6622 
G01 X-32.8136 Y11.6622 
G01 X-32.4321 Y11.8202 
G01 X-32.1402 Y12.1121 
G01 X-31.9822 Y12.4936 
G01 X-31.9822 Y12.9064 
G01 X-32.1402 Y13.2879 
G01 X-32.4321 Y13.5798 
G01 X-32.8136 Y13.7378 
G00 Z2.5400 
G00 X-32.7745 Y13.5094 
G01 Z-0.0500 F254.00 
G01 X-32.6213 Y13.4460 F254.00 
G01 X-32.4834 Y13.3539 
G01 X-32.3661 Y13.2366 
G01 X-32.2740 Y13.0987 
G01 X-32.2105 Y12.9455 
G01 X-32.1782 Y12.7829 
G01 X-32.1782 Y12.6171 
G01 X-32.2105 Y12.4545 
G01 X-32.2740 Y12.3013 
G01 X-32.3661 Y12.1634 
G01 X-32.4834 Y12.0461 
G01 X-32.6213 Y11.9540 
G01 X-32.7745 Y11.8905 
G01 X-32.9371 Y11.8582 
G01 X-33.1029 Y11.8582 
G01 X-33.2655 Y11.8905 
G01 X-33.4187 Y11.9540 
G01 X-33.5034 Y12.0106 
G01 X-35.6303 Y12.0106 
G01 X-35.6813 Y11.9765 
G01 X-35.8299 Y11.9150 
G01 X-35.9876 Y11.8836 
G01 X-37.6724 Y11.8836 
G01 X-37.8301 Y11.9150 
G01 X-37.9787 Y11.9765 
G01 X-38.1124 Y12.0659 
G01 X-38.2261 Y12.1796 
G01 X-38.3155 Y12.3133 
G01 X-38.3770 Y12.4619 
G01 X-38.4084 Y12.6196 
G01 X-38.4084 Y12.7804 
G01 X-38.3770 Y12.9381 
G01 X-38.3155 Y13.0867 
G01 X-38.2261 Y13.2204 
G01 X-38.1124 Y13.3341 
G01 X-37.9787 Y13.4235 
G01 X-37.8301 Y13.4850 
G01 X-37.6724 Y13.5164 
G01 X-35.9876 Y13.5164 
G01 X-35.8299 Y13.4850 
G01 X-35.6813 Y13.4235 
G01 X-35.6303 Y13.3894 
G01 X-33.5034 Y13.3894 
G01 X-33.4187 Y13.4460 
G01 X-33.2655 Y13.5094 
G01 X-33.1029 Y13.5418 
G01 X-32.9371 Y13.5418 
G01 X-32.7745 Y13.5094 
G00 Z2.5400 
G00 X-32.8136 Y11.1978 
G01 Z-0.0500 F254.00 
G01 X-33.2264 Y11.1978 F254.00 
G01 X-33.5744 Y11.0537 
