(.../pcb-gcode-3.6.2.4/pcb-gcode.ulp)
(Copyright 2005 - 2012 by John Johnson)
(See readme.txt for licensing terms.)
(This file generated from the board:)
(.../MainShield/LeCoolStick-v1_1.brd)
(Current profile is .../pcb-gcode-3.6.2.4/profiles/turbocnc.pp  )
(This file generated 16/12/2015 09:30)
(Settings from pcb-machine.h)
(spindle on time = 3.0000)
(spindle speed = 20000.0000)
(tool change at 0.0000 0.0000 25.4000 )
(feed rate xy = F0.00  )
(feed rate z  = F508.00 )
(Z Axis Settings)
(  High     Up        Down     Drill)
(12.7000 	2.5400 	-0.0500 	-1.8000 )
(Settings from pcb-defaults.h)
(isolate min = 0.0254)
(isolate max = 0.5000)
(isolate step = 0.1270)
(Generated bottom outlines, bottom drill, )
(Unit of measure: mm)
( Tool|       Size       |  Min Sub |  Max Sub |   Count )
( T01 | 0.800mm 0.0315in | 0.0000in | 0.0000in |       0 )
( T02 | 1.016mm 0.0400in | 0.0000in | 0.0000in |       0 )
( T03 | 1.321mm 0.0520in | 0.0000in | 0.0000in |       0 )
( T04 | 2.800mm 0.1102in | 0.0000in | 0.0000in |       0 )
(Metric Mode)
G21
(Absolute Coordinates)
G90
G97 S20000
G00 Z12.7000 
G00 X0.0000 Y0.0000 
M03
G04 P3.000000
M05
G00 Z25.4000 
M06 T01  ; 0.8000 
G01 Z0.0000 F508.00 
M06 
G00 Z2.5400 
M03
G04 P3.000000
G00 X-3.3500 Y33.0200 
G01 Z-1.8000 F508.00 
G00 Z2.5400 
G00 X-5.3500 Y33.0200 
G01 Z-1.8000 F508.00 
G00 Z2.5400 
G00 X-7.3500 Y33.0200 
G01 Z-1.8000 F508.00 
G00 Z2.5400 
G00 X-9.3500 Y33.0200 
G01 Z-1.8000 F508.00 
G00 Z2.5400 
G00 X-22.4000 Y7.6200 
G01 Z-1.8000 F508.00 
G00 Z2.5400 
G00 X-24.4000 Y7.6200 
G01 Z-1.8000 F508.00 
G00 Z2.5400 
G00 X-26.4000 Y7.6200 
G01 Z-1.8000 F508.00 
G00 Z2.5400 
G00 X-28.4000 Y7.6200 
G01 Z-1.8000 F508.00 
G00 Z2.5400 
G00 X-41.4500 Y12.7000 
G01 Z-1.8000 F508.00 
G00 Z2.5400 
G00 X-43.4500 Y12.7000 
G01 Z-1.8000 F508.00 
G00 Z2.5400 
G00 X-45.4500 Y12.7000 
G01 Z-1.8000 F508.00 
G00 Z2.5400 
G00 X-47.4500 Y12.7000 
G01 Z-1.8000 F508.00 
G00 Z2.5400 
G00 X-47.4500 Y35.5600 
G01 Z-1.8000 F508.00 
G00 Z2.5400 
G00 X-45.4500 Y35.5600 
G01 Z-1.8000 F508.00 
G00 Z2.5400 
G00 X-43.4500 Y35.5600 
G01 Z-1.8000 F508.00 
G00 Z2.5400 
G00 X-41.4500 Y35.5600 
G01 Z-1.8000 F508.00 
G00 Z2.5400 
M05
G00 Z25.4000 
G00 X0.0000 Y0.0000 
M06 T02  ; 1.0160 
G01 Z0.0000 F508.00 
M06 
G00 Z2.5400 
M03
G04 P3.000000
G00 X-2.5400 Y12.7000 
G01 Z-1.8000 F508.00 
G00 Z2.5400 
G00 X-5.0800 Y12.7000 
G01 Z-1.8000 F508.00 
G00 Z2.5400 
G00 X-7.6200 Y12.7000 
G01 Z-1.8000 F508.00 
G00 Z2.5400 
G00 X-10.1600 Y12.7000 
G01 Z-1.8000 F508.00 
G00 Z2.5400 
G00 X-13.9700 Y12.7000 
G01 Z-1.8000 F508.00 
G00 Z2.5400 
G00 X-13.9700 Y10.1600 
G01 Z-1.8000 F508.00 
G00 Z2.5400 
G00 X-13.9700 Y7.6200 
G01 Z-1.8000 F508.00 
G00 Z2.5400 
G00 X-13.9700 Y5.0800 
G01 Z-1.8000 F508.00 
G00 Z2.5400 
G00 X-17.7800 Y5.0800 
G01 Z-1.8000 F508.00 
G00 Z2.5400 
G00 X-17.7800 Y7.6200 
G01 Z-1.8000 F508.00 
G00 Z2.5400 
G00 X-17.7800 Y10.1600 
G01 Z-1.8000 F508.00 
G00 Z2.5400 
G00 X-17.7800 Y12.7000 
G01 Z-1.8000 F508.00 
G00 Z2.5400 
G00 X-17.7800 Y15.2400 
G01 Z-1.8000 F508.00 
G00 Z2.5400 
G00 X-17.7800 Y17.7800 
G01 Z-1.8000 F508.00 
G00 Z2.5400 
G00 X-17.7800 Y20.3200 
G01 Z-1.8000 F508.00 
G00 Z2.5400 
G00 X-17.7800 Y22.8600 
G01 Z-1.8000 F508.00 
G00 Z2.5400 
G00 X-17.7800 Y25.4000 
G01 Z-1.8000 F508.00 
G00 Z2.5400 
G00 X-17.7800 Y27.9400 
G01 Z-1.8000 F508.00 
G00 Z2.5400 
G00 X-17.7800 Y30.4800 
G01 Z-1.8000 F508.00 
G00 Z2.5400 
G00 X-17.7800 Y33.0200 
G01 Z-1.8000 F508.00 
G00 Z2.5400 
G00 X-17.7800 Y35.5600 
G01 Z-1.8000 F508.00 
G00 Z2.5400 
G00 X-17.7800 Y38.1000 
G01 Z-1.8000 F508.00 
G00 Z2.5400 
G00 X-17.7800 Y40.6400 
G01 Z-1.8000 F508.00 
G00 Z2.5400 
G00 X-17.7800 Y43.1800 
G01 Z-1.8000 F508.00 
G00 Z2.5400 
G00 X-17.7800 Y45.7200 
G01 Z-1.8000 F508.00 
G00 Z2.5400 
G00 X-13.9700 Y45.7200 
G01 Z-1.8000 F508.00 
G00 Z2.5400 
G00 X-13.9700 Y43.1800 
G01 Z-1.8000 F508.00 
G00 Z2.5400 
G00 X-13.9700 Y40.6400 
G01 Z-1.8000 F508.00 
G00 Z2.5400 
G00 X-13.9700 Y38.1000 
G01 Z-1.8000 F508.00 
G00 Z2.5400 
G00 X-13.9700 Y35.5600 
G01 Z-1.8000 F508.00 
G00 Z2.5400 
G00 X-13.9700 Y33.0200 
G01 Z-1.8000 F508.00 
G00 Z2.5400 
G00 X-13.9700 Y30.4800 
G01 Z-1.8000 F508.00 
G00 Z2.5400 
G00 X-13.9700 Y27.9400 
G01 Z-1.8000 F508.00 
G00 Z2.5400 
G00 X-13.9700 Y25.4000 
G01 Z-1.8000 F508.00 
G00 Z2.5400 
G00 X-13.9700 Y22.8600 
G01 Z-1.8000 F508.00 
G00 Z2.5400 
G00 X-13.9700 Y20.3200 
G01 Z-1.8000 F508.00 
G00 Z2.5400 
G00 X-13.9700 Y17.7800 
G01 Z-1.8000 F508.00 
G00 Z2.5400 
G00 X-13.9700 Y15.2400 
G01 Z-1.8000 F508.00 
G00 Z2.5400 
G00 X-10.1600 Y17.7800 
G01 Z-1.8000 F508.00 
G00 Z2.5400 
G00 X-7.6200 Y17.7800 
G01 Z-1.8000 F508.00 
G00 Z2.5400 
G00 X-5.0800 Y17.7800 
G01 Z-1.8000 F508.00 
G00 Z2.5400 
G00 X-2.5400 Y17.7800 
G01 Z-1.8000 F508.00 
G00 Z2.5400 
G00 X-33.0200 Y17.7800 
G01 Z-1.8000 F508.00 
G00 Z2.5400 
G00 X-33.0200 Y20.3200 
G01 Z-1.8000 F508.00 
G00 Z2.5400 
G00 X-33.0200 Y22.8600 
G01 Z-1.8000 F508.00 
G00 Z2.5400 
G00 X-33.0200 Y25.4000 
G01 Z-1.8000 F508.00 
G00 Z2.5400 
G00 X-33.0200 Y27.9400 
G01 Z-1.8000 F508.00 
G00 Z2.5400 
G00 X-33.0200 Y30.4800 
G01 Z-1.8000 F508.00 
G00 Z2.5400 
G00 X-33.0200 Y33.0200 
G01 Z-1.8000 F508.00 
G00 Z2.5400 
G00 X-33.0200 Y35.5600 
G01 Z-1.8000 F508.00 
G00 Z2.5400 
G00 X-33.0200 Y38.1000 
G01 Z-1.8000 F508.00 
G00 Z2.5400 
G00 X-33.0200 Y40.6400 
G01 Z-1.8000 F508.00 
G00 Z2.5400 
G00 X-33.0200 Y43.1800 
G01 Z-1.8000 F508.00 
G00 Z2.5400 
G00 X-33.0200 Y45.7200 
G01 Z-1.8000 F508.00 
G00 Z2.5400 
G00 X-36.8300 Y45.7200 
G01 Z-1.8000 F508.00 
G00 Z2.5400 
G00 X-36.8300 Y43.1800 
G01 Z-1.8000 F508.00 
G00 Z2.5400 
G00 X-36.8300 Y40.6400 
G01 Z-1.8000 F508.00 
G00 Z2.5400 
G00 X-36.8300 Y38.1000 
G01 Z-1.8000 F508.00 
G00 Z2.5400 
G00 X-36.8300 Y35.5600 
G01 Z-1.8000 F508.00 
G00 Z2.5400 
G00 X-36.8300 Y33.0200 
G01 Z-1.8000 F508.00 
G00 Z2.5400 
G00 X-36.8300 Y30.4800 
G01 Z-1.8000 F508.00 
G00 Z2.5400 
G00 X-36.8300 Y27.9400 
G01 Z-1.8000 F508.00 
G00 Z2.5400 
G00 X-36.8300 Y25.4000 
G01 Z-1.8000 F508.00 
G00 Z2.5400 
G00 X-36.8300 Y22.8600 
G01 Z-1.8000 F508.00 
G00 Z2.5400 
G00 X-36.8300 Y20.3200 
G01 Z-1.8000 F508.00 
G00 Z2.5400 
G00 X-36.8300 Y17.7800 
G01 Z-1.8000 F508.00 
G00 Z2.5400 
G00 X-36.8300 Y15.2400 
G01 Z-1.8000 F508.00 
G00 Z2.5400 
G00 X-36.8300 Y12.7000 
G01 Z-1.8000 F508.00 
G00 Z2.5400 
G00 X-36.8300 Y10.1600 
G01 Z-1.8000 F508.00 
G00 Z2.5400 
G00 X-36.8300 Y7.6200 
G01 Z-1.8000 F508.00 
G00 Z2.5400 
G00 X-36.8300 Y5.0800 
G01 Z-1.8000 F508.00 
G00 Z2.5400 
G00 X-33.0200 Y5.0800 
G01 Z-1.8000 F508.00 
G00 Z2.5400 
G00 X-33.0200 Y7.6200 
G01 Z-1.8000 F508.00 
G00 Z2.5400 
G00 X-33.0200 Y10.1600 
G01 Z-1.8000 F508.00 
G00 Z2.5400 
G00 X-33.0200 Y12.7000 
G01 Z-1.8000 F508.00 
G00 Z2.5400 
G00 X-33.0200 Y15.2400 
G01 Z-1.8000 F508.00 
G00 Z2.5400 
M05
G00 Z25.4000 
G00 X0.0000 Y0.0000 
M06 T03  ; 1.3208 
G01 Z0.0000 F508.00 
M06 
G00 Z2.5400 
M03
G04 P3.000000
G00 X-3.8354 Y5.0800 
G01 Z-1.8000 F508.00 
G00 Z2.5400 
G00 X-8.8646 Y5.0800 
G01 Z-1.8000 F508.00 
G00 Z2.5400 
M05
G00 Z25.4000 
G00 X0.0000 Y0.0000 
M06 T04  ; 2.8000 
G01 Z0.0000 F508.00 
M06 
G00 Z2.5400 
M03
G04 P3.000000
G00 X-2.5400 Y22.8600 
G01 Z-1.8000 F508.00 
G00 Z2.5400 
G00 X-2.5400 Y48.2600 
G01 Z-1.8000 F508.00 
G00 Z2.5400 
G00 X-48.2600 Y48.2600 
G01 Z-1.8000 F508.00 
G00 Z2.5400 
G00 X-48.2600 Y2.5400 
G01 Z-1.8000 F508.00 
G00 Z2.5400 
T01 
G00 Z12.7000 
M05
M02
