(.../pcb-gcode-3.6.2.4/pcb-gcode.ulp)
(Copyright 2005 - 2012 by John Johnson)
(See readme.txt for licensing terms.)
(This file generated from the board:)
(.../Le Cool Stick MainShield/New_Project/RC1.brd)
(Current profile is .../pcb-gcode-3.6.2.4/profiles/turbocnc.pp  )
(This file generated 03/12/2015 17:36)
(Settings from pcb-machine.h)
(spindle on time = 3.0000)
(  Tool Size)
(0.0580 )
(spindle speed = 30000.0000)
(tool change at 0.0000 0.0000 25.4000 )
(feed rate xy = F254.00 )
(feed rate z  = F254.00 )
(Z Axis Settings)
(  High     Up        Down     Drill)
(12.7000 	2.5400 	-0.0500 	-1.8000 )
(Settings from pcb-defaults.h)
(isolate min = 0.0254)
(isolate max = 1.0000)
(isolate step = 0.1270)
(Generated bottom outlines, bottom drill, )
(Unit of measure: mm)
(Metric Mode)
G21
(Absolute Coordinates)
G90
G97 S30000
G00 Z12.7000 
G00 X0.0000 Y0.0000 
M03
G04 P3.000000
G00 Z2.5400 
G00 X1.3244 Y-1.2925 
G01 Z-0.0500 F254.00 
G01 X1.2925 Y-1.3244 F254.00 
G01 X-52.0165 Y-1.3244 
G01 X-52.0484 Y-1.2925 
G01 X-52.0484 Y-1.2475 
G01 X-52.0484 Y52.0925 
G01 X-52.0165 Y52.1244 
G01 X1.2925 Y52.1244 
G01 X1.3244 Y52.0925 
G01 X1.3244 Y-1.2925 
G00 Z2.5400 
G00 X-8.2192 Y3.1234 
G01 Z-0.0500 F254.00 
G01 X-7.8986 Y3.4440 F254.00 
G01 X-7.7252 Y3.8628 
G01 X-7.7252 Y6.2972 
G01 X-7.8986 Y6.7160 
G01 X-8.0743 Y6.8917 
G01 X-8.1028 Y6.9202 
G01 X-8.1062 Y6.9236 
G01 X-8.1062 Y10.3159 
G01 X-8.2255 Y10.6040 
G01 X-8.4460 Y10.8245 
G01 X-8.7341 Y10.9438 
G01 X-12.6986 Y10.9438 
G01 X-12.7094 Y10.9393 
G01 X-12.7202 Y10.9438 
G01 X-12.7319 Y10.9438 
G01 X-12.7402 Y10.9521 
G01 X-13.0268 Y11.0708 
G01 X-14.9132 Y11.0708 
G01 X-15.1998 Y10.9521 
G01 X-15.2081 Y10.9438 
G01 X-15.2198 Y10.9438 
G01 X-15.2306 Y10.9393 
G01 X-15.2414 Y10.9438 
G01 X-16.9884 Y10.9438 
G01 X-17.0202 Y10.9757 
G01 X-17.1490 Y11.1044 
G01 X-17.5584 Y11.2740 
G01 X-18.0016 Y11.2740 
G01 X-18.4110 Y11.1044 
G01 X-18.7244 Y10.7910 
G01 X-18.8940 Y10.3816 
G01 X-18.8940 Y9.9384 
G01 X-18.7244 Y9.5290 
G01 X-18.4110 Y9.2156 
G01 X-18.0016 Y9.0460 
G01 X-17.5584 Y9.0460 
G01 X-17.1490 Y9.2156 
G01 X-16.9884 Y9.3762 
G01 X-15.2414 Y9.3762 
G01 X-15.2306 Y9.3807 
G01 X-15.2198 Y9.3762 
G01 X-15.2081 Y9.3762 
G01 X-15.1998 Y9.3679 
G01 X-14.9132 Y9.2492 
G01 X-13.0268 Y9.2492 
G01 X-12.7402 Y9.3679 
G01 X-12.7319 Y9.3762 
G01 X-12.7202 Y9.3762 
G01 X-12.7094 Y9.3807 
G01 X-12.6986 Y9.3762 
G01 X-9.7057 Y9.3762 
G01 X-9.6738 Y9.3443 
G01 X-9.6738 Y6.8728 
G01 X-9.7057 Y6.8409 
G01 X-9.8306 Y6.7160 
G01 X-10.0040 Y6.2972 
G01 X-10.0040 Y3.8628 
G01 X-9.8306 Y3.4440 
G01 X-9.5100 Y3.1234 
G01 X-9.0912 Y2.9500 
G01 X-8.6380 Y2.9500 
G01 X-8.2192 Y3.1234 
G00 Z2.5400 
G00 X-8.3169 Y3.1956 
G01 Z-0.0500 F254.00 
G01 X-8.4635 Y3.1210 F254.00 
G01 X-8.6199 Y3.0701 
G01 X-8.7824 Y3.0444 
G01 X-8.9468 Y3.0444 
G01 X-9.1093 Y3.0701 
G01 X-9.2657 Y3.1210 
G01 X-9.4123 Y3.1956 
G01 X-9.5454 Y3.2923 
G01 X-9.6617 Y3.4086 
G01 X-9.7584 Y3.5417 
G01 X-9.8330 Y3.6883 
G01 X-9.8839 Y3.8447 
G01 X-9.9096 Y4.0072 
G01 X-9.9096 Y6.1528 
G01 X-9.8839 Y6.3153 
G01 X-9.8330 Y6.4717 
G01 X-9.7584 Y6.6183 
G01 X-9.6617 Y6.7514 
G01 X-9.5794 Y6.8336 
G01 X-9.5794 Y9.4706 
G01 X-12.7703 Y9.4706 
G01 X-12.8213 Y9.4365 
G01 X-12.9699 Y9.3750 
G01 X-13.1276 Y9.3436 
G01 X-14.8124 Y9.3436 
G01 X-14.9701 Y9.3750 
G01 X-15.1187 Y9.4365 
G01 X-15.1697 Y9.4706 
G01 X-17.0275 Y9.4706 
G01 X-17.1300 Y9.3680 
G01 X-17.2970 Y9.2564 
G01 X-17.4826 Y9.1796 
G01 X-17.6796 Y9.1404 
G01 X-17.8804 Y9.1404 
G01 X-18.0774 Y9.1796 
G01 X-18.2630 Y9.2564 
G01 X-18.4300 Y9.3680 
G01 X-18.5720 Y9.5100 
G01 X-18.6836 Y9.6770 
G01 X-18.7604 Y9.8626 
G01 X-18.7996 Y10.0596 
G01 X-18.7996 Y10.2604 
G01 X-18.7604 Y10.4574 
G01 X-18.6836 Y10.6430 
G01 X-18.5720 Y10.8100 
G01 X-18.4300 Y10.9520 
G01 X-18.2630 Y11.0636 
G01 X-18.0774 Y11.1404 
G01 X-17.8804 Y11.1796 
G01 X-17.6796 Y11.1796 
G01 X-17.4826 Y11.1404 
G01 X-17.2970 Y11.0636 
G01 X-17.1300 Y10.9520 
G01 X-17.0275 Y10.8494 
G01 X-15.1697 Y10.8494 
G01 X-15.1187 Y10.8835 
G01 X-14.9701 Y10.9450 
G01 X-14.8124 Y10.9764 
G01 X-13.1276 Y10.9764 
G01 X-12.9699 Y10.9450 
G01 X-12.8213 Y10.8835 
G01 X-12.7703 Y10.8494 
G01 X-8.8221 Y10.8494 
G01 X-8.6889 Y10.8229 
G01 X-8.5634 Y10.7709 
G01 X-8.4505 Y10.6955 
G01 X-8.3545 Y10.5995 
G01 X-8.2791 Y10.4866 
G01 X-8.2271 Y10.3611 
G01 X-8.2006 Y10.2279 
G01 X-8.2006 Y6.8799 
G01 X-8.1838 Y6.8677 
G01 X-8.0675 Y6.7514 
G01 X-7.9708 Y6.6183 
G01 X-7.8962 Y6.4717 
G01 X-7.8453 Y6.3153 
G01 X-7.8196 Y6.1528 
G01 X-7.8196 Y4.0072 
G01 X-7.8453 Y3.8447 
G01 X-7.8962 Y3.6883 
G01 X-7.9708 Y3.5417 
G01 X-8.0675 Y3.4086 
G01 X-8.1838 Y3.2923 
G01 X-8.3169 Y3.1956 
G00 Z2.5400 
G00 X-12.4358 Y4.5641 
G01 Z-0.0500 F254.00 
G01 X-12.2972 Y4.8988 F254.00 
G01 X-12.2972 Y5.2612 
G01 X-12.4358 Y5.5959 
G01 X-12.6921 Y5.8522 
G01 X-13.0268 Y5.9908 
G01 X-14.9132 Y5.9908 
G01 X-15.1998 Y5.8721 
G01 X-15.2081 Y5.8638 
G01 X-15.2198 Y5.8638 
G01 X-15.2306 Y5.8593 
G01 X-15.2414 Y5.8638 
G01 X-16.9884 Y5.8638 
G01 X-17.0202 Y5.8957 
G01 X-17.1490 Y6.0244 
G01 X-17.5584 Y6.1940 
G01 X-18.0016 Y6.1940 
G01 X-18.4110 Y6.0244 
G01 X-18.7244 Y5.7110 
G01 X-18.8940 Y5.3016 
G01 X-18.8940 Y4.8584 
G01 X-18.7244 Y4.4490 
G01 X-18.4110 Y4.1356 
G01 X-18.0016 Y3.9660 
G01 X-17.5584 Y3.9660 
G01 X-17.1490 Y4.1356 
G01 X-16.9884 Y4.2962 
G01 X-15.2414 Y4.2962 
G01 X-15.2306 Y4.3007 
G01 X-15.2198 Y4.2962 
G01 X-15.2081 Y4.2962 
G01 X-15.1998 Y4.2879 
G01 X-14.9132 Y4.1692 
G01 X-13.0268 Y4.1692 
G01 X-12.6921 Y4.3078 
G01 X-12.4358 Y4.5641 
G00 Z2.5400 
G00 X-12.5739 Y4.5596 
G01 Z-0.0500 F254.00 
G01 X-12.6876 Y4.4459 F254.00 
G01 X-12.8213 Y4.3565 
G01 X-12.9699 Y4.2950 
G01 X-13.1276 Y4.2636 
G01 X-14.8124 Y4.2636 
G01 X-14.9701 Y4.2950 
G01 X-15.1187 Y4.3565 
G01 X-15.1697 Y4.3906 
G01 X-17.0275 Y4.3906 
G01 X-17.1300 Y4.2880 
G01 X-17.2970 Y4.1764 
G01 X-17.4826 Y4.0996 
G01 X-17.6796 Y4.0604 
G01 X-17.8804 Y4.0604 
G01 X-18.0774 Y4.0996 
G01 X-18.2630 Y4.1764 
G01 X-18.4300 Y4.2880 
G01 X-18.5720 Y4.4300 
G01 X-18.6836 Y4.5970 
G01 X-18.7604 Y4.7826 
G01 X-18.7996 Y4.9796 
G01 X-18.7996 Y5.1804 
G01 X-18.7604 Y5.3774 
G01 X-18.6836 Y5.5630 
G01 X-18.5720 Y5.7300 
G01 X-18.4300 Y5.8720 
G01 X-18.2630 Y5.9836 
G01 X-18.0774 Y6.0604 
G01 X-17.8804 Y6.0996 
G01 X-17.6796 Y6.0996 
G01 X-17.4826 Y6.0604 
G01 X-17.2970 Y5.9836 
G01 X-17.1300 Y5.8720 
G01 X-17.0275 Y5.7694 
G01 X-15.1697 Y5.7694 
G01 X-15.1187 Y5.8035 
G01 X-14.9701 Y5.8650 
G01 X-14.8124 Y5.8964 
G01 X-13.1276 Y5.8964 
G01 X-12.9699 Y5.8650 
G01 X-12.8213 Y5.8035 
G01 X-12.6876 Y5.7141 
G01 X-12.5739 Y5.6004 
G01 X-12.4845 Y5.4667 
G01 X-12.4230 Y5.3181 
G01 X-12.3916 Y5.1604 
G01 X-12.3916 Y4.9996 
G01 X-12.4230 Y4.8419 
G01 X-12.4845 Y4.6933 
G01 X-12.5739 Y4.5596 
G00 Z2.5400 
G00 X-12.6921 Y6.8478 
G01 Z-0.0500 F254.00 
G01 X-12.4358 Y7.1041 F254.00 
G01 X-12.2972 Y7.4388 
G01 X-12.2972 Y7.8012 
G01 X-12.4358 Y8.1359 
G01 X-12.6921 Y8.3922 
G01 X-13.0268 Y8.5308 
G01 X-14.9132 Y8.5308 
G01 X-15.1998 Y8.4121 
G01 X-15.2081 Y8.4038 
G01 X-15.2198 Y8.4038 
G01 X-15.2306 Y8.3993 
G01 X-15.2414 Y8.4038 
G01 X-16.9884 Y8.4038 
G01 X-17.0202 Y8.4357 
G01 X-17.1490 Y8.5644 
G01 X-17.5584 Y8.7340 
G01 X-18.0016 Y8.7340 
G01 X-18.4110 Y8.5644 
G01 X-18.7244 Y8.2510 
G01 X-18.8940 Y7.8416 
G01 X-18.8940 Y7.3984 
G01 X-18.7244 Y6.9890 
G01 X-18.4110 Y6.6756 
G01 X-18.0016 Y6.5060 
G01 X-17.5584 Y6.5060 
G01 X-17.1490 Y6.6756 
G01 X-16.9884 Y6.8362 
G01 X-15.2414 Y6.8362 
G01 X-15.2306 Y6.8407 
G01 X-15.2198 Y6.8362 
G01 X-15.2081 Y6.8362 
G01 X-15.1998 Y6.8279 
G01 X-14.9132 Y6.7092 
G01 X-13.0268 Y6.7092 
G01 X-12.6921 Y6.8478 
G00 Z2.5400 
G00 X-12.6876 Y6.9859 
G01 Z-0.0500 F254.00 
G01 X-12.8213 Y6.8965 F254.00 
G01 X-12.9699 Y6.8350 
G01 X-13.1276 Y6.8036 
G01 X-14.8124 Y6.8036 
G01 X-14.9701 Y6.8350 
G01 X-15.1187 Y6.8965 
G01 X-15.1697 Y6.9306 
G01 X-17.0275 Y6.9306 
G01 X-17.1300 Y6.8280 
G01 X-17.2970 Y6.7164 
G01 X-17.4826 Y6.6396 
G01 X-17.6796 Y6.6004 
G01 X-17.8804 Y6.6004 
G01 X-18.0774 Y6.6396 
G01 X-18.2630 Y6.7164 
G01 X-18.4300 Y6.8280 
G01 X-18.5720 Y6.9700 
G01 X-18.6836 Y7.1370 
G01 X-18.7604 Y7.3226 
G01 X-18.7996 Y7.5196 
G01 X-18.7996 Y7.7204 
G01 X-18.7604 Y7.9174 
G01 X-18.6836 Y8.1030 
G01 X-18.5720 Y8.2700 
G01 X-18.4300 Y8.4120 
G01 X-18.2630 Y8.5236 
G01 X-18.0774 Y8.6004 
G01 X-17.8804 Y8.6396 
G01 X-17.6796 Y8.6396 
G01 X-17.4826 Y8.6004 
G01 X-17.2970 Y8.5236 
G01 X-17.1300 Y8.4120 
G01 X-17.0275 Y8.3094 
G01 X-15.1697 Y8.3094 
G01 X-15.1187 Y8.3435 
G01 X-14.9701 Y8.4050 
G01 X-14.8124 Y8.4364 
G01 X-13.1276 Y8.4364 
G01 X-12.9699 Y8.4050 
G01 X-12.8213 Y8.3435 
G01 X-12.6876 Y8.2541 
G01 X-12.5739 Y8.1404 
G01 X-12.4845 Y8.0067 
G01 X-12.4230 Y7.8581 
G01 X-12.3916 Y7.7004 
G01 X-12.3916 Y7.5396 
G01 X-12.4230 Y7.3819 
G01 X-12.4845 Y7.2333 
G01 X-12.5739 Y7.0996 
G01 X-12.6876 Y6.9859 
G00 Z2.5400 
G00 X-12.6921 Y14.4678 
G01 Z-0.0500 F254.00 
G01 X-12.4358 Y14.7241 F254.00 
G01 X-12.2972 Y15.0588 
G01 X-12.2972 Y15.4212 
G01 X-12.4358 Y15.7559 
G01 X-12.6921 Y16.0122 
G01 X-13.0268 Y16.1508 
G01 X-14.9132 Y16.1508 
G01 X-15.1998 Y16.0321 
G01 X-15.2081 Y16.0238 
G01 X-15.2198 Y16.0238 
G01 X-15.2306 Y16.0193 
G01 X-15.2414 Y16.0238 
G01 X-16.9884 Y16.0238 
G01 X-17.0202 Y16.0557 
G01 X-17.1490 Y16.1844 
G01 X-17.5584 Y16.3540 
G01 X-18.0016 Y16.3540 
G01 X-18.4110 Y16.1844 
G01 X-18.7244 Y15.8710 
G01 X-18.8940 Y15.4616 
G01 X-18.8940 Y15.0184 
G01 X-18.7244 Y14.6090 
G01 X-18.4110 Y14.2956 
G01 X-18.0016 Y14.1260 
G01 X-17.5584 Y14.1260 
G01 X-17.1490 Y14.2956 
G01 X-16.9884 Y14.4562 
G01 X-15.2414 Y14.4562 
G01 X-15.2306 Y14.4607 
G01 X-15.2198 Y14.4562 
G01 X-15.2081 Y14.4562 
G01 X-15.1998 Y14.4479 
G01 X-14.9132 Y14.3292 
G01 X-13.0268 Y14.3292 
G01 X-12.6921 Y14.4678 
G00 Z2.5400 
G00 X-12.6876 Y14.6059 
G01 Z-0.0500 F254.00 
G01 X-12.8213 Y14.5165 F254.00 
G01 X-12.9699 Y14.4550 
G01 X-13.1276 Y14.4236 
G01 X-14.8124 Y14.4236 
G01 X-14.9701 Y14.4550 
G01 X-15.1187 Y14.5165 
G01 X-15.1697 Y14.5506 
G01 X-17.0275 Y14.5506 
G01 X-17.1300 Y14.4480 
G01 X-17.2970 Y14.3364 
G01 X-17.4826 Y14.2596 
G01 X-17.6796 Y14.2204 
G01 X-17.8804 Y14.2204 
G01 X-18.0774 Y14.2596 
G01 X-18.2630 Y14.3364 
G01 X-18.4300 Y14.4480 
G01 X-18.5720 Y14.5900 
G01 X-18.6836 Y14.7570 
G01 X-18.7604 Y14.9426 
G01 X-18.7996 Y15.1396 
G01 X-18.7996 Y15.3404 
G01 X-18.7604 Y15.5374 
G01 X-18.6836 Y15.7230 
G01 X-18.5720 Y15.8900 
G01 X-18.4300 Y16.0320 
G01 X-18.2630 Y16.1436 
G01 X-18.0774 Y16.2204 
G01 X-17.8804 Y16.2596 
G01 X-17.6796 Y16.2596 
G01 X-17.4826 Y16.2204 
G01 X-17.2970 Y16.1436 
G01 X-17.1300 Y16.0320 
G01 X-17.0275 Y15.9294 
G01 X-15.1697 Y15.9294 
G01 X-15.1187 Y15.9635 
G01 X-14.9701 Y16.0250 
G01 X-14.8124 Y16.0564 
G01 X-13.1276 Y16.0564 
G01 X-12.9699 Y16.0250 
G01 X-12.8213 Y15.9635 
G01 X-12.6876 Y15.8741 
G01 X-12.5739 Y15.7604 
G01 X-12.4845 Y15.6267 
G01 X-12.4230 Y15.4781 
G01 X-12.3916 Y15.3204 
G01 X-12.3916 Y15.1596 
G01 X-12.4230 Y15.0019 
G01 X-12.4845 Y14.8533 
G01 X-12.5739 Y14.7196 
G01 X-12.6876 Y14.6059 
G00 Z2.5400 
G00 X-12.6986 Y16.9962 
G01 Z-0.0500 F254.00 
G01 X-11.1027 Y16.9962 F254.00 
G01 X-11.0708 Y16.9643 
G01 X-11.0708 Y16.8368 
G01 X-10.9322 Y16.5021 
G01 X-10.6759 Y16.2458 
G01 X-10.3412 Y16.1072 
G01 X-9.9788 Y16.1072 
G01 X-9.6441 Y16.2458 
G01 X-9.3878 Y16.5021 
G01 X-9.2492 Y16.8368 
G01 X-9.2492 Y16.9643 
G01 X-9.2173 Y16.9962 
G01 X-8.5627 Y16.9962 
G01 X-8.5308 Y16.9643 
G01 X-8.5308 Y16.8368 
G01 X-8.3922 Y16.5021 
G01 X-8.1359 Y16.2458 
G01 X-7.8012 Y16.1072 
G01 X-7.4388 Y16.1072 
G01 X-7.1041 Y16.2458 
G01 X-6.8478 Y16.5021 
G01 X-6.7092 Y16.8368 
G01 X-6.7092 Y16.9643 
G01 X-6.6773 Y16.9962 
G01 X-6.0227 Y16.9962 
G01 X-5.9908 Y16.9643 
G01 X-5.9908 Y16.8368 
G01 X-5.8522 Y16.5021 
G01 X-5.5959 Y16.2458 
G01 X-5.2612 Y16.1072 
G01 X-4.8988 Y16.1072 
G01 X-4.5641 Y16.2458 
G01 X-4.3078 Y16.5021 
G01 X-4.1692 Y16.8368 
G01 X-4.1692 Y16.9643 
G01 X-4.1373 Y16.9962 
G01 X-3.4827 Y16.9962 
G01 X-3.4508 Y16.9643 
G01 X-3.4508 Y16.8368 
G01 X-3.3122 Y16.5021 
G01 X-3.0559 Y16.2458 
G01 X-2.7212 Y16.1072 
G01 X-2.3588 Y16.1072 
G01 X-2.0241 Y16.2458 
G01 X-1.7678 Y16.5021 
G01 X-1.6292 Y16.8368 
G01 X-1.6292 Y18.7232 
G01 X-1.7678 Y19.0579 
G01 X-2.0241 Y19.3142 
G01 X-2.0273 Y19.3155 
G01 X-2.0316 Y19.3144 
G01 X-2.0476 Y19.3239 
G01 X-2.0648 Y19.3310 
G01 X-2.0665 Y19.3352 
G01 X-2.0703 Y19.3375 
G01 X-2.0749 Y19.3555 
G01 X-2.0820 Y19.3726 
G01 X-2.0803 Y19.3768 
G01 X-2.0814 Y19.3811 
G01 X-2.0719 Y19.3971 
G01 X-2.0648 Y19.4143 
G01 X-2.0606 Y19.4160 
G01 X-2.0583 Y19.4199 
G01 X-2.0403 Y19.4244 
G01 X-2.0231 Y19.4315 
G01 X-2.0190 Y19.4298 
G01 X-1.1394 Y19.6525 
G01 X-1.1341 Y19.6579 
G01 X-1.1278 Y19.6579 
G01 X-0.1689 Y20.2843 
G01 X0.5389 Y21.1938 
G01 X0.9131 Y22.2838 
G01 X0.9131 Y23.4362 
G01 X0.5389 Y24.5262 
G01 X-0.1689 Y25.4357 
G01 X-1.1278 Y26.0621 
G01 X-1.1341 Y26.0621 
G01 X-1.1394 Y26.0674 
G01 X-2.2509 Y26.3489 
G01 X-3.3886 Y26.2546 
G01 X-3.4015 Y26.2528 
G01 X-4.4537 Y25.7913 
G01 X-4.4624 Y25.7826 
G01 X-5.3027 Y25.0103 
G01 X-5.8489 Y24.0009 
G01 X-5.8489 Y23.9921 
G01 X-5.8526 Y23.9885 
G01 X-6.0409 Y22.8600 
G01 X-5.8526 Y21.7315 
G01 X-5.8489 Y21.7279 
G01 X-5.8489 Y21.7191 
G01 X-5.3027 Y20.7097 
G01 X-4.4637 Y19.9374 
G01 X-4.4537 Y19.9287 
G01 X-3.4015 Y19.4672 
G01 X-3.3904 Y19.4672 
G01 X-3.0441 Y19.4368 
G01 X-3.0355 Y19.4404 
G01 X-3.0225 Y19.4350 
G01 X-3.0085 Y19.4339 
G01 X-3.0025 Y19.4267 
G01 X-2.9938 Y19.4231 
G01 X-2.9884 Y19.4102 
G01 X-2.9794 Y19.3995 
G01 X-2.9802 Y19.3902 
G01 X-2.9766 Y19.3815 
G01 X-2.9819 Y19.3685 
G01 X-2.9831 Y19.3546 
G01 X-2.9902 Y19.3485 
G01 X-2.9938 Y19.3399 
G01 X-3.0068 Y19.3345 
G01 X-3.0175 Y19.3254 
G01 X-3.0268 Y19.3262 
G01 X-3.0559 Y19.3142 
G01 X-3.3122 Y19.0579 
G01 X-3.4508 Y18.7232 
G01 X-3.4508 Y18.5957 
G01 X-3.4827 Y18.5638 
G01 X-4.1373 Y18.5638 
G01 X-4.1692 Y18.5957 
G01 X-4.1692 Y18.7232 
G01 X-4.3078 Y19.0579 
G01 X-4.5641 Y19.3142 
G01 X-4.8988 Y19.4528 
G01 X-5.2612 Y19.4528 
G01 X-5.5959 Y19.3142 
G01 X-5.8522 Y19.0579 
G01 X-5.9908 Y18.7232 
G01 X-5.9908 Y18.5957 
G01 X-6.0227 Y18.5638 
G01 X-6.6773 Y18.5638 
G01 X-6.7092 Y18.5957 
G01 X-6.7092 Y18.7232 
G01 X-6.8279 Y19.0098 
G01 X-6.8362 Y19.0181 
G01 X-6.8362 Y19.0298 
G01 X-6.8407 Y19.0406 
G01 X-6.8362 Y19.0514 
G01 X-6.8362 Y25.8543 
G01 X-6.8043 Y25.8862 
G01 X-5.1941 Y25.8862 
G01 X-4.9060 Y26.0055 
G01 X-4.6855 Y26.2260 
G01 X-4.5662 Y26.5141 
G01 X-4.5662 Y32.7928 
G01 X-4.5707 Y32.8036 
G01 X-4.5662 Y32.8144 
G01 X-4.5662 Y32.8261 
G01 X-4.5579 Y32.8344 
G01 X-4.5472 Y32.8603 
G01 X-4.5472 Y33.1797 
G01 X-4.6694 Y33.4748 
G01 X-4.8952 Y33.7006 
G01 X-5.1903 Y33.8228 
G01 X-5.5097 Y33.8228 
G01 X-5.8048 Y33.7006 
G01 X-6.0306 Y33.4748 
G01 X-6.1528 Y33.1797 
G01 X-6.1528 Y32.8603 
G01 X-6.1421 Y32.8344 
G01 X-6.1338 Y32.8261 
G01 X-6.1338 Y32.8144 
G01 X-6.1293 Y32.8036 
G01 X-6.1338 Y32.7928 
G01 X-6.1338 Y27.4857 
G01 X-6.1657 Y27.4538 
G01 X-6.2107 Y27.4538 
G01 X-7.7759 Y27.4538 
G01 X-8.0640 Y27.3345 
G01 X-8.2845 Y27.1140 
G01 X-8.4038 Y26.8259 
G01 X-8.4038 Y19.0514 
G01 X-8.3993 Y19.0406 
G01 X-8.4038 Y19.0298 
G01 X-8.4038 Y19.0181 
G01 X-8.4121 Y19.0098 
G01 X-8.5308 Y18.7232 
G01 X-8.5308 Y18.5957 
G01 X-8.5627 Y18.5638 
G01 X-9.2173 Y18.5638 
G01 X-9.2492 Y18.5957 
G01 X-9.2492 Y18.7232 
G01 X-9.3878 Y19.0579 
G01 X-9.6441 Y19.3142 
G01 X-9.9788 Y19.4528 
G01 X-10.3412 Y19.4528 
G01 X-10.6759 Y19.3142 
G01 X-10.9322 Y19.0579 
G01 X-11.0708 Y18.7232 
G01 X-11.0708 Y18.5957 
G01 X-11.1027 Y18.5638 
G01 X-12.6986 Y18.5638 
G01 X-12.7094 Y18.5593 
G01 X-12.7202 Y18.5638 
G01 X-12.7319 Y18.5638 
G01 X-12.7402 Y18.5721 
G01 X-13.0268 Y18.6908 
G01 X-14.9132 Y18.6908 
G01 X-15.1998 Y18.5721 
G01 X-15.2081 Y18.5638 
G01 X-15.2198 Y18.5638 
G01 X-15.2306 Y18.5593 
G01 X-15.2414 Y18.5638 
G01 X-16.9884 Y18.5638 
G01 X-17.0202 Y18.5957 
G01 X-17.1490 Y18.7244 
G01 X-17.5584 Y18.8940 
G01 X-18.0016 Y18.8940 
G01 X-18.4110 Y18.7244 
G01 X-18.5716 Y18.5638 
G01 X-20.4759 Y18.5638 
G01 X-20.7640 Y18.4445 
G01 X-20.9845 Y18.2240 
G01 X-21.1038 Y17.9359 
G01 X-21.1038 Y3.3557 
G01 X-21.1357 Y3.3238 
G01 X-25.5843 Y3.3238 
G01 X-25.6162 Y3.3557 
G01 X-25.6162 Y7.3928 
G01 X-25.6207 Y7.4036 
G01 X-25.6162 Y7.4144 
G01 X-25.6162 Y7.4261 
G01 X-25.6079 Y7.4344 
G01 X-25.5972 Y7.4603 
G01 X-25.5972 Y7.7797 
G01 X-25.7194 Y8.0748 
G01 X-25.9452 Y8.3006 
G01 X-26.2403 Y8.4228 
G01 X-26.5597 Y8.4228 
G01 X-26.8548 Y8.3006 
G01 X-27.0806 Y8.0748 
G01 X-27.2028 Y7.7797 
G01 X-27.2028 Y7.4603 
G01 X-27.1921 Y7.4344 
G01 X-27.1838 Y7.4261 
G01 X-27.1838 Y7.4144 
G01 X-27.1793 Y7.4036 
G01 X-27.1838 Y7.3928 
G01 X-27.1838 Y3.3557 
G01 X-27.2157 Y3.3238 
G01 X-39.8243 Y3.3238 
G01 X-39.8562 Y3.3557 
G01 X-39.8562 Y7.8059 
G01 X-39.9755 Y8.0940 
G01 X-40.1960 Y8.3145 
G01 X-40.4841 Y8.4338 
G01 X-44.6343 Y8.4338 
G01 X-44.6662 Y8.4657 
G01 X-44.6662 Y12.4728 
G01 X-44.6707 Y12.4836 
G01 X-44.6662 Y12.4944 
G01 X-44.6662 Y12.5061 
G01 X-44.6579 Y12.5144 
G01 X-44.6472 Y12.5403 
G01 X-44.6472 Y12.8597 
G01 X-44.6579 Y12.8856 
G01 X-44.6662 Y12.8938 
G01 X-44.6662 Y12.9056 
G01 X-44.6707 Y12.9164 
G01 X-44.6662 Y12.9272 
G01 X-44.6662 Y35.3328 
G01 X-44.6707 Y35.3436 
G01 X-44.6662 Y35.3544 
G01 X-44.6662 Y35.3661 
G01 X-44.6579 Y35.3744 
G01 X-44.6472 Y35.4003 
G01 X-44.6472 Y35.7197 
G01 X-44.7694 Y36.0148 
G01 X-44.9952 Y36.2406 
G01 X-45.2903 Y36.3628 
G01 X-45.6097 Y36.3628 
G01 X-45.9048 Y36.2406 
G01 X-46.1306 Y36.0148 
G01 X-46.2528 Y35.7197 
G01 X-46.2528 Y35.4003 
G01 X-46.2421 Y35.3744 
G01 X-46.2338 Y35.3661 
G01 X-46.2338 Y35.3544 
G01 X-46.2293 Y35.3436 
G01 X-46.2338 Y35.3328 
G01 X-46.2338 Y12.9272 
G01 X-46.2293 Y12.9164 
G01 X-46.2338 Y12.9056 
G01 X-46.2338 Y12.8938 
G01 X-46.2421 Y12.8856 
G01 X-46.2528 Y12.8597 
G01 X-46.2528 Y12.5403 
G01 X-46.2421 Y12.5144 
G01 X-46.2338 Y12.5061 
G01 X-46.2338 Y12.4944 
G01 X-46.2293 Y12.4836 
G01 X-46.2338 Y12.4728 
G01 X-46.2338 Y7.4941 
G01 X-46.1145 Y7.2060 
G01 X-45.8940 Y6.9855 
G01 X-45.6059 Y6.8662 
G01 X-41.4557 Y6.8662 
G01 X-41.4238 Y6.8343 
G01 X-41.4238 Y2.3841 
G01 X-41.3045 Y2.0960 
G01 X-41.0840 Y1.8755 
G01 X-40.7959 Y1.7562 
G01 X-20.1641 Y1.7562 
G01 X-19.8760 Y1.8755 
G01 X-19.6555 Y2.0960 
G01 X-19.5362 Y2.3841 
G01 X-19.5362 Y16.9643 
G01 X-19.5043 Y16.9962 
G01 X-18.5716 Y16.9962 
G01 X-18.5398 Y16.9643 
G01 X-18.4110 Y16.8356 
G01 X-18.0016 Y16.6660 
G01 X-17.5584 Y16.6660 
G01 X-17.1490 Y16.8356 
G01 X-16.9884 Y16.9962 
G01 X-15.2414 Y16.9962 
G01 X-15.2306 Y17.0007 
G01 X-15.2198 Y16.9962 
G01 X-15.2081 Y16.9962 
G01 X-15.1998 Y16.9879 
G01 X-14.9132 Y16.8692 
G01 X-13.0268 Y16.8692 
G01 X-12.7402 Y16.9879 
G01 X-12.7319 Y16.9962 
G01 X-12.7202 Y16.9962 
G01 X-12.7094 Y17.0007 
G01 X-12.6986 Y16.9962 
G00 Z2.5400 
G00 X-12.7703 Y17.0906 
G01 Z-0.0500 F254.00 
G01 X-12.8213 Y17.0565 F254.00 
G01 X-12.9699 Y16.9950 
G01 X-13.1276 Y16.9636 
G01 X-14.8124 Y16.9636 
G01 X-14.9701 Y16.9950 
G01 X-15.1187 Y17.0565 
G01 X-15.1697 Y17.0906 
G01 X-17.0275 Y17.0906 
G01 X-17.1300 Y16.9880 
G01 X-17.2970 Y16.8764 
G01 X-17.4826 Y16.7996 
G01 X-17.6796 Y16.7604 
G01 X-17.8804 Y16.7604 
G01 X-18.0774 Y16.7996 
G01 X-18.2630 Y16.8764 
G01 X-18.4300 Y16.9880 
G01 X-18.5325 Y17.0906 
G01 X-19.6306 Y17.0906 
G01 X-19.6306 Y2.4721 
G01 X-19.6571 Y2.3389 
G01 X-19.7091 Y2.2134 
G01 X-19.7845 Y2.1005 
G01 X-19.8805 Y2.0045 
G01 X-19.9934 Y1.9291 
G01 X-20.1189 Y1.8771 
G01 X-20.2521 Y1.8506 
G01 X-40.7079 Y1.8506 
G01 X-40.8411 Y1.8771 
G01 X-40.9666 Y1.9291 
G01 X-41.0795 Y2.0045 
G01 X-41.1755 Y2.1005 
G01 X-41.2509 Y2.2134 
G01 X-41.3029 Y2.3389 
G01 X-41.3294 Y2.4721 
G01 X-41.3294 Y6.9606 
G01 X-45.5179 Y6.9606 
G01 X-45.6511 Y6.9871 
G01 X-45.7766 Y7.0391 
G01 X-45.8895 Y7.1145 
G01 X-45.9855 Y7.2105 
G01 X-46.0609 Y7.3234 
G01 X-46.1129 Y7.4489 
G01 X-46.1394 Y7.5821 
G01 X-46.1394 Y12.5347 
G01 X-46.1584 Y12.6302 
G01 X-46.1584 Y12.7698 
G01 X-46.1394 Y12.8653 
G01 X-46.1394 Y35.3947 
G01 X-46.1584 Y35.4902 
G01 X-46.1584 Y35.6298 
G01 X-46.1312 Y35.7666 
G01 X-46.0778 Y35.8956 
G01 X-46.0002 Y36.0116 
G01 X-45.9016 Y36.1102 
G01 X-45.7856 Y36.1878 
G01 X-45.6566 Y36.2412 
G01 X-45.5198 Y36.2684 
G01 X-45.3802 Y36.2684 
G01 X-45.2434 Y36.2412 
G01 X-45.1144 Y36.1878 
G01 X-44.9984 Y36.1102 
G01 X-44.8997 Y36.0116 
G01 X-44.8222 Y35.8956 
G01 X-44.7688 Y35.7666 
G01 X-44.7416 Y35.6298 
G01 X-44.7416 Y35.4902 
G01 X-44.7606 Y35.3947 
G01 X-44.7606 Y12.8653 
G01 X-44.7416 Y12.7698 
G01 X-44.7416 Y12.6302 
G01 X-44.7606 Y12.5347 
G01 X-44.7606 Y8.3394 
G01 X-40.5721 Y8.3394 
G01 X-40.4389 Y8.3129 
G01 X-40.3134 Y8.2609 
G01 X-40.2005 Y8.1855 
G01 X-40.1045 Y8.0895 
G01 X-40.0291 Y7.9766 
G01 X-39.9771 Y7.8511 
G01 X-39.9506 Y7.7179 
G01 X-39.9506 Y3.2294 
G01 X-27.0894 Y3.2294 
G01 X-27.0894 Y7.4547 
G01 X-27.1084 Y7.5502 
G01 X-27.1084 Y7.6898 
G01 X-27.0812 Y7.8266 
G01 X-27.0278 Y7.9556 
G01 X-26.9502 Y8.0716 
G01 X-26.8516 Y8.1702 
G01 X-26.7356 Y8.2478 
G01 X-26.6066 Y8.3012 
G01 X-26.4698 Y8.3284 
G01 X-26.3302 Y8.3284 
G01 X-26.1934 Y8.3012 
G01 X-26.0644 Y8.2478 
G01 X-25.9484 Y8.1702 
G01 X-25.8498 Y8.0716 
G01 X-25.7722 Y7.9556 
G01 X-25.7188 Y7.8266 
G01 X-25.6916 Y7.6898 
G01 X-25.6916 Y7.5502 
G01 X-25.7106 Y7.4547 
G01 X-25.7106 Y3.2294 
G01 X-21.0094 Y3.2294 
G01 X-21.0094 Y17.8479 
G01 X-20.9829 Y17.9811 
G01 X-20.9309 Y18.1066 
G01 X-20.8555 Y18.2195 
G01 X-20.7595 Y18.3155 
G01 X-20.6466 Y18.3909 
G01 X-20.5211 Y18.4429 
G01 X-20.3879 Y18.4694 
G01 X-18.5325 Y18.4694 
G01 X-18.4300 Y18.5720 
G01 X-18.2630 Y18.6836 
G01 X-18.0774 Y18.7604 
G01 X-17.8804 Y18.7996 
G01 X-17.6796 Y18.7996 
G01 X-17.4826 Y18.7604 
G01 X-17.2970 Y18.6836 
G01 X-17.1300 Y18.5720 
G01 X-17.0275 Y18.4694 
G01 X-15.1697 Y18.4694 
G01 X-15.1187 Y18.5035 
G01 X-14.9701 Y18.5650 
G01 X-14.8124 Y18.5964 
G01 X-13.1276 Y18.5964 
G01 X-12.9699 Y18.5650 
G01 X-12.8213 Y18.5035 
G01 X-12.7703 Y18.4694 
G01 X-10.9764 Y18.4694 
G01 X-10.9764 Y18.6224 
G01 X-10.9450 Y18.7801 
G01 X-10.8835 Y18.9287 
G01 X-10.7941 Y19.0624 
G01 X-10.6804 Y19.1761 
G01 X-10.5467 Y19.2655 
G01 X-10.3981 Y19.3270 
G01 X-10.2404 Y19.3584 
G01 X-10.0796 Y19.3584 
G01 X-9.9219 Y19.3270 
G01 X-9.7733 Y19.2655 
G01 X-9.6396 Y19.1761 
G01 X-9.5259 Y19.0624 
G01 X-9.4365 Y18.9287 
G01 X-9.3750 Y18.7801 
G01 X-9.3436 Y18.6224 
G01 X-9.3436 Y18.4694 
G01 X-8.4364 Y18.4694 
G01 X-8.4364 Y18.6224 
G01 X-8.4050 Y18.7801 
G01 X-8.3435 Y18.9287 
G01 X-8.3094 Y18.9797 
G01 X-8.3094 Y26.7379 
G01 X-8.2829 Y26.8711 
G01 X-8.2309 Y26.9966 
G01 X-8.1555 Y27.1095 
G01 X-8.0595 Y27.2055 
G01 X-7.9466 Y27.2809 
G01 X-7.8211 Y27.3329 
G01 X-7.6879 Y27.3594 
G01 X-6.0394 Y27.3594 
G01 X-6.0394 Y32.8547 
G01 X-6.0584 Y32.9502 
G01 X-6.0584 Y33.0898 
G01 X-6.0312 Y33.2266 
G01 X-5.9778 Y33.3556 
G01 X-5.9002 Y33.4716 
G01 X-5.8016 Y33.5702 
G01 X-5.6856 Y33.6478 
G01 X-5.5566 Y33.7012 
G01 X-5.4198 Y33.7284 
G01 X-5.2802 Y33.7284 
G01 X-5.1434 Y33.7012 
G01 X-5.0144 Y33.6478 
G01 X-4.8984 Y33.5702 
G01 X-4.7998 Y33.4716 
G01 X-4.7222 Y33.3556 
G01 X-4.6688 Y33.2266 
G01 X-4.6416 Y33.0898 
G01 X-4.6416 Y32.9502 
G01 X-4.6606 Y32.8547 
G01 X-4.6606 Y26.6021 
G01 X-4.6871 Y26.4689 
G01 X-4.7391 Y26.3434 
G01 X-4.8145 Y26.2305 
G01 X-4.9105 Y26.1345 
G01 X-5.0234 Y26.0591 
G01 X-5.1489 Y26.0071 
G01 X-5.2821 Y25.9806 
G01 X-6.9306 Y25.9806 
G01 X-6.9306 Y18.9797 
G01 X-6.8965 Y18.9287 
G01 X-6.8350 Y18.7801 
G01 X-6.8036 Y18.6224 
G01 X-6.8036 Y18.4694 
G01 X-5.8964 Y18.4694 
G01 X-5.8964 Y18.6224 
G01 X-5.8650 Y18.7801 
G01 X-5.8035 Y18.9287 
G01 X-5.7141 Y19.0624 
G01 X-5.6004 Y19.1761 
G01 X-5.4667 Y19.2655 
G01 X-5.3181 Y19.3270 
G01 X-5.1604 Y19.3584 
G01 X-4.9996 Y19.3584 
G01 X-4.8419 Y19.3270 
G01 X-4.6933 Y19.2655 
G01 X-4.5596 Y19.1761 
G01 X-4.4459 Y19.0624 
G01 X-4.3565 Y18.9287 
G01 X-4.2950 Y18.7801 
G01 X-4.2636 Y18.6224 
G01 X-4.2636 Y18.4694 
G01 X-3.3564 Y18.4694 
G01 X-3.3564 Y18.6224 
G01 X-3.3250 Y18.7801 
G01 X-3.2635 Y18.9287 
G01 X-3.1741 Y19.0624 
G01 X-3.0604 Y19.1761 
G01 X-2.9267 Y19.2655 
G01 X-2.7781 Y19.3270 
G01 X-2.6204 Y19.3584 
G01 X-2.4596 Y19.3584 
G01 X-2.3019 Y19.3270 
G01 X-2.1533 Y19.2655 
G01 X-2.0196 Y19.1761 
G01 X-1.9059 Y19.0624 
G01 X-1.8165 Y18.9287 
G01 X-1.7550 Y18.7801 
G01 X-1.7236 Y18.6224 
G01 X-1.7236 Y16.9376 
G01 X-1.7550 Y16.7799 
G01 X-1.8165 Y16.6313 
G01 X-1.9059 Y16.4976 
G01 X-2.0196 Y16.3839 
G01 X-2.1533 Y16.2945 
G01 X-2.3019 Y16.2330 
G01 X-2.4596 Y16.2016 
G01 X-2.6204 Y16.2016 
G01 X-2.7781 Y16.2330 
G01 X-2.9267 Y16.2945 
G01 X-3.0604 Y16.3839 
G01 X-3.1741 Y16.4976 
G01 X-3.2635 Y16.6313 
G01 X-3.3250 Y16.7799 
G01 X-3.3564 Y16.9376 
G01 X-3.3564 Y17.0906 
G01 X-4.2636 Y17.0906 
G01 X-4.2636 Y16.9376 
G01 X-4.2950 Y16.7799 
G01 X-4.3565 Y16.6313 
G01 X-4.4459 Y16.4976 
G01 X-4.5596 Y16.3839 
G01 X-4.6933 Y16.2945 
G01 X-4.8419 Y16.2330 
G01 X-4.9996 Y16.2016 
G01 X-5.1604 Y16.2016 
G01 X-5.3181 Y16.2330 
G01 X-5.4667 Y16.2945 
G01 X-5.6004 Y16.3839 
G01 X-5.7141 Y16.4976 
G01 X-5.8035 Y16.6313 
G01 X-5.8650 Y16.7799 
G01 X-5.8964 Y16.9376 
G01 X-5.8964 Y17.0906 
G01 X-6.8036 Y17.0906 
G01 X-6.8036 Y16.9376 
G01 X-6.8350 Y16.7799 
G01 X-6.8965 Y16.6313 
G01 X-6.9859 Y16.4976 
G01 X-7.0996 Y16.3839 
G01 X-7.2333 Y16.2945 
G01 X-7.3819 Y16.2330 
G01 X-7.5396 Y16.2016 
G01 X-7.7004 Y16.2016 
G01 X-7.8581 Y16.2330 
G01 X-8.0067 Y16.2945 
G01 X-8.1404 Y16.3839 
G01 X-8.2541 Y16.4976 
G01 X-8.3435 Y16.6313 
G01 X-8.4050 Y16.7799 
G01 X-8.4364 Y16.9376 
G01 X-8.4364 Y17.0906 
G01 X-9.3436 Y17.0906 
G01 X-9.3436 Y16.9376 
G01 X-9.3750 Y16.7799 
G01 X-9.4365 Y16.6313 
G01 X-9.5259 Y16.4976 
G01 X-9.6396 Y16.3839 
G01 X-9.7733 Y16.2945 
G01 X-9.9219 Y16.2330 
G01 X-10.0796 Y16.2016 
G01 X-10.2404 Y16.2016 
G01 X-10.3981 Y16.2330 
G01 X-10.5467 Y16.2945 
G01 X-10.6804 Y16.3839 
G01 X-10.7941 Y16.4976 
G01 X-10.8835 Y16.6313 
G01 X-10.9450 Y16.7799 
G01 X-10.9764 Y16.9376 
G01 X-10.9764 Y17.0906 
G01 X-12.7703 Y17.0906 
G00 Z2.5400 
G00 X-12.6921 Y19.5478 
G01 Z-0.0500 F254.00 
G01 X-12.4358 Y19.8041 F254.00 
G01 X-12.2972 Y20.1388 
G01 X-12.2972 Y20.5012 
G01 X-12.4358 Y20.8359 
G01 X-12.6921 Y21.0922 
G01 X-13.0268 Y21.2308 
G01 X-14.9132 Y21.2308 
G01 X-15.1998 Y21.1121 
G01 X-15.2081 Y21.1038 
G01 X-15.2198 Y21.1038 
G01 X-15.2306 Y21.0993 
G01 X-15.2414 Y21.1038 
G01 X-16.9884 Y21.1038 
G01 X-17.0202 Y21.1357 
G01 X-17.1490 Y21.2644 
G01 X-17.5584 Y21.4340 
G01 X-18.0016 Y21.4340 
G01 X-18.4110 Y21.2644 
G01 X-18.7244 Y20.9510 
G01 X-18.8940 Y20.5416 
G01 X-18.8940 Y20.0984 
G01 X-18.7244 Y19.6890 
G01 X-18.4110 Y19.3756 
G01 X-18.0016 Y19.2060 
G01 X-17.5584 Y19.2060 
G01 X-17.1490 Y19.3756 
G01 X-17.0202 Y19.5043 
G01 X-16.9910 Y19.5335 
G01 X-16.9884 Y19.5362 
G01 X-15.2414 Y19.5362 
G01 X-15.2306 Y19.5407 
G01 X-15.2198 Y19.5362 
G01 X-15.2081 Y19.5362 
G01 X-15.1998 Y19.5279 
G01 X-14.9132 Y19.4092 
G01 X-13.0268 Y19.4092 
G01 X-12.6921 Y19.5478 
G00 Z2.5400 
G00 X-12.6876 Y19.6859 
G01 Z-0.0500 F254.00 
G01 X-12.8213 Y19.5965 F254.00 
G01 X-12.9699 Y19.5350 
G01 X-13.1276 Y19.5036 
G01 X-14.8124 Y19.5036 
G01 X-14.9701 Y19.5350 
G01 X-15.1187 Y19.5965 
G01 X-15.1697 Y19.6306 
G01 X-17.0275 Y19.6306 
G01 X-17.1300 Y19.5280 
G01 X-17.2970 Y19.4164 
G01 X-17.4826 Y19.3396 
G01 X-17.6796 Y19.3004 
G01 X-17.8804 Y19.3004 
G01 X-18.0774 Y19.3396 
G01 X-18.2630 Y19.4164 
G01 X-18.4300 Y19.5280 
G01 X-18.5720 Y19.6700 
G01 X-18.6836 Y19.8370 
G01 X-18.7604 Y20.0226 
G01 X-18.7996 Y20.2196 
G01 X-18.7996 Y20.4204 
G01 X-18.7604 Y20.6174 
G01 X-18.6836 Y20.8030 
G01 X-18.5720 Y20.9700 
G01 X-18.4300 Y21.1120 
G01 X-18.2630 Y21.2236 
G01 X-18.0774 Y21.3004 
G01 X-17.8804 Y21.3396 
G01 X-17.6796 Y21.3396 
G01 X-17.4826 Y21.3004 
G01 X-17.2970 Y21.2236 
G01 X-17.1300 Y21.1120 
G01 X-17.0275 Y21.0094 
G01 X-15.1697 Y21.0094 
G01 X-15.1187 Y21.0435 
G01 X-14.9701 Y21.1050 
G01 X-14.8124 Y21.1364 
G01 X-13.1276 Y21.1364 
G01 X-12.9699 Y21.1050 
G01 X-12.8213 Y21.0435 
G01 X-12.6876 Y20.9541 
G01 X-12.5739 Y20.8404 
G01 X-12.4845 Y20.7067 
G01 X-12.4230 Y20.5581 
G01 X-12.3916 Y20.4004 
G01 X-12.3916 Y20.2396 
G01 X-12.4230 Y20.0819 
G01 X-12.4845 Y19.9333 
G01 X-12.5739 Y19.7996 
G01 X-12.6876 Y19.6859 
G00 Z2.5400 
G00 X-12.6921 Y22.0878 
G01 Z-0.0500 F254.00 
G01 X-12.4358 Y22.3441 F254.00 
G01 X-12.2972 Y22.6788 
G01 X-12.2972 Y23.0412 
G01 X-12.4358 Y23.3759 
G01 X-12.6921 Y23.6322 
G01 X-13.0268 Y23.7708 
G01 X-14.9132 Y23.7708 
G01 X-15.1998 Y23.6521 
G01 X-15.2081 Y23.6438 
G01 X-15.2198 Y23.6438 
G01 X-15.2306 Y23.6393 
G01 X-15.2414 Y23.6438 
G01 X-16.9884 Y23.6438 
G01 X-17.0202 Y23.6757 
G01 X-17.1490 Y23.8044 
G01 X-17.5584 Y23.9740 
G01 X-18.0016 Y23.9740 
G01 X-18.4110 Y23.8044 
G01 X-18.7244 Y23.4910 
G01 X-18.8940 Y23.0816 
G01 X-18.8940 Y22.6384 
G01 X-18.7244 Y22.2290 
G01 X-18.4110 Y21.9156 
G01 X-18.0016 Y21.7460 
G01 X-17.5584 Y21.7460 
G01 X-17.1490 Y21.9156 
G01 X-16.9884 Y22.0762 
G01 X-15.2414 Y22.0762 
G01 X-15.2306 Y22.0807 
G01 X-15.2198 Y22.0762 
G01 X-15.2081 Y22.0762 
G01 X-15.1998 Y22.0679 
G01 X-14.9132 Y21.9492 
G01 X-13.0268 Y21.9492 
G01 X-12.6921 Y22.0878 
G00 Z2.5400 
G00 X-12.6876 Y22.2259 
G01 Z-0.0500 F254.00 
G01 X-12.8213 Y22.1365 F254.00 
G01 X-12.9699 Y22.0750 
G01 X-13.1276 Y22.0436 
G01 X-14.8124 Y22.0436 
G01 X-14.9701 Y22.0750 
G01 X-15.1187 Y22.1365 
G01 X-15.1697 Y22.1706 
G01 X-17.0275 Y22.1706 
G01 X-17.1300 Y22.0680 
G01 X-17.2970 Y21.9564 
G01 X-17.4826 Y21.8796 
G01 X-17.6796 Y21.8404 
G01 X-17.8804 Y21.8404 
G01 X-18.0774 Y21.8796 
G01 X-18.2630 Y21.9564 
G01 X-18.4300 Y22.0680 
G01 X-18.5720 Y22.2100 
G01 X-18.6836 Y22.3770 
G01 X-18.7604 Y22.5626 
G01 X-18.7996 Y22.7596 
G01 X-18.7996 Y22.9604 
G01 X-18.7604 Y23.1574 
G01 X-18.6836 Y23.3430 
G01 X-18.5720 Y23.5100 
G01 X-18.4300 Y23.6520 
G01 X-18.2630 Y23.7636 
G01 X-18.0774 Y23.8404 
G01 X-17.8804 Y23.8796 
G01 X-17.6796 Y23.8796 
G01 X-17.4826 Y23.8404 
G01 X-17.2970 Y23.7636 
G01 X-17.1300 Y23.6520 
G01 X-17.0275 Y23.5494 
G01 X-15.1697 Y23.5494 
G01 X-15.1187 Y23.5835 
G01 X-14.9701 Y23.6450 
G01 X-14.8124 Y23.6764 
G01 X-13.1276 Y23.6764 
G01 X-12.9699 Y23.6450 
G01 X-12.8213 Y23.5835 
G01 X-12.6876 Y23.4941 
G01 X-12.5739 Y23.3804 
G01 X-12.4845 Y23.2467 
G01 X-12.4230 Y23.0981 
G01 X-12.3916 Y22.9404 
G01 X-12.3916 Y22.7796 
G01 X-12.4230 Y22.6219 
G01 X-12.4845 Y22.4733 
G01 X-12.5739 Y22.3396 
G01 X-12.6876 Y22.2259 
G00 Z2.5400 
G00 X-12.6921 Y24.6278 
G01 Z-0.0500 F254.00 
G01 X-12.4358 Y24.8841 F254.00 
G01 X-12.2972 Y25.2188 
G01 X-12.2972 Y25.5812 
G01 X-12.4358 Y25.9159 
G01 X-12.6921 Y26.1722 
G01 X-13.0268 Y26.3108 
G01 X-14.9132 Y26.3108 
G01 X-15.1998 Y26.1921 
G01 X-15.2081 Y26.1838 
G01 X-15.2198 Y26.1838 
G01 X-15.2306 Y26.1793 
G01 X-15.2414 Y26.1838 
G01 X-16.9884 Y26.1838 
G01 X-17.0202 Y26.2157 
G01 X-17.1490 Y26.3444 
G01 X-17.5584 Y26.5140 
G01 X-18.0016 Y26.5140 
G01 X-18.4110 Y26.3444 
G01 X-18.5398 Y26.2157 
G01 X-18.5690 Y26.1865 
G01 X-18.5716 Y26.1838 
G01 X-22.5559 Y26.1838 
G01 X-22.8440 Y26.0645 
G01 X-23.0645 Y25.8440 
G01 X-23.1838 Y25.5559 
G01 X-23.1838 Y7.8472 
G01 X-23.1793 Y7.8364 
G01 X-23.1838 Y7.8256 
G01 X-23.1838 Y7.8138 
G01 X-23.1921 Y7.8056 
G01 X-23.2028 Y7.7797 
G01 X-23.2028 Y7.4603 
G01 X-23.0806 Y7.1652 
G01 X-22.8548 Y6.9394 
G01 X-22.5597 Y6.8172 
G01 X-22.2403 Y6.8172 
G01 X-21.9452 Y6.9394 
G01 X-21.7194 Y7.1652 
G01 X-21.5972 Y7.4603 
G01 X-21.5972 Y7.7797 
G01 X-21.6079 Y7.8056 
G01 X-21.6162 Y7.8138 
G01 X-21.6162 Y7.8256 
G01 X-21.6207 Y7.8364 
G01 X-21.6162 Y7.8472 
G01 X-21.6162 Y24.5843 
G01 X-21.5843 Y24.6162 
G01 X-18.5716 Y24.6162 
G01 X-18.5398 Y24.5843 
G01 X-18.4110 Y24.4556 
G01 X-18.0016 Y24.2860 
G01 X-17.5584 Y24.2860 
G01 X-17.1490 Y24.4556 
G01 X-17.0202 Y24.5843 
G01 X-16.9910 Y24.6135 
G01 X-16.9884 Y24.6162 
G01 X-15.2414 Y24.6162 
G01 X-15.2306 Y24.6207 
G01 X-15.2198 Y24.6162 
G01 X-15.2081 Y24.6162 
G01 X-15.1998 Y24.6079 
G01 X-14.9132 Y24.4892 
G01 X-13.0268 Y24.4892 
G01 X-12.6921 Y24.6278 
G00 Z2.5400 
G00 X-12.6876 Y24.7659 
G01 Z-0.0500 F254.00 
G01 X-12.8213 Y24.6765 F254.00 
G01 X-12.9699 Y24.6150 
G01 X-13.1276 Y24.5836 
G01 X-14.8124 Y24.5836 
G01 X-14.9701 Y24.6150 
G01 X-15.1187 Y24.6765 
G01 X-15.1697 Y24.7106 
G01 X-17.0275 Y24.7106 
G01 X-17.1300 Y24.6080 
G01 X-17.2970 Y24.4964 
G01 X-17.4826 Y24.4196 
G01 X-17.6796 Y24.3804 
G01 X-17.8804 Y24.3804 
G01 X-18.0774 Y24.4196 
G01 X-18.2630 Y24.4964 
G01 X-18.4300 Y24.6080 
G01 X-18.5325 Y24.7106 
G01 X-21.7106 Y24.7106 
G01 X-21.7106 Y7.7853 
G01 X-21.6916 Y7.6898 
G01 X-21.6916 Y7.5502 
G01 X-21.7188 Y7.4134 
G01 X-21.7722 Y7.2844 
G01 X-21.8498 Y7.1684 
G01 X-21.9484 Y7.0697 
G01 X-22.0644 Y6.9922 
G01 X-22.1934 Y6.9388 
G01 X-22.3302 Y6.9116 
G01 X-22.4698 Y6.9116 
G01 X-22.6066 Y6.9388 
G01 X-22.7356 Y6.9922 
G01 X-22.8516 Y7.0697 
G01 X-22.9502 Y7.1684 
G01 X-23.0278 Y7.2844 
G01 X-23.0812 Y7.4134 
G01 X-23.1084 Y7.5502 
G01 X-23.1084 Y7.6898 
G01 X-23.0894 Y7.7853 
G01 X-23.0894 Y25.4679 
G01 X-23.0629 Y25.6011 
G01 X-23.0109 Y25.7266 
G01 X-22.9355 Y25.8395 
G01 X-22.8395 Y25.9355 
G01 X-22.7266 Y26.0109 
G01 X-22.6011 Y26.0629 
G01 X-22.4679 Y26.0894 
G01 X-18.5325 Y26.0894 
G01 X-18.4300 Y26.1920 
G01 X-18.2630 Y26.3036 
G01 X-18.0774 Y26.3804 
G01 X-17.8804 Y26.4196 
G01 X-17.6796 Y26.4196 
G01 X-17.4826 Y26.3804 
G01 X-17.2970 Y26.3036 
G01 X-17.1300 Y26.1920 
G01 X-17.0275 Y26.0894 
G01 X-15.1697 Y26.0894 
G01 X-15.1187 Y26.1235 
G01 X-14.9701 Y26.1850 
G01 X-14.8124 Y26.2164 
G01 X-13.1276 Y26.2164 
G01 X-12.9699 Y26.1850 
G01 X-12.8213 Y26.1235 
G01 X-12.6876 Y26.0341 
G01 X-12.5739 Y25.9204 
G01 X-12.4845 Y25.7867 
G01 X-12.4230 Y25.6381 
G01 X-12.3916 Y25.4804 
G01 X-12.3916 Y25.3196 
G01 X-12.4230 Y25.1619 
G01 X-12.4845 Y25.0133 
G01 X-12.5739 Y24.8796 
G01 X-12.6876 Y24.7659 
G00 Z2.5400 
G00 X-12.6986 Y27.1562 
G01 Z-0.0500 F254.00 
G01 X-9.1941 Y27.1562 F254.00 
G01 X-8.9060 Y27.2755 
G01 X-8.6855 Y27.4960 
G01 X-8.5662 Y27.7841 
G01 X-8.5662 Y32.7928 
G01 X-8.5707 Y32.8036 
G01 X-8.5662 Y32.8144 
G01 X-8.5662 Y32.8261 
G01 X-8.5579 Y32.8344 
G01 X-8.5472 Y32.8603 
G01 X-8.5472 Y33.1797 
G01 X-8.6694 Y33.4748 
G01 X-8.8952 Y33.7006 
G01 X-9.1903 Y33.8228 
G01 X-9.5097 Y33.8228 
G01 X-9.8048 Y33.7006 
G01 X-10.0306 Y33.4748 
G01 X-10.1528 Y33.1797 
G01 X-10.1528 Y32.8603 
G01 X-10.1421 Y32.8344 
G01 X-10.1338 Y32.8261 
G01 X-10.1338 Y32.8144 
G01 X-10.1293 Y32.8036 
G01 X-10.1338 Y32.7928 
G01 X-10.1338 Y28.7557 
G01 X-10.1657 Y28.7238 
G01 X-12.6986 Y28.7238 
G01 X-12.7094 Y28.7193 
G01 X-12.7202 Y28.7238 
G01 X-12.7319 Y28.7238 
G01 X-12.7402 Y28.7321 
G01 X-13.0268 Y28.8508 
G01 X-14.9132 Y28.8508 
G01 X-15.1998 Y28.7321 
G01 X-15.2081 Y28.7238 
G01 X-15.2198 Y28.7238 
G01 X-15.2306 Y28.7193 
G01 X-15.2414 Y28.7238 
G01 X-16.9884 Y28.7238 
G01 X-17.0202 Y28.7557 
G01 X-17.1490 Y28.8844 
G01 X-17.5584 Y29.0540 
G01 X-18.0016 Y29.0540 
G01 X-18.4110 Y28.8844 
G01 X-18.7244 Y28.5710 
G01 X-18.8940 Y28.1616 
G01 X-18.8940 Y27.7184 
G01 X-18.7244 Y27.3090 
G01 X-18.4110 Y26.9956 
G01 X-18.0016 Y26.8260 
G01 X-17.5584 Y26.8260 
G01 X-17.1490 Y26.9956 
G01 X-17.0202 Y27.1243 
G01 X-16.9910 Y27.1535 
G01 X-16.9884 Y27.1562 
G01 X-15.2414 Y27.1562 
G01 X-15.2306 Y27.1607 
G01 X-15.2198 Y27.1562 
G01 X-15.2081 Y27.1562 
G01 X-15.1998 Y27.1479 
G01 X-14.9132 Y27.0292 
G01 X-13.0268 Y27.0292 
G01 X-12.7402 Y27.1479 
G01 X-12.7319 Y27.1562 
G01 X-12.7202 Y27.1562 
G01 X-12.7094 Y27.1607 
G01 X-12.6986 Y27.1562 
G00 Z2.5400 
G00 X-12.7703 Y27.2506 
G01 Z-0.0500 F254.00 
G01 X-12.8213 Y27.2165 F254.00 
G01 X-12.9699 Y27.1550 
G01 X-13.1276 Y27.1236 
G01 X-14.8124 Y27.1236 
G01 X-14.9701 Y27.1550 
G01 X-15.1187 Y27.2165 
G01 X-15.1697 Y27.2506 
G01 X-17.0275 Y27.2506 
G01 X-17.1300 Y27.1480 
G01 X-17.2970 Y27.0364 
G01 X-17.4826 Y26.9596 
G01 X-17.6796 Y26.9204 
G01 X-17.8804 Y26.9204 
G01 X-18.0774 Y26.9596 
G01 X-18.2630 Y27.0364 
G01 X-18.4300 Y27.1480 
G01 X-18.5720 Y27.2900 
G01 X-18.6836 Y27.4570 
G01 X-18.7604 Y27.6426 
G01 X-18.7996 Y27.8396 
G01 X-18.7996 Y28.0404 
G01 X-18.7604 Y28.2374 
G01 X-18.6836 Y28.4230 
G01 X-18.5720 Y28.5900 
G01 X-18.4300 Y28.7320 
G01 X-18.2630 Y28.8436 
G01 X-18.0774 Y28.9204 
G01 X-17.8804 Y28.9596 
G01 X-17.6796 Y28.9596 
G01 X-17.4826 Y28.9204 
G01 X-17.2970 Y28.8436 
G01 X-17.1300 Y28.7320 
G01 X-17.0275 Y28.6294 
G01 X-15.1697 Y28.6294 
G01 X-15.1187 Y28.6635 
G01 X-14.9701 Y28.7250 
G01 X-14.8124 Y28.7564 
G01 X-13.1276 Y28.7564 
G01 X-12.9699 Y28.7250 
G01 X-12.8213 Y28.6635 
G01 X-12.7703 Y28.6294 
G01 X-10.0394 Y28.6294 
G01 X-10.0394 Y32.8547 
G01 X-10.0584 Y32.9502 
G01 X-10.0584 Y33.0898 
G01 X-10.0312 Y33.2266 
G01 X-9.9778 Y33.3556 
G01 X-9.9002 Y33.4716 
G01 X-9.8016 Y33.5702 
G01 X-9.6856 Y33.6478 
G01 X-9.5566 Y33.7012 
G01 X-9.4198 Y33.7284 
G01 X-9.2802 Y33.7284 
G01 X-9.1434 Y33.7012 
G01 X-9.0144 Y33.6478 
G01 X-8.8984 Y33.5702 
G01 X-8.7997 Y33.4716 
G01 X-8.7222 Y33.3556 
G01 X-8.6688 Y33.2266 
G01 X-8.6416 Y33.0898 
G01 X-8.6416 Y32.9502 
G01 X-8.6606 Y32.8547 
G01 X-8.6606 Y27.8721 
G01 X-8.6871 Y27.7389 
G01 X-8.7391 Y27.6134 
G01 X-8.8145 Y27.5005 
G01 X-8.9105 Y27.4045 
G01 X-9.0234 Y27.3291 
G01 X-9.1489 Y27.2771 
G01 X-9.2821 Y27.2506 
G01 X-12.7703 Y27.2506 
G00 Z2.5400 
G00 X-12.6921 Y29.7078 
G01 Z-0.0500 F254.00 
G01 X-12.4358 Y29.9641 F254.00 
G01 X-12.2972 Y30.2988 
G01 X-12.2972 Y30.6612 
G01 X-12.4358 Y30.9959 
G01 X-12.6921 Y31.2522 
G01 X-13.0268 Y31.3908 
G01 X-14.9132 Y31.3908 
G01 X-15.1998 Y31.2721 
G01 X-15.2081 Y31.2638 
G01 X-15.2198 Y31.2638 
G01 X-15.2306 Y31.2593 
G01 X-15.2414 Y31.2638 
G01 X-16.9884 Y31.2638 
G01 X-17.1490 Y31.4244 
G01 X-17.5584 Y31.5940 
G01 X-18.0016 Y31.5940 
G01 X-18.4110 Y31.4244 
G01 X-18.7244 Y31.1110 
G01 X-18.8940 Y30.7016 
G01 X-18.8940 Y30.2584 
G01 X-18.7244 Y29.8490 
G01 X-18.4110 Y29.5356 
G01 X-18.0016 Y29.3660 
G01 X-17.5584 Y29.3660 
G01 X-17.1490 Y29.5356 
G01 X-16.9884 Y29.6962 
G01 X-15.2414 Y29.6962 
G01 X-15.2306 Y29.7007 
G01 X-15.2198 Y29.6962 
G01 X-15.2081 Y29.6962 
G01 X-15.1998 Y29.6879 
G01 X-14.9132 Y29.5692 
G01 X-13.0268 Y29.5692 
G01 X-12.6921 Y29.7078 
G00 Z2.5400 
G00 X-12.6876 Y29.8459 
G01 Z-0.0500 F254.00 
G01 X-12.8213 Y29.7565 F254.00 
G01 X-12.9699 Y29.6950 
G01 X-13.1276 Y29.6636 
G01 X-14.8124 Y29.6636 
G01 X-14.9701 Y29.6950 
G01 X-15.1187 Y29.7565 
G01 X-15.1697 Y29.7906 
G01 X-17.0275 Y29.7906 
G01 X-17.1300 Y29.6880 
G01 X-17.2970 Y29.5764 
G01 X-17.4826 Y29.4996 
G01 X-17.6796 Y29.4604 
G01 X-17.8804 Y29.4604 
G01 X-18.0774 Y29.4996 
G01 X-18.2630 Y29.5764 
G01 X-18.4300 Y29.6880 
G01 X-18.5720 Y29.8300 
G01 X-18.6836 Y29.9970 
G01 X-18.7604 Y30.1826 
G01 X-18.7996 Y30.3796 
G01 X-18.7996 Y30.5804 
G01 X-18.7604 Y30.7774 
G01 X-18.6836 Y30.9630 
G01 X-18.5720 Y31.1300 
G01 X-18.4300 Y31.2720 
G01 X-18.2630 Y31.3836 
G01 X-18.0774 Y31.4604 
G01 X-17.8804 Y31.4996 
G01 X-17.6796 Y31.4996 
G01 X-17.4826 Y31.4604 
G01 X-17.2970 Y31.3836 
G01 X-17.1300 Y31.2720 
G01 X-17.0275 Y31.1694 
G01 X-15.1697 Y31.1694 
G01 X-15.1187 Y31.2035 
G01 X-14.9701 Y31.2650 
G01 X-14.8124 Y31.2964 
G01 X-13.1276 Y31.2964 
G01 X-12.9699 Y31.2650 
G01 X-12.8213 Y31.2035 
G01 X-12.6876 Y31.1141 
G01 X-12.5739 Y31.0004 
G01 X-12.4845 Y30.8667 
G01 X-12.4230 Y30.7181 
G01 X-12.3916 Y30.5604 
G01 X-12.3916 Y30.3996 
G01 X-12.4230 Y30.2419 
G01 X-12.4845 Y30.0933 
G01 X-12.5739 Y29.9596 
G01 X-12.6876 Y29.8459 
G00 Z2.5400 
G00 X-12.6921 Y32.2478 
G01 Z-0.0500 F254.00 
G01 X-12.4358 Y32.5041 F254.00 
G01 X-12.2972 Y32.8388 
G01 X-12.2972 Y33.2012 
G01 X-12.4358 Y33.5359 
G01 X-12.6921 Y33.7922 
G01 X-13.0268 Y33.9308 
G01 X-14.9132 Y33.9308 
G01 X-15.1998 Y33.8121 
G01 X-15.2081 Y33.8038 
G01 X-15.2198 Y33.8038 
G01 X-15.2306 Y33.7993 
G01 X-15.2414 Y33.8038 
G01 X-16.9884 Y33.8038 
G01 X-17.0202 Y33.8357 
G01 X-17.1490 Y33.9644 
G01 X-17.5584 Y34.1340 
G01 X-18.0016 Y34.1340 
G01 X-18.4110 Y33.9644 
G01 X-18.7244 Y33.6510 
G01 X-18.8940 Y33.2416 
G01 X-18.8940 Y32.7984 
G01 X-18.7244 Y32.3890 
G01 X-18.4110 Y32.0756 
G01 X-18.0016 Y31.9060 
G01 X-17.5584 Y31.9060 
G01 X-17.1490 Y32.0756 
G01 X-16.9884 Y32.2362 
G01 X-15.2414 Y32.2362 
G01 X-15.2306 Y32.2407 
G01 X-15.2198 Y32.2362 
G01 X-15.2081 Y32.2362 
G01 X-15.1998 Y32.2279 
G01 X-14.9132 Y32.1092 
G01 X-13.0268 Y32.1092 
G01 X-12.6921 Y32.2478 
G00 Z2.5400 
G00 X-12.6876 Y32.3859 
G01 Z-0.0500 F254.00 
G01 X-12.8213 Y32.2965 F254.00 
G01 X-12.9699 Y32.2350 
G01 X-13.1276 Y32.2036 
G01 X-14.8124 Y32.2036 
G01 X-14.9701 Y32.2350 
G01 X-15.1187 Y32.2965 
G01 X-15.1697 Y32.3306 
G01 X-17.0275 Y32.3306 
G01 X-17.1300 Y32.2280 
G01 X-17.2970 Y32.1164 
G01 X-17.4826 Y32.0396 
G01 X-17.6796 Y32.0004 
G01 X-17.8804 Y32.0004 
G01 X-18.0774 Y32.0396 
G01 X-18.2630 Y32.1164 
G01 X-18.4300 Y32.2280 
G01 X-18.5720 Y32.3700 
G01 X-18.6836 Y32.5370 
G01 X-18.7604 Y32.7226 
G01 X-18.7996 Y32.9196 
G01 X-18.7996 Y33.1204 
G01 X-18.7604 Y33.3174 
G01 X-18.6836 Y33.5030 
G01 X-18.5720 Y33.6700 
G01 X-18.4300 Y33.8120 
G01 X-18.2630 Y33.9236 
G01 X-18.0774 Y34.0004 
G01 X-17.8804 Y34.0396 
G01 X-17.6796 Y34.0396 
G01 X-17.4826 Y34.0004 
G01 X-17.2970 Y33.9236 
G01 X-17.1300 Y33.8120 
G01 X-17.0275 Y33.7094 
G01 X-15.1697 Y33.7094 
G01 X-15.1187 Y33.7435 
G01 X-14.9701 Y33.8050 
G01 X-14.8124 Y33.8364 
G01 X-13.1276 Y33.8364 
G01 X-12.9699 Y33.8050 
G01 X-12.8213 Y33.7435 
G01 X-12.6876 Y33.6541 
G01 X-12.5739 Y33.5404 
G01 X-12.4845 Y33.4067 
G01 X-12.4230 Y33.2581 
G01 X-12.3916 Y33.1004 
G01 X-12.3916 Y32.9396 
G01 X-12.4230 Y32.7819 
G01 X-12.4845 Y32.6333 
G01 X-12.5739 Y32.4996 
G01 X-12.6876 Y32.3859 
G00 Z2.5400 
G00 X-12.6921 Y34.7878 
G01 Z-0.0500 F254.00 
G01 X-12.4358 Y35.0441 F254.00 
G01 X-12.2972 Y35.3788 
G01 X-12.2972 Y35.7412 
G01 X-12.4358 Y36.0759 
G01 X-12.6921 Y36.3322 
G01 X-13.0268 Y36.4708 
G01 X-14.9132 Y36.4708 
G01 X-15.1998 Y36.3521 
G01 X-15.2081 Y36.3438 
G01 X-15.2198 Y36.3438 
G01 X-15.2306 Y36.3393 
G01 X-15.2414 Y36.3438 
G01 X-16.9884 Y36.3438 
G01 X-17.0202 Y36.3757 
G01 X-17.1490 Y36.5044 
G01 X-17.5584 Y36.6740 
G01 X-18.0016 Y36.6740 
G01 X-18.4110 Y36.5044 
G01 X-18.7244 Y36.1910 
G01 X-18.8940 Y35.7816 
G01 X-18.8940 Y35.3384 
G01 X-18.7244 Y34.9290 
G01 X-18.4110 Y34.6156 
G01 X-18.0016 Y34.4460 
G01 X-17.5584 Y34.4460 
G01 X-17.1490 Y34.6156 
G01 X-16.9884 Y34.7762 
G01 X-15.2414 Y34.7762 
G01 X-15.2306 Y34.7807 
G01 X-15.2198 Y34.7762 
G01 X-15.2081 Y34.7762 
G01 X-15.1998 Y34.7679 
G01 X-14.9132 Y34.6492 
G01 X-13.0268 Y34.6492 
G01 X-12.6921 Y34.7878 
G00 Z2.5400 
G00 X-12.6876 Y34.9259 
G01 Z-0.0500 F254.00 
G01 X-12.8213 Y34.8365 F254.00 
G01 X-12.9699 Y34.7750 
G01 X-13.1276 Y34.7436 
G01 X-14.8124 Y34.7436 
G01 X-14.9701 Y34.7750 
G01 X-15.1187 Y34.8365 
G01 X-15.1697 Y34.8706 
G01 X-17.0275 Y34.8706 
G01 X-17.1300 Y34.7680 
G01 X-17.2970 Y34.6564 
G01 X-17.4826 Y34.5796 
G01 X-17.6796 Y34.5404 
G01 X-17.8804 Y34.5404 
G01 X-18.0774 Y34.5796 
G01 X-18.2630 Y34.6564 
G01 X-18.4300 Y34.7680 
G01 X-18.5720 Y34.9100 
G01 X-18.6836 Y35.0770 
G01 X-18.7604 Y35.2626 
G01 X-18.7996 Y35.4596 
G01 X-18.7996 Y35.6604 
G01 X-18.7604 Y35.8574 
G01 X-18.6836 Y36.0430 
G01 X-18.5720 Y36.2100 
G01 X-18.4300 Y36.3520 
G01 X-18.2630 Y36.4636 
G01 X-18.0774 Y36.5404 
G01 X-17.8804 Y36.5796 
G01 X-17.6796 Y36.5796 
G01 X-17.4826 Y36.5404 
G01 X-17.2970 Y36.4636 
G01 X-17.1300 Y36.3520 
G01 X-17.0275 Y36.2494 
G01 X-15.1697 Y36.2494 
G01 X-15.1187 Y36.2835 
G01 X-14.9701 Y36.3450 
G01 X-14.8124 Y36.3764 
G01 X-13.1276 Y36.3764 
G01 X-12.9699 Y36.3450 
G01 X-12.8213 Y36.2835 
G01 X-12.6876 Y36.1941 
G01 X-12.5739 Y36.0804 
G01 X-12.4845 Y35.9467 
G01 X-12.4230 Y35.7981 
G01 X-12.3916 Y35.6404 
G01 X-12.3916 Y35.4796 
G01 X-12.4230 Y35.3219 
G01 X-12.4845 Y35.1733 
G01 X-12.5739 Y35.0396 
G01 X-12.6876 Y34.9259 
G00 Z2.5400 
G00 X-12.6921 Y37.3278 
G01 Z-0.0500 F254.00 
G01 X-12.4358 Y37.5841 F254.00 
G01 X-12.2972 Y37.9188 
G01 X-12.2972 Y38.2812 
G01 X-12.4358 Y38.6159 
G01 X-12.6921 Y38.8722 
G01 X-13.0268 Y39.0108 
G01 X-14.9132 Y39.0108 
G01 X-15.1998 Y38.8921 
G01 X-15.2081 Y38.8838 
G01 X-15.2198 Y38.8838 
G01 X-15.2306 Y38.8793 
G01 X-15.2414 Y38.8838 
G01 X-16.9884 Y38.8838 
G01 X-17.0202 Y38.9157 
G01 X-17.1490 Y39.0444 
G01 X-17.5584 Y39.2140 
G01 X-18.0016 Y39.2140 
G01 X-18.4110 Y39.0444 
G01 X-18.7244 Y38.7310 
G01 X-18.8940 Y38.3216 
G01 X-18.8940 Y37.8784 
G01 X-18.7244 Y37.4690 
G01 X-18.4110 Y37.1556 
G01 X-18.0016 Y36.9860 
G01 X-17.5584 Y36.9860 
G01 X-17.1490 Y37.1556 
G01 X-16.9884 Y37.3162 
G01 X-15.2414 Y37.3162 
G01 X-15.2306 Y37.3207 
G01 X-15.2198 Y37.3162 
G01 X-15.2081 Y37.3162 
G01 X-15.1998 Y37.3079 
G01 X-14.9132 Y37.1892 
G01 X-13.0268 Y37.1892 
G01 X-12.6921 Y37.3278 
G00 Z2.5400 
G00 X-12.6876 Y37.4659 
G01 Z-0.0500 F254.00 
G01 X-12.8213 Y37.3765 F254.00 
G01 X-12.9699 Y37.3150 
G01 X-13.1276 Y37.2836 
G01 X-14.8124 Y37.2836 
G01 X-14.9701 Y37.3150 
G01 X-15.1187 Y37.3765 
G01 X-15.1697 Y37.4106 
G01 X-17.0275 Y37.4106 
G01 X-17.1300 Y37.3080 
G01 X-17.2970 Y37.1964 
G01 X-17.4826 Y37.1196 
G01 X-17.6796 Y37.0804 
G01 X-17.8804 Y37.0804 
G01 X-18.0774 Y37.1196 
G01 X-18.2630 Y37.1964 
G01 X-18.4300 Y37.3080 
G01 X-18.5720 Y37.4500 
G01 X-18.6836 Y37.6170 
G01 X-18.7604 Y37.8026 
G01 X-18.7996 Y37.9996 
G01 X-18.7996 Y38.2004 
G01 X-18.7604 Y38.3974 
G01 X-18.6836 Y38.5830 
G01 X-18.5720 Y38.7500 
G01 X-18.4300 Y38.8920 
G01 X-18.2630 Y39.0036 
G01 X-18.0774 Y39.0804 
G01 X-17.8804 Y39.1196 
G01 X-17.6796 Y39.1196 
G01 X-17.4826 Y39.0804 
G01 X-17.2970 Y39.0036 
G01 X-17.1300 Y38.8920 
G01 X-17.0275 Y38.7894 
G01 X-15.1697 Y38.7894 
G01 X-15.1187 Y38.8235 
G01 X-14.9701 Y38.8850 
G01 X-14.8124 Y38.9164 
G01 X-13.1276 Y38.9164 
G01 X-12.9699 Y38.8850 
G01 X-12.8213 Y38.8235 
G01 X-12.6876 Y38.7341 
G01 X-12.5739 Y38.6204 
G01 X-12.4845 Y38.4867 
G01 X-12.4230 Y38.3381 
G01 X-12.3916 Y38.1804 
G01 X-12.3916 Y38.0196 
G01 X-12.4230 Y37.8619 
G01 X-12.4845 Y37.7133 
G01 X-12.5739 Y37.5796 
G01 X-12.6876 Y37.4659 
G00 Z2.5400 
G00 X-12.6921 Y39.8678 
G01 Z-0.0500 F254.00 
G01 X-12.4358 Y40.1241 F254.00 
G01 X-12.2972 Y40.4588 
G01 X-12.2972 Y40.8212 
G01 X-12.4358 Y41.1559 
G01 X-12.6921 Y41.4122 
G01 X-13.0268 Y41.5508 
G01 X-14.9132 Y41.5508 
G01 X-15.1998 Y41.4321 
G01 X-15.2081 Y41.4238 
G01 X-15.2198 Y41.4238 
G01 X-15.2306 Y41.4193 
G01 X-15.2414 Y41.4238 
G01 X-16.9884 Y41.4238 
G01 X-17.0202 Y41.4557 
G01 X-17.1490 Y41.5844 
G01 X-17.5584 Y41.7540 
G01 X-18.0016 Y41.7540 
G01 X-18.4110 Y41.5844 
G01 X-18.7244 Y41.2710 
G01 X-18.8940 Y40.8616 
G01 X-18.8940 Y40.4184 
G01 X-18.7244 Y40.0090 
G01 X-18.4110 Y39.6956 
G01 X-18.0016 Y39.5260 
G01 X-17.5584 Y39.5260 
G01 X-17.1490 Y39.6956 
G01 X-16.9884 Y39.8562 
G01 X-15.2414 Y39.8562 
G01 X-15.2306 Y39.8607 
G01 X-15.2198 Y39.8562 
G01 X-15.2081 Y39.8562 
G01 X-15.1998 Y39.8479 
G01 X-14.9132 Y39.7292 
G01 X-13.0268 Y39.7292 
G01 X-12.6921 Y39.8678 
G00 Z2.5400 
G00 X-12.6876 Y40.0059 
G01 Z-0.0500 F254.00 
G01 X-12.8213 Y39.9165 F254.00 
G01 X-12.9699 Y39.8550 
G01 X-13.1276 Y39.8236 
G01 X-14.8124 Y39.8236 
G01 X-14.9701 Y39.8550 
G01 X-15.1187 Y39.9165 
G01 X-15.1697 Y39.9506 
G01 X-17.0275 Y39.9506 
G01 X-17.1300 Y39.8480 
G01 X-17.2970 Y39.7364 
G01 X-17.4826 Y39.6596 
G01 X-17.6796 Y39.6204 
G01 X-17.8804 Y39.6204 
G01 X-18.0774 Y39.6596 
G01 X-18.2630 Y39.7364 
G01 X-18.4300 Y39.8480 
G01 X-18.5720 Y39.9900 
G01 X-18.6836 Y40.1570 
G01 X-18.7604 Y40.3426 
G01 X-18.7996 Y40.5396 
G01 X-18.7996 Y40.7404 
G01 X-18.7604 Y40.9374 
G01 X-18.6836 Y41.1230 
G01 X-18.5720 Y41.2900 
G01 X-18.4300 Y41.4320 
G01 X-18.2630 Y41.5436 
G01 X-18.0774 Y41.6204 
G01 X-17.8804 Y41.6596 
G01 X-17.6796 Y41.6596 
G01 X-17.4826 Y41.6204 
G01 X-17.2970 Y41.5436 
G01 X-17.1300 Y41.4320 
G01 X-17.0275 Y41.3294 
G01 X-15.1697 Y41.3294 
G01 X-15.1187 Y41.3635 
G01 X-14.9701 Y41.4250 
G01 X-14.8124 Y41.4564 
G01 X-13.1276 Y41.4564 
G01 X-12.9699 Y41.4250 
G01 X-12.8213 Y41.3635 
G01 X-12.6876 Y41.2741 
G01 X-12.5739 Y41.1604 
G01 X-12.4845 Y41.0267 
G01 X-12.4230 Y40.8781 
G01 X-12.3916 Y40.7204 
G01 X-12.3916 Y40.5596 
G01 X-12.4230 Y40.4019 
G01 X-12.4845 Y40.2533 
G01 X-12.5739 Y40.1196 
G01 X-12.6876 Y40.0059 
G00 Z2.5400 
G00 X-12.6921 Y42.4078 
G01 Z-0.0500 F254.00 
G01 X-12.4358 Y42.6641 F254.00 
G01 X-12.2972 Y42.9988 
G01 X-12.2972 Y43.3612 
G01 X-12.4358 Y43.6959 
G01 X-12.6921 Y43.9522 
G01 X-13.0268 Y44.0908 
G01 X-14.9132 Y44.0908 
G01 X-15.1998 Y43.9721 
G01 X-15.2081 Y43.9638 
G01 X-15.2198 Y43.9638 
G01 X-15.2306 Y43.9593 
G01 X-15.2414 Y43.9638 
G01 X-16.9884 Y43.9638 
G01 X-17.0202 Y43.9957 
G01 X-17.1490 Y44.1244 
G01 X-17.5584 Y44.2940 
G01 X-18.0016 Y44.2940 
G01 X-18.4110 Y44.1244 
G01 X-18.7244 Y43.8110 
G01 X-18.8940 Y43.4016 
G01 X-18.8940 Y42.9584 
G01 X-18.7244 Y42.5490 
G01 X-18.4110 Y42.2356 
G01 X-18.0016 Y42.0660 
G01 X-17.5584 Y42.0660 
G01 X-17.1490 Y42.2356 
G01 X-17.0202 Y42.3643 
G01 X-16.9884 Y42.3962 
G01 X-15.2414 Y42.3962 
G01 X-15.2306 Y42.4007 
G01 X-15.2198 Y42.3962 
G01 X-15.2081 Y42.3962 
G01 X-15.1998 Y42.3879 
G01 X-14.9132 Y42.2692 
G01 X-13.0268 Y42.2692 
G01 X-12.6921 Y42.4078 
G00 Z2.5400 
G00 X-12.6876 Y42.5459 
G01 Z-0.0500 F254.00 
G01 X-12.8213 Y42.4565 F254.00 
G01 X-12.9699 Y42.3950 
G01 X-13.1276 Y42.3636 
G01 X-14.8124 Y42.3636 
G01 X-14.9701 Y42.3950 
G01 X-15.1187 Y42.4565 
G01 X-15.1697 Y42.4906 
G01 X-17.0275 Y42.4906 
G01 X-17.1300 Y42.3880 
G01 X-17.2970 Y42.2764 
G01 X-17.4826 Y42.1996 
G01 X-17.6796 Y42.1604 
G01 X-17.8804 Y42.1604 
G01 X-18.0774 Y42.1996 
G01 X-18.2630 Y42.2764 
G01 X-18.4300 Y42.3880 
G01 X-18.5720 Y42.5300 
G01 X-18.6836 Y42.6970 
G01 X-18.7604 Y42.8826 
G01 X-18.7996 Y43.0796 
G01 X-18.7996 Y43.2804 
G01 X-18.7604 Y43.4774 
G01 X-18.6836 Y43.6630 
G01 X-18.5720 Y43.8300 
G01 X-18.4300 Y43.9720 
G01 X-18.2630 Y44.0836 
G01 X-18.0774 Y44.1604 
G01 X-17.8804 Y44.1996 
G01 X-17.6796 Y44.1996 
G01 X-17.4826 Y44.1604 
G01 X-17.2970 Y44.0836 
G01 X-17.1300 Y43.9720 
G01 X-17.0275 Y43.8694 
G01 X-15.1697 Y43.8694 
G01 X-15.1187 Y43.9035 
G01 X-14.9701 Y43.9650 
G01 X-14.8124 Y43.9964 
G01 X-13.1276 Y43.9964 
G01 X-12.9699 Y43.9650 
G01 X-12.8213 Y43.9035 
G01 X-12.6876 Y43.8141 
G01 X-12.5739 Y43.7004 
G01 X-12.4845 Y43.5667 
G01 X-12.4230 Y43.4181 
G01 X-12.3916 Y43.2604 
G01 X-12.3916 Y43.0996 
G01 X-12.4230 Y42.9419 
G01 X-12.4845 Y42.7933 
G01 X-12.5739 Y42.6596 
G01 X-12.6876 Y42.5459 
G00 Z2.5400 
G00 X-12.6921 Y44.9478 
G01 Z-0.0500 F254.00 
G01 X-12.4358 Y45.2041 F254.00 
G01 X-12.2972 Y45.5388 
G01 X-12.2972 Y45.9012 
G01 X-12.4358 Y46.2359 
G01 X-12.6921 Y46.4922 
G01 X-13.0268 Y46.6308 
G01 X-14.9132 Y46.6308 
G01 X-15.1998 Y46.5121 
G01 X-15.2081 Y46.5038 
G01 X-15.2198 Y46.5038 
G01 X-15.2306 Y46.4993 
G01 X-15.2414 Y46.5038 
G01 X-16.9884 Y46.5038 
G01 X-17.0202 Y46.5357 
G01 X-17.1490 Y46.6644 
G01 X-17.5584 Y46.8340 
G01 X-18.0016 Y46.8340 
G01 X-18.4110 Y46.6644 
G01 X-18.7244 Y46.3510 
G01 X-18.8940 Y45.9416 
G01 X-18.8940 Y45.4984 
G01 X-18.7244 Y45.0890 
G01 X-18.4110 Y44.7756 
G01 X-18.0016 Y44.6060 
G01 X-17.5584 Y44.6060 
G01 X-17.1490 Y44.7756 
G01 X-16.9884 Y44.9362 
G01 X-15.2414 Y44.9362 
G01 X-15.2306 Y44.9407 
G01 X-15.2198 Y44.9362 
G01 X-15.2081 Y44.9362 
G01 X-15.1998 Y44.9279 
G01 X-14.9132 Y44.8092 
G01 X-13.0268 Y44.8092 
G01 X-12.6921 Y44.9478 
G00 Z2.5400 
G00 X-12.6876 Y45.0859 
G01 Z-0.0500 F254.00 
G01 X-12.8213 Y44.9965 F254.00 
G01 X-12.9699 Y44.9350 
G01 X-13.1276 Y44.9036 
G01 X-14.8124 Y44.9036 
G01 X-14.9701 Y44.9350 
G01 X-15.1187 Y44.9965 
G01 X-15.1697 Y45.0306 
G01 X-17.0275 Y45.0306 
G01 X-17.1300 Y44.9280 
G01 X-17.2970 Y44.8164 
G01 X-17.4826 Y44.7396 
G01 X-17.6796 Y44.7004 
G01 X-17.8804 Y44.7004 
G01 X-18.0774 Y44.7396 
G01 X-18.2630 Y44.8164 
G01 X-18.4300 Y44.9280 
G01 X-18.5720 Y45.0700 
G01 X-18.6836 Y45.2370 
G01 X-18.7604 Y45.4226 
G01 X-18.7996 Y45.6196 
G01 X-18.7996 Y45.8204 
G01 X-18.7604 Y46.0174 
G01 X-18.6836 Y46.2030 
G01 X-18.5720 Y46.3700 
G01 X-18.4300 Y46.5120 
G01 X-18.2630 Y46.6236 
G01 X-18.0774 Y46.7004 
G01 X-17.8804 Y46.7396 
G01 X-17.6796 Y46.7396 
G01 X-17.4826 Y46.7004 
G01 X-17.2970 Y46.6236 
G01 X-17.1300 Y46.5120 
G01 X-17.0275 Y46.4094 
G01 X-15.1697 Y46.4094 
G01 X-15.1187 Y46.4435 
G01 X-14.9701 Y46.5050 
G01 X-14.8124 Y46.5364 
G01 X-13.1276 Y46.5364 
G01 X-12.9699 Y46.5050 
G01 X-12.8213 Y46.4435 
G01 X-12.6876 Y46.3541 
G01 X-12.5739 Y46.2404 
G01 X-12.4845 Y46.1067 
G01 X-12.4230 Y45.9581 
G01 X-12.3916 Y45.8004 
G01 X-12.3916 Y45.6396 
G01 X-12.4230 Y45.4819 
G01 X-12.4845 Y45.3333 
G01 X-12.5739 Y45.1996 
G01 X-12.6876 Y45.0859 
G00 Z2.5400 
G00 X-5.3027 Y46.1097 
G01 Z-0.0500 F254.00 
G01 X-4.4637 Y45.3374 F254.00 
G01 X-4.4537 Y45.3287 
G01 X-3.4015 Y44.8672 
G01 X-3.3904 Y44.8672 
G01 X-2.2509 Y44.7711 
G01 X-1.1394 Y45.0525 
G01 X-1.1341 Y45.0579 
G01 X-1.1278 Y45.0579 
G01 X-0.1689 Y45.6843 
G01 X0.5330 Y46.5862 
G01 X0.5330 Y46.5901 
G01 X0.5401 Y46.5971 
G01 X0.9131 Y47.6838 
G01 X0.9131 Y48.8362 
G01 X0.5401 Y49.9229 
G01 X0.5330 Y49.9299 
G01 X0.5330 Y49.9338 
G01 X-0.1689 Y50.8357 
G01 X-1.1278 Y51.4621 
G01 X-1.1341 Y51.4621 
G01 X-1.1394 Y51.4674 
G01 X-2.2509 Y51.7489 
G01 X-3.3886 Y51.6546 
G01 X-3.4015 Y51.6528 
G01 X-4.4537 Y51.1913 
G01 X-4.4624 Y51.1826 
G01 X-5.3027 Y50.4103 
G01 X-5.8489 Y49.4009 
G01 X-5.8489 Y49.3921 
G01 X-5.8526 Y49.3885 
G01 X-6.0409 Y48.2600 
G01 X-5.8526 Y47.1315 
G01 X-5.8489 Y47.1279 
G01 X-5.8489 Y47.1191 
G01 X-5.3027 Y46.1097 
G00 Z2.5400 
G00 X-6.6694 Y33.4748 
G01 Z-0.0500 F254.00 
G01 X-6.8952 Y33.7006 F254.00 
G01 X-7.1903 Y33.8228 
G01 X-7.5097 Y33.8228 
G01 X-7.8048 Y33.7006 
G01 X-8.0306 Y33.4748 
G01 X-8.1528 Y33.1797 
G01 X-8.1528 Y32.8603 
G01 X-8.0306 Y32.5652 
G01 X-7.8048 Y32.3394 
G01 X-7.5097 Y32.2172 
G01 X-7.1903 Y32.2172 
G01 X-6.8952 Y32.3394 
G01 X-6.6694 Y32.5652 
G01 X-6.5472 Y32.8603 
G01 X-6.5472 Y33.1797 
G01 X-6.6694 Y33.4748 
G00 Z2.5400 
G00 X-6.7998 Y33.4716 
G01 Z-0.0500 F254.00 
G01 X-6.7222 Y33.3556 F254.00 
G01 X-6.6688 Y33.2266 
G01 X-6.6416 Y33.0898 
G01 X-6.6416 Y32.9502 
G01 X-6.6688 Y32.8134 
G01 X-6.7222 Y32.6844 
G01 X-6.7998 Y32.5684 
G01 X-6.8984 Y32.4697 
G01 X-7.0144 Y32.3922 
G01 X-7.1434 Y32.3388 
G01 X-7.2802 Y32.3116 
G01 X-7.4198 Y32.3116 
G01 X-7.5566 Y32.3388 
G01 X-7.6856 Y32.3922 
G01 X-7.8016 Y32.4697 
G01 X-7.9002 Y32.5684 
G01 X-7.9778 Y32.6844 
G01 X-8.0312 Y32.8134 
G01 X-8.0584 Y32.9502 
G01 X-8.0584 Y33.0898 
G01 X-8.0312 Y33.2266 
G01 X-7.9778 Y33.3556 
G01 X-7.9002 Y33.4716 
G01 X-7.8016 Y33.5702 
G01 X-7.6856 Y33.6478 
G01 X-7.5566 Y33.7012 
G01 X-7.4198 Y33.7284 
G01 X-7.2802 Y33.7284 
G01 X-7.1434 Y33.7012 
G01 X-7.0144 Y33.6478 
G01 X-6.8984 Y33.5702 
G01 X-6.7998 Y33.4716 
G00 Z2.5400 
G00 X-31.9060 Y33.2416 
G01 Z-0.0500 F254.00 
G01 X-32.0756 Y33.6510 F254.00 
G01 X-32.3890 Y33.9644 
G01 X-32.7984 Y34.1340 
G01 X-33.2416 Y34.1340 
G01 X-33.6510 Y33.9644 
G01 X-33.8116 Y33.8038 
G01 X-33.8567 Y33.8038 
G01 X-35.5586 Y33.8038 
G01 X-35.5694 Y33.7993 
G01 X-35.5802 Y33.8038 
G01 X-35.5919 Y33.8038 
G01 X-35.6002 Y33.8121 
G01 X-35.8868 Y33.9308 
G01 X-37.7732 Y33.9308 
G01 X-38.1079 Y33.7922 
G01 X-38.3642 Y33.5359 
G01 X-38.5028 Y33.2012 
G01 X-38.5028 Y32.8388 
G01 X-38.3642 Y32.5041 
G01 X-38.1079 Y32.2478 
G01 X-37.7732 Y32.1092 
G01 X-35.8868 Y32.1092 
G01 X-35.6002 Y32.2279 
G01 X-35.5919 Y32.2362 
G01 X-35.5802 Y32.2362 
G01 X-35.5694 Y32.2407 
G01 X-35.5586 Y32.2362 
G01 X-33.8116 Y32.2362 
G01 X-33.7798 Y32.2043 
G01 X-33.6510 Y32.0756 
G01 X-33.2416 Y31.9060 
G01 X-32.7984 Y31.9060 
G01 X-32.3890 Y32.0756 
G01 X-32.0756 Y32.3890 
G01 X-31.9060 Y32.7984 
G01 X-31.9060 Y33.2416 
G00 Z2.5400 
G00 X-32.0396 Y33.3174 
G01 Z-0.0500 F254.00 
G01 X-32.0004 Y33.1204 F254.00 
G01 X-32.0004 Y32.9196 
G01 X-32.0396 Y32.7226 
G01 X-32.1164 Y32.5370 
G01 X-32.2280 Y32.3700 
G01 X-32.3700 Y32.2280 
G01 X-32.5370 Y32.1164 
G01 X-32.7226 Y32.0396 
G01 X-32.9196 Y32.0004 
G01 X-33.1204 Y32.0004 
G01 X-33.3174 Y32.0396 
G01 X-33.5030 Y32.1164 
G01 X-33.6700 Y32.2280 
G01 X-33.7725 Y32.3306 
G01 X-35.6303 Y32.3306 
G01 X-35.6813 Y32.2965 
G01 X-35.8299 Y32.2350 
G01 X-35.9876 Y32.2036 
G01 X-37.6724 Y32.2036 
G01 X-37.8301 Y32.2350 
G01 X-37.9787 Y32.2965 
G01 X-38.1124 Y32.3859 
G01 X-38.2261 Y32.4996 
G01 X-38.3155 Y32.6333 
G01 X-38.3770 Y32.7819 
G01 X-38.4084 Y32.9396 
G01 X-38.4084 Y33.1004 
G01 X-38.3770 Y33.2581 
G01 X-38.3155 Y33.4067 
G01 X-38.2261 Y33.5404 
G01 X-38.1124 Y33.6541 
G01 X-37.9787 Y33.7435 
G01 X-37.8301 Y33.8050 
G01 X-37.6724 Y33.8364 
G01 X-35.9876 Y33.8364 
G01 X-35.8299 Y33.8050 
G01 X-35.6813 Y33.7435 
G01 X-35.6303 Y33.7094 
G01 X-33.7725 Y33.7094 
G01 X-33.6700 Y33.8120 
G01 X-33.5030 Y33.9236 
G01 X-33.3174 Y34.0004 
G01 X-33.1204 Y34.0396 
G01 X-32.9196 Y34.0396 
G01 X-32.7226 Y34.0004 
G01 X-32.5370 Y33.9236 
G01 X-32.3700 Y33.8120 
G01 X-32.2280 Y33.6700 
G01 X-32.1164 Y33.5030 
G01 X-32.0396 Y33.3174 
G00 Z2.5400 
G00 X-32.3890 Y34.6156 
G01 Z-0.0500 F254.00 
G01 X-32.0756 Y34.9290 F254.00 
G01 X-31.9060 Y35.3384 
G01 X-31.9060 Y35.7816 
G01 X-32.0756 Y36.1910 
G01 X-32.3890 Y36.5044 
G01 X-32.7984 Y36.6740 
G01 X-33.2416 Y36.6740 
G01 X-33.6510 Y36.5044 
G01 X-33.8116 Y36.3438 
G01 X-35.5586 Y36.3438 
G01 X-35.5694 Y36.3393 
G01 X-35.5802 Y36.3438 
G01 X-35.5919 Y36.3438 
G01 X-35.6002 Y36.3521 
G01 X-35.8868 Y36.4708 
G01 X-37.7732 Y36.4708 
G01 X-38.0598 Y36.3521 
G01 X-38.0681 Y36.3438 
G01 X-38.0798 Y36.3438 
G01 X-38.0906 Y36.3393 
G01 X-38.1014 Y36.3438 
G01 X-41.2228 Y36.3438 
G01 X-41.2336 Y36.3393 
G01 X-41.2444 Y36.3438 
G01 X-41.2561 Y36.3438 
G01 X-41.2644 Y36.3521 
G01 X-41.2903 Y36.3628 
G01 X-41.6097 Y36.3628 
G01 X-41.9048 Y36.2406 
G01 X-42.1306 Y36.0148 
G01 X-42.2528 Y35.7197 
G01 X-42.2528 Y35.4003 
G01 X-42.1306 Y35.1052 
G01 X-41.9048 Y34.8794 
G01 X-41.6097 Y34.7572 
G01 X-41.2903 Y34.7572 
G01 X-41.2644 Y34.7679 
G01 X-41.2561 Y34.7762 
G01 X-41.2444 Y34.7762 
G01 X-41.2336 Y34.7807 
G01 X-41.2228 Y34.7762 
G01 X-38.1014 Y34.7762 
G01 X-38.0906 Y34.7807 
G01 X-38.0798 Y34.7762 
G01 X-38.0681 Y34.7762 
G01 X-38.0598 Y34.7679 
G01 X-37.7732 Y34.6492 
G01 X-35.8868 Y34.6492 
G01 X-35.6002 Y34.7679 
G01 X-35.5919 Y34.7762 
G01 X-35.5802 Y34.7762 
G01 X-35.5694 Y34.7807 
G01 X-35.5586 Y34.7762 
G01 X-33.8116 Y34.7762 
G01 X-33.6510 Y34.6156 
G01 X-33.2416 Y34.4460 
G01 X-32.7984 Y34.4460 
G01 X-32.3890 Y34.6156 
G00 Z2.5400 
G00 X-32.3700 Y34.7680 
G01 Z-0.0500 F254.00 
G01 X-32.5370 Y34.6564 F254.00 
G01 X-32.7226 Y34.5796 
G01 X-32.9196 Y34.5404 
G01 X-33.1204 Y34.5404 
G01 X-33.3174 Y34.5796 
G01 X-33.5030 Y34.6564 
G01 X-33.6700 Y34.7680 
G01 X-33.7725 Y34.8706 
G01 X-35.6303 Y34.8706 
G01 X-35.6813 Y34.8365 
G01 X-35.8299 Y34.7750 
G01 X-35.9876 Y34.7436 
G01 X-37.6724 Y34.7436 
G01 X-37.8301 Y34.7750 
G01 X-37.9787 Y34.8365 
G01 X-38.0297 Y34.8706 
G01 X-41.2847 Y34.8706 
G01 X-41.3802 Y34.8516 
G01 X-41.5198 Y34.8516 
G01 X-41.6566 Y34.8788 
G01 X-41.7856 Y34.9322 
G01 X-41.9016 Y35.0097 
G01 X-42.0002 Y35.1084 
G01 X-42.0778 Y35.2244 
G01 X-42.1312 Y35.3534 
G01 X-42.1584 Y35.4902 
G01 X-42.1584 Y35.6298 
G01 X-42.1312 Y35.7666 
G01 X-42.0778 Y35.8956 
G01 X-42.0002 Y36.0116 
G01 X-41.9016 Y36.1102 
G01 X-41.7856 Y36.1878 
G01 X-41.6566 Y36.2412 
G01 X-41.5198 Y36.2684 
G01 X-41.3802 Y36.2684 
G01 X-41.2847 Y36.2494 
G01 X-38.0297 Y36.2494 
G01 X-37.9787 Y36.2835 
G01 X-37.8301 Y36.3450 
G01 X-37.6724 Y36.3764 
G01 X-35.9876 Y36.3764 
G01 X-35.8299 Y36.3450 
G01 X-35.6813 Y36.2835 
G01 X-35.6303 Y36.2494 
G01 X-33.7725 Y36.2494 
G01 X-33.6700 Y36.3520 
G01 X-33.5030 Y36.4636 
G01 X-33.3174 Y36.5404 
G01 X-33.1204 Y36.5796 
G01 X-32.9196 Y36.5796 
G01 X-32.7226 Y36.5404 
G01 X-32.5370 Y36.4636 
G01 X-32.3700 Y36.3520 
G01 X-32.2280 Y36.2100 
G01 X-32.1164 Y36.0430 
G01 X-32.0396 Y35.8574 
G01 X-32.0004 Y35.6604 
G01 X-32.0004 Y35.4596 
G01 X-32.0396 Y35.2626 
G01 X-32.1164 Y35.0770 
G01 X-32.2280 Y34.9100 
G01 X-32.3700 Y34.7680 
G00 Z2.5400 
G00 X-32.3890 Y37.1556 
G01 Z-0.0500 F254.00 
G01 X-32.0756 Y37.4690 F254.00 
G01 X-31.9060 Y37.8784 
G01 X-31.9060 Y38.3216 
G01 X-32.0756 Y38.7310 
G01 X-32.3890 Y39.0444 
G01 X-32.7984 Y39.2140 
G01 X-33.2416 Y39.2140 
G01 X-33.6510 Y39.0444 
G01 X-33.7798 Y38.9157 
G01 X-33.8090 Y38.8865 
G01 X-33.8116 Y38.8838 
G01 X-35.5586 Y38.8838 
G01 X-35.5694 Y38.8793 
G01 X-35.5802 Y38.8838 
G01 X-35.5919 Y38.8838 
G01 X-35.6002 Y38.8921 
G01 X-35.8868 Y39.0108 
G01 X-37.7732 Y39.0108 
G01 X-38.1079 Y38.8721 
G01 X-38.3642 Y38.6159 
G01 X-38.5028 Y38.2812 
G01 X-38.5028 Y37.9188 
G01 X-38.3642 Y37.5841 
G01 X-38.1079 Y37.3278 
G01 X-37.7732 Y37.1892 
G01 X-35.8868 Y37.1892 
G01 X-35.6002 Y37.3079 
G01 X-35.5919 Y37.3162 
G01 X-35.5802 Y37.3162 
G01 X-35.5694 Y37.3207 
G01 X-35.5586 Y37.3162 
G01 X-33.8116 Y37.3162 
G01 X-33.7798 Y37.2843 
G01 X-33.6510 Y37.1556 
G01 X-33.2416 Y36.9860 
G01 X-32.7984 Y36.9860 
G01 X-32.3890 Y37.1556 
G00 Z2.5400 
G00 X-32.3700 Y37.3080 
G01 Z-0.0500 F254.00 
G01 X-32.5370 Y37.1964 F254.00 
G01 X-32.7226 Y37.1196 
G01 X-32.9196 Y37.0804 
G01 X-33.1204 Y37.0804 
G01 X-33.3174 Y37.1196 
G01 X-33.5030 Y37.1964 
G01 X-33.6700 Y37.3080 
G01 X-33.7725 Y37.4106 
G01 X-35.6303 Y37.4106 
G01 X-35.6813 Y37.3765 
G01 X-35.8299 Y37.3150 
G01 X-35.9876 Y37.2836 
G01 X-37.6724 Y37.2836 
G01 X-37.8301 Y37.3150 
G01 X-37.9787 Y37.3765 
G01 X-38.1124 Y37.4659 
G01 X-38.2261 Y37.5796 
G01 X-38.3155 Y37.7133 
G01 X-38.3770 Y37.8619 
G01 X-38.4084 Y38.0196 
G01 X-38.4084 Y38.1804 
G01 X-38.3770 Y38.3381 
G01 X-38.3155 Y38.4867 
G01 X-38.2261 Y38.6204 
G01 X-38.1124 Y38.7341 
G01 X-37.9787 Y38.8235 
G01 X-37.8301 Y38.8850 
G01 X-37.6724 Y38.9164 
G01 X-35.9876 Y38.9164 
G01 X-35.8299 Y38.8850 
G01 X-35.6813 Y38.8235 
G01 X-35.6303 Y38.7894 
G01 X-33.7725 Y38.7894 
G01 X-33.6700 Y38.8920 
G01 X-33.5030 Y39.0036 
G01 X-33.3174 Y39.0804 
G01 X-33.1204 Y39.1196 
G01 X-32.9196 Y39.1196 
G01 X-32.7226 Y39.0804 
G01 X-32.5370 Y39.0036 
G01 X-32.3700 Y38.8920 
G01 X-32.2280 Y38.7500 
G01 X-32.1164 Y38.5830 
G01 X-32.0396 Y38.3974 
G01 X-32.0004 Y38.2004 
G01 X-32.0004 Y37.9996 
G01 X-32.0396 Y37.8026 
G01 X-32.1164 Y37.6170 
G01 X-32.2280 Y37.4500 
G01 X-32.3700 Y37.3080 
G00 Z2.5400 
G00 X-32.3890 Y39.6956 
G01 Z-0.0500 F254.00 
G01 X-32.0756 Y40.0090 F254.00 
G01 X-31.9060 Y40.4184 
G01 X-31.9060 Y40.8616 
G01 X-32.0756 Y41.2710 
G01 X-32.3890 Y41.5844 
G01 X-32.7984 Y41.7540 
G01 X-33.2416 Y41.7540 
G01 X-33.6510 Y41.5844 
G01 X-33.7798 Y41.4557 
G01 X-33.8090 Y41.4265 
G01 X-33.8116 Y41.4238 
G01 X-35.5586 Y41.4238 
G01 X-35.5694 Y41.4193 
G01 X-35.5802 Y41.4238 
G01 X-35.5919 Y41.4238 
G01 X-35.6002 Y41.4321 
G01 X-35.8868 Y41.5508 
G01 X-37.7732 Y41.5508 
G01 X-38.1079 Y41.4122 
G01 X-38.3642 Y41.1559 
G01 X-38.5028 Y40.8212 
G01 X-38.5028 Y40.4588 
G01 X-38.3642 Y40.1241 
G01 X-38.1079 Y39.8678 
G01 X-37.7732 Y39.7292 
G01 X-35.8868 Y39.7292 
G01 X-35.6002 Y39.8479 
G01 X-35.5919 Y39.8562 
G01 X-35.5802 Y39.8562 
G01 X-35.5694 Y39.8607 
G01 X-35.5586 Y39.8562 
G01 X-33.8116 Y39.8562 
G01 X-33.7798 Y39.8243 
G01 X-33.6510 Y39.6956 
G01 X-33.2416 Y39.5260 
G01 X-32.7984 Y39.5260 
G01 X-32.3890 Y39.6956 
G00 Z2.5400 
G00 X-32.3700 Y39.8480 
G01 Z-0.0500 F254.00 
G01 X-32.5370 Y39.7364 F254.00 
G01 X-32.7226 Y39.6596 
G01 X-32.9196 Y39.6204 
G01 X-33.1204 Y39.6204 
G01 X-33.3174 Y39.6596 
G01 X-33.5030 Y39.7364 
G01 X-33.6700 Y39.8480 
G01 X-33.7725 Y39.9506 
G01 X-35.6303 Y39.9506 
G01 X-35.6813 Y39.9165 
G01 X-35.8299 Y39.8550 
G01 X-35.9876 Y39.8236 
G01 X-37.6724 Y39.8236 
G01 X-37.8301 Y39.8550 
G01 X-37.9787 Y39.9165 
G01 X-38.1124 Y40.0059 
G01 X-38.2261 Y40.1196 
G01 X-38.3155 Y40.2533 
G01 X-38.3770 Y40.4019 
G01 X-38.4084 Y40.5596 
G01 X-38.4084 Y40.7204 
G01 X-38.3770 Y40.8781 
G01 X-38.3155 Y41.0267 
G01 X-38.2261 Y41.1604 
G01 X-38.1124 Y41.2741 
G01 X-37.9787 Y41.3635 
G01 X-37.8301 Y41.4250 
G01 X-37.6724 Y41.4564 
G01 X-35.9876 Y41.4564 
G01 X-35.8299 Y41.4250 
G01 X-35.6813 Y41.3635 
G01 X-35.6303 Y41.3294 
G01 X-33.7725 Y41.3294 
G01 X-33.6700 Y41.4320 
G01 X-33.5030 Y41.5436 
G01 X-33.3174 Y41.6204 
G01 X-33.1204 Y41.6596 
G01 X-32.9196 Y41.6596 
G01 X-32.7226 Y41.6204 
G01 X-32.5370 Y41.5436 
G01 X-32.3700 Y41.4320 
G01 X-32.2280 Y41.2900 
G01 X-32.1164 Y41.1230 
G01 X-32.0396 Y40.9374 
G01 X-32.0004 Y40.7404 
G01 X-32.0004 Y40.5396 
G01 X-32.0396 Y40.3426 
G01 X-32.1164 Y40.1570 
G01 X-32.2280 Y39.9900 
G01 X-32.3700 Y39.8480 
G00 Z2.5400 
G00 X-32.3890 Y42.2356 
G01 Z-0.0500 F254.00 
G01 X-32.0756 Y42.5490 F254.00 
G01 X-31.9060 Y42.9584 
G01 X-31.9060 Y43.4016 
G01 X-32.0756 Y43.8110 
G01 X-32.3890 Y44.1244 
G01 X-32.7984 Y44.2940 
G01 X-33.2416 Y44.2940 
G01 X-33.6510 Y44.1244 
G01 X-33.7798 Y43.9957 
G01 X-33.8090 Y43.9665 
G01 X-33.8116 Y43.9638 
G01 X-35.5586 Y43.9638 
G01 X-35.5694 Y43.9593 
G01 X-35.5802 Y43.9638 
G01 X-35.5919 Y43.9638 
G01 X-35.6002 Y43.9721 
G01 X-35.8868 Y44.0908 
G01 X-37.7732 Y44.0908 
G01 X-38.1079 Y43.9522 
G01 X-38.3642 Y43.6959 
G01 X-38.5028 Y43.3612 
G01 X-38.5028 Y42.9988 
G01 X-38.3642 Y42.6641 
G01 X-38.1079 Y42.4078 
G01 X-37.7732 Y42.2692 
G01 X-35.8868 Y42.2692 
G01 X-35.6002 Y42.3879 
G01 X-35.5919 Y42.3962 
G01 X-35.5802 Y42.3962 
G01 X-35.5694 Y42.4007 
G01 X-35.5586 Y42.3962 
G01 X-33.8116 Y42.3962 
G01 X-33.7798 Y42.3643 
G01 X-33.6510 Y42.2356 
G01 X-33.2416 Y42.0660 
G01 X-32.7984 Y42.0660 
G01 X-32.3890 Y42.2356 
G00 Z2.5400 
G00 X-32.3700 Y42.3880 
G01 Z-0.0500 F254.00 
G01 X-32.5370 Y42.2764 F254.00 
G01 X-32.7226 Y42.1996 
G01 X-32.9196 Y42.1604 
G01 X-33.1204 Y42.1604 
G01 X-33.3174 Y42.1996 
G01 X-33.5030 Y42.2764 
G01 X-33.6700 Y42.3880 
G01 X-33.7725 Y42.4906 
G01 X-35.6303 Y42.4906 
G01 X-35.6813 Y42.4565 
G01 X-35.8299 Y42.3950 
G01 X-35.9876 Y42.3636 
G01 X-37.6724 Y42.3636 
G01 X-37.8301 Y42.3950 
G01 X-37.9787 Y42.4565 
G01 X-38.1124 Y42.5459 
G01 X-38.2261 Y42.6596 
G01 X-38.3155 Y42.7933 
G01 X-38.3770 Y42.9419 
G01 X-38.4084 Y43.0996 
G01 X-38.4084 Y43.2604 
G01 X-38.3770 Y43.4181 
G01 X-38.3155 Y43.5667 
G01 X-38.2261 Y43.7004 
G01 X-38.1124 Y43.8141 
G01 X-37.9787 Y43.9035 
G01 X-37.8301 Y43.9650 
G01 X-37.6724 Y43.9964 
G01 X-35.9876 Y43.9964 
G01 X-35.8299 Y43.9650 
G01 X-35.6813 Y43.9035 
G01 X-35.6303 Y43.8694 
G01 X-33.7725 Y43.8694 
G01 X-33.6700 Y43.9720 
G01 X-33.5030 Y44.0836 
G01 X-33.3174 Y44.1604 
G01 X-33.1204 Y44.1996 
G01 X-32.9196 Y44.1996 
G01 X-32.7226 Y44.1604 
G01 X-32.5370 Y44.0836 
G01 X-32.3700 Y43.9720 
G01 X-32.2280 Y43.8300 
G01 X-32.1164 Y43.6630 
G01 X-32.0396 Y43.4774 
G01 X-32.0004 Y43.2804 
G01 X-32.0004 Y43.0796 
G01 X-32.0396 Y42.8826 
G01 X-32.1164 Y42.6970 
G01 X-32.2280 Y42.5300 
G01 X-32.3700 Y42.3880 
G00 Z2.5400 
G00 X-32.3890 Y44.7756 
G01 Z-0.0500 F254.00 
G01 X-32.0756 Y45.0890 F254.00 
G01 X-31.9060 Y45.4984 
G01 X-31.9060 Y45.9416 
G01 X-32.0756 Y46.3510 
G01 X-32.3890 Y46.6644 
G01 X-32.7984 Y46.8340 
G01 X-33.2416 Y46.8340 
G01 X-33.6510 Y46.6644 
G01 X-33.7798 Y46.5357 
G01 X-33.8090 Y46.5065 
G01 X-33.8116 Y46.5038 
G01 X-35.5586 Y46.5038 
G01 X-35.5694 Y46.4993 
G01 X-35.5802 Y46.5038 
G01 X-35.5919 Y46.5038 
G01 X-35.6002 Y46.5121 
G01 X-35.8868 Y46.6308 
G01 X-37.7732 Y46.6308 
G01 X-38.1079 Y46.4922 
G01 X-38.3642 Y46.2359 
G01 X-38.5028 Y45.9012 
G01 X-38.5028 Y45.5388 
G01 X-38.3642 Y45.2041 
G01 X-38.1079 Y44.9478 
G01 X-37.7732 Y44.8092 
G01 X-35.8868 Y44.8092 
G01 X-35.6002 Y44.9279 
G01 X-35.5919 Y44.9362 
G01 X-35.5802 Y44.9362 
G01 X-35.5694 Y44.9407 
G01 X-35.5586 Y44.9362 
G01 X-33.8116 Y44.9362 
G01 X-33.7798 Y44.9043 
G01 X-33.6510 Y44.7756 
G01 X-33.2416 Y44.6060 
G01 X-32.7984 Y44.6060 
G01 X-32.3890 Y44.7756 
G00 Z2.5400 
G00 X-32.3700 Y44.9280 
G01 Z-0.0500 F254.00 
G01 X-32.5370 Y44.8164 F254.00 
G01 X-32.7226 Y44.7396 
G01 X-32.9196 Y44.7004 
G01 X-33.1204 Y44.7004 
G01 X-33.3174 Y44.7396 
G01 X-33.5030 Y44.8164 
G01 X-33.6700 Y44.9280 
G01 X-33.7725 Y45.0306 
G01 X-35.6303 Y45.0306 
G01 X-35.6813 Y44.9965 
G01 X-35.8299 Y44.9350 
G01 X-35.9876 Y44.9036 
G01 X-37.6724 Y44.9036 
G01 X-37.8301 Y44.9350 
G01 X-37.9787 Y44.9965 
G01 X-38.1124 Y45.0859 
G01 X-38.2261 Y45.1996 
G01 X-38.3155 Y45.3333 
G01 X-38.3770 Y45.4819 
G01 X-38.4084 Y45.6396 
G01 X-38.4084 Y45.8004 
G01 X-38.3770 Y45.9581 
G01 X-38.3155 Y46.1067 
G01 X-38.2261 Y46.2404 
G01 X-38.1124 Y46.3541 
G01 X-37.9787 Y46.4435 
G01 X-37.8301 Y46.5050 
G01 X-37.6724 Y46.5364 
G01 X-35.9876 Y46.5364 
G01 X-35.8299 Y46.5050 
G01 X-35.6813 Y46.4435 
G01 X-35.6303 Y46.4094 
G01 X-33.7725 Y46.4094 
G01 X-33.6700 Y46.5120 
G01 X-33.5030 Y46.6236 
G01 X-33.3174 Y46.7004 
G01 X-33.1204 Y46.7396 
G01 X-32.9196 Y46.7396 
G01 X-32.7226 Y46.7004 
G01 X-32.5370 Y46.6236 
G01 X-32.3700 Y46.5120 
G01 X-32.2280 Y46.3700 
G01 X-32.1164 Y46.2030 
G01 X-32.0396 Y46.0174 
G01 X-32.0004 Y45.8204 
G01 X-32.0004 Y45.6196 
G01 X-32.0396 Y45.4226 
G01 X-32.1164 Y45.2370 
G01 X-32.2280 Y45.0700 
G01 X-32.3700 Y44.9280 
G00 Z2.5400 
G00 X-32.3890 Y31.4244 
G01 Z-0.0500 F254.00 
G01 X-32.7984 Y31.5940 F254.00 
G01 X-33.2416 Y31.5940 
G01 X-33.6510 Y31.4244 
G01 X-33.8116 Y31.2638 
G01 X-35.5586 Y31.2638 
G01 X-35.5694 Y31.2593 
G01 X-35.5802 Y31.2638 
G01 X-35.5919 Y31.2638 
G01 X-35.6002 Y31.2721 
G01 X-35.8868 Y31.3908 
G01 X-37.7732 Y31.3908 
G01 X-38.1079 Y31.2522 
G01 X-38.3642 Y30.9959 
G01 X-38.5028 Y30.6612 
G01 X-38.5028 Y30.2988 
G01 X-38.3642 Y29.9641 
G01 X-38.1079 Y29.7078 
G01 X-37.7732 Y29.5692 
G01 X-35.8868 Y29.5692 
G01 X-35.6002 Y29.6879 
G01 X-35.5919 Y29.6962 
G01 X-35.5802 Y29.6962 
G01 X-35.5694 Y29.7007 
G01 X-35.5586 Y29.6962 
G01 X-33.8116 Y29.6962 
G01 X-33.7798 Y29.6643 
G01 X-33.6510 Y29.5356 
G01 X-33.2416 Y29.3660 
G01 X-32.7984 Y29.3660 
G01 X-32.3890 Y29.5356 
G01 X-32.0756 Y29.8490 
G01 X-31.9060 Y30.2584 
G01 X-31.9060 Y30.7016 
G01 X-32.0756 Y31.1110 
G01 X-32.3890 Y31.4244 
G00 Z2.5400 
G00 X-32.3700 Y31.2720 
G01 Z-0.0500 F254.00 
G01 X-32.2280 Y31.1300 F254.00 
G01 X-32.1164 Y30.9630 
G01 X-32.0396 Y30.7774 
G01 X-32.0004 Y30.5804 
G01 X-32.0004 Y30.3796 
G01 X-32.0396 Y30.1826 
G01 X-32.1164 Y29.9970 
G01 X-32.2280 Y29.8300 
G01 X-32.3700 Y29.6880 
G01 X-32.5370 Y29.5764 
G01 X-32.7226 Y29.4996 
G01 X-32.9196 Y29.4604 
G01 X-33.1204 Y29.4604 
G01 X-33.3174 Y29.4996 
G01 X-33.5030 Y29.5764 
G01 X-33.6700 Y29.6880 
G01 X-33.7725 Y29.7906 
G01 X-35.6303 Y29.7906 
G01 X-35.6813 Y29.7565 
G01 X-35.8299 Y29.6950 
G01 X-35.9876 Y29.6636 
G01 X-37.6724 Y29.6636 
G01 X-37.8301 Y29.6950 
G01 X-37.9787 Y29.7565 
G01 X-38.1124 Y29.8459 
G01 X-38.2261 Y29.9596 
G01 X-38.3155 Y30.0933 
G01 X-38.3770 Y30.2419 
G01 X-38.4084 Y30.3996 
G01 X-38.4084 Y30.5604 
G01 X-38.3770 Y30.7181 
G01 X-38.3155 Y30.8667 
G01 X-38.2261 Y31.0004 
G01 X-38.1124 Y31.1141 
G01 X-37.9787 Y31.2035 
G01 X-37.8301 Y31.2650 
G01 X-37.6724 Y31.2964 
G01 X-35.9876 Y31.2964 
G01 X-35.8299 Y31.2650 
G01 X-35.6813 Y31.2035 
G01 X-35.6303 Y31.1694 
G01 X-33.7725 Y31.1694 
G01 X-33.6700 Y31.2720 
G01 X-33.5030 Y31.3836 
G01 X-33.3174 Y31.4604 
G01 X-33.1204 Y31.4996 
G01 X-32.9196 Y31.4996 
G01 X-32.7226 Y31.4604 
G01 X-32.5370 Y31.3836 
G01 X-32.3700 Y31.2720 
G00 Z2.5400 
G00 X-32.3890 Y28.8844 
G01 Z-0.0500 F254.00 
G01 X-32.7984 Y29.0540 F254.00 
G01 X-33.2416 Y29.0540 
G01 X-33.6510 Y28.8844 
G01 X-33.8116 Y28.7238 
G01 X-33.8567 Y28.7238 
G01 X-35.5586 Y28.7238 
G01 X-35.5694 Y28.7193 
G01 X-35.5802 Y28.7238 
G01 X-35.5919 Y28.7238 
G01 X-35.6002 Y28.7321 
G01 X-35.8868 Y28.8508 
G01 X-37.7732 Y28.8508 
G01 X-38.1079 Y28.7122 
G01 X-38.3642 Y28.4559 
G01 X-38.5028 Y28.1212 
G01 X-38.5028 Y27.7588 
G01 X-38.3642 Y27.4241 
G01 X-38.1079 Y27.1678 
G01 X-37.7732 Y27.0292 
G01 X-35.8868 Y27.0292 
G01 X-35.6002 Y27.1479 
G01 X-35.5919 Y27.1562 
G01 X-35.5802 Y27.1562 
G01 X-35.5694 Y27.1607 
G01 X-35.5586 Y27.1562 
G01 X-33.8116 Y27.1562 
G01 X-33.7798 Y27.1243 
G01 X-33.6510 Y26.9956 
G01 X-33.2416 Y26.8260 
G01 X-32.7984 Y26.8260 
G01 X-32.3890 Y26.9956 
G01 X-32.0756 Y27.3090 
G01 X-31.9060 Y27.7184 
G01 X-31.9060 Y28.1616 
G01 X-32.0756 Y28.5710 
G01 X-32.3890 Y28.8844 
G00 Z2.5400 
G00 X-32.3700 Y28.7320 
G01 Z-0.0500 F254.00 
G01 X-32.2280 Y28.5900 F254.00 
G01 X-32.1164 Y28.4230 
G01 X-32.0396 Y28.2374 
G01 X-32.0004 Y28.0404 
G01 X-32.0004 Y27.8396 
G01 X-32.0396 Y27.6426 
G01 X-32.1164 Y27.4570 
G01 X-32.2280 Y27.2900 
G01 X-32.3700 Y27.1480 
G01 X-32.5370 Y27.0364 
G01 X-32.7226 Y26.9596 
G01 X-32.9196 Y26.9204 
G01 X-33.1204 Y26.9204 
G01 X-33.3174 Y26.9596 
G01 X-33.5030 Y27.0364 
G01 X-33.6700 Y27.1480 
G01 X-33.7725 Y27.2506 
G01 X-35.6303 Y27.2506 
G01 X-35.6813 Y27.2165 
G01 X-35.8299 Y27.1550 
G01 X-35.9876 Y27.1236 
G01 X-37.6724 Y27.1236 
G01 X-37.8301 Y27.1550 
G01 X-37.9787 Y27.2165 
G01 X-38.1124 Y27.3059 
G01 X-38.2261 Y27.4196 
G01 X-38.3155 Y27.5533 
G01 X-38.3770 Y27.7019 
G01 X-38.4084 Y27.8596 
G01 X-38.4084 Y28.0204 
G01 X-38.3770 Y28.1781 
G01 X-38.3155 Y28.3267 
G01 X-38.2261 Y28.4604 
G01 X-38.1124 Y28.5741 
G01 X-37.9787 Y28.6635 
G01 X-37.8301 Y28.7250 
G01 X-37.6724 Y28.7564 
G01 X-35.9876 Y28.7564 
G01 X-35.8299 Y28.7250 
G01 X-35.6813 Y28.6635 
G01 X-35.6303 Y28.6294 
G01 X-33.7725 Y28.6294 
G01 X-33.6700 Y28.7320 
G01 X-33.5030 Y28.8436 
G01 X-33.3174 Y28.9204 
G01 X-33.1204 Y28.9596 
G01 X-32.9196 Y28.9596 
G01 X-32.7226 Y28.9204 
G01 X-32.5370 Y28.8436 
G01 X-32.3700 Y28.7320 
G00 Z2.5400 
G00 X-32.3890 Y26.3444 
G01 Z-0.0500 F254.00 
G01 X-32.7984 Y26.5140 F254.00 
G01 X-33.2416 Y26.5140 
G01 X-33.6510 Y26.3444 
G01 X-33.8116 Y26.1838 
G01 X-35.5586 Y26.1838 
G01 X-35.5694 Y26.1793 
G01 X-35.5802 Y26.1838 
G01 X-35.5919 Y26.1838 
G01 X-35.6002 Y26.1921 
G01 X-35.8868 Y26.3108 
G01 X-37.7732 Y26.3108 
G01 X-38.1079 Y26.1722 
G01 X-38.3642 Y25.9159 
G01 X-38.5028 Y25.5812 
G01 X-38.5028 Y25.2188 
G01 X-38.3642 Y24.8841 
G01 X-38.1079 Y24.6278 
G01 X-37.7732 Y24.4892 
G01 X-35.8868 Y24.4892 
G01 X-35.6002 Y24.6079 
G01 X-35.5919 Y24.6162 
G01 X-35.5802 Y24.6162 
G01 X-35.5694 Y24.6207 
G01 X-35.5586 Y24.6162 
G01 X-33.8116 Y24.6162 
G01 X-33.7798 Y24.5843 
G01 X-33.6510 Y24.4556 
G01 X-33.2416 Y24.2860 
G01 X-32.7984 Y24.2860 
G01 X-32.3890 Y24.4556 
G01 X-32.0756 Y24.7690 
G01 X-31.9060 Y25.1784 
G01 X-31.9060 Y25.6216 
G01 X-32.0756 Y26.0310 
G01 X-32.3890 Y26.3444 
G00 Z2.5400 
G00 X-32.3700 Y26.1920 
G01 Z-0.0500 F254.00 
G01 X-32.2280 Y26.0500 F254.00 
G01 X-32.1164 Y25.8830 
G01 X-32.0396 Y25.6974 
G01 X-32.0004 Y25.5004 
G01 X-32.0004 Y25.2996 
G01 X-32.0396 Y25.1026 
G01 X-32.1164 Y24.9170 
G01 X-32.2280 Y24.7500 
G01 X-32.3700 Y24.6080 
G01 X-32.5370 Y24.4964 
G01 X-32.7226 Y24.4196 
G01 X-32.9196 Y24.3804 
G01 X-33.1204 Y24.3804 
G01 X-33.3174 Y24.4196 
G01 X-33.5030 Y24.4964 
G01 X-33.6700 Y24.6080 
G01 X-33.7725 Y24.7106 
G01 X-35.6303 Y24.7106 
G01 X-35.6813 Y24.6765 
G01 X-35.8299 Y24.6150 
G01 X-35.9876 Y24.5836 
G01 X-37.6724 Y24.5836 
G01 X-37.8301 Y24.6150 
G01 X-37.9787 Y24.6765 
G01 X-38.1124 Y24.7659 
G01 X-38.2261 Y24.8796 
G01 X-38.3155 Y25.0133 
G01 X-38.3770 Y25.1619 
G01 X-38.4084 Y25.3196 
G01 X-38.4084 Y25.4804 
G01 X-38.3770 Y25.6381 
G01 X-38.3155 Y25.7867 
G01 X-38.2261 Y25.9204 
G01 X-38.1124 Y26.0341 
G01 X-37.9787 Y26.1235 
G01 X-37.8301 Y26.1850 
G01 X-37.6724 Y26.2164 
G01 X-35.9876 Y26.2164 
G01 X-35.8299 Y26.1850 
G01 X-35.6813 Y26.1235 
G01 X-35.6303 Y26.0894 
G01 X-33.7725 Y26.0894 
G01 X-33.6700 Y26.1920 
G01 X-33.5030 Y26.3036 
G01 X-33.3174 Y26.3804 
G01 X-33.1204 Y26.4196 
G01 X-32.9196 Y26.4196 
G01 X-32.7226 Y26.3804 
G01 X-32.5370 Y26.3036 
G01 X-32.3700 Y26.1920 
G00 Z2.5400 
G00 X-32.3890 Y23.8044 
G01 Z-0.0500 F254.00 
G01 X-32.7984 Y23.9740 F254.00 
G01 X-33.2416 Y23.9740 
G01 X-33.6510 Y23.8044 
G01 X-33.8116 Y23.6438 
G01 X-33.8567 Y23.6438 
G01 X-35.5586 Y23.6438 
G01 X-35.5694 Y23.6393 
G01 X-35.5802 Y23.6438 
G01 X-35.5919 Y23.6438 
G01 X-35.6002 Y23.6521 
G01 X-35.8868 Y23.7708 
G01 X-37.7732 Y23.7708 
G01 X-38.1079 Y23.6322 
G01 X-38.3642 Y23.3759 
G01 X-38.5028 Y23.0412 
G01 X-38.5028 Y22.6788 
G01 X-38.3642 Y22.3441 
G01 X-38.1079 Y22.0878 
G01 X-37.7732 Y21.9492 
G01 X-35.8868 Y21.9492 
G01 X-35.6002 Y22.0679 
G01 X-35.5919 Y22.0762 
G01 X-35.5802 Y22.0762 
G01 X-35.5694 Y22.0807 
G01 X-35.5586 Y22.0762 
G01 X-33.8116 Y22.0762 
G01 X-33.7798 Y22.0443 
G01 X-33.6510 Y21.9156 
G01 X-33.2416 Y21.7460 
G01 X-32.7984 Y21.7460 
G01 X-32.3890 Y21.9156 
G01 X-32.0756 Y22.2290 
G01 X-31.9060 Y22.6384 
G01 X-31.9060 Y23.0816 
G01 X-32.0756 Y23.4910 
G01 X-32.3890 Y23.8044 
G00 Z2.5400 
G00 X-32.3700 Y23.6520 
G01 Z-0.0500 F254.00 
G01 X-32.2280 Y23.5100 F254.00 
G01 X-32.1164 Y23.3430 
G01 X-32.0396 Y23.1574 
G01 X-32.0004 Y22.9604 
G01 X-32.0004 Y22.7596 
G01 X-32.0396 Y22.5626 
G01 X-32.1164 Y22.3770 
G01 X-32.2280 Y22.2100 
G01 X-32.3700 Y22.0680 
G01 X-32.5370 Y21.9564 
G01 X-32.7226 Y21.8796 
G01 X-32.9196 Y21.8404 
G01 X-33.1204 Y21.8404 
G01 X-33.3174 Y21.8796 
G01 X-33.5030 Y21.9564 
G01 X-33.6700 Y22.0680 
G01 X-33.7725 Y22.1706 
G01 X-35.6303 Y22.1706 
G01 X-35.6813 Y22.1365 
G01 X-35.8299 Y22.0750 
G01 X-35.9876 Y22.0436 
G01 X-37.6724 Y22.0436 
G01 X-37.8301 Y22.0750 
G01 X-37.9787 Y22.1365 
G01 X-38.1124 Y22.2259 
G01 X-38.2261 Y22.3396 
G01 X-38.3155 Y22.4733 
G01 X-38.3770 Y22.6219 
G01 X-38.4084 Y22.7796 
G01 X-38.4084 Y22.9404 
G01 X-38.3770 Y23.0981 
G01 X-38.3155 Y23.2467 
G01 X-38.2261 Y23.3804 
G01 X-38.1124 Y23.4941 
G01 X-37.9787 Y23.5835 
G01 X-37.8301 Y23.6450 
G01 X-37.6724 Y23.6764 
G01 X-35.9876 Y23.6764 
G01 X-35.8299 Y23.6450 
G01 X-35.6813 Y23.5835 
G01 X-35.6303 Y23.5494 
G01 X-33.7725 Y23.5494 
G01 X-33.6700 Y23.6520 
G01 X-33.5030 Y23.7636 
G01 X-33.3174 Y23.8404 
G01 X-33.1204 Y23.8796 
G01 X-32.9196 Y23.8796 
G01 X-32.7226 Y23.8404 
G01 X-32.5370 Y23.7636 
G01 X-32.3700 Y23.6520 
G00 Z2.5400 
G00 X-32.3890 Y21.2644 
G01 Z-0.0500 F254.00 
G01 X-32.7984 Y21.4340 F254.00 
G01 X-33.2416 Y21.4340 
G01 X-33.6510 Y21.2644 
G01 X-33.8116 Y21.1038 
G01 X-35.5586 Y21.1038 
G01 X-35.5694 Y21.0993 
G01 X-35.5802 Y21.1038 
G01 X-35.5919 Y21.1038 
G01 X-35.6002 Y21.1121 
G01 X-35.8868 Y21.2308 
G01 X-37.7732 Y21.2308 
G01 X-38.1079 Y21.0922 
G01 X-38.3642 Y20.8359 
G01 X-38.5028 Y20.5012 
G01 X-38.5028 Y20.1388 
G01 X-38.3642 Y19.8041 
G01 X-38.1079 Y19.5478 
G01 X-37.7732 Y19.4092 
G01 X-35.8868 Y19.4092 
G01 X-35.6002 Y19.5279 
G01 X-35.5919 Y19.5362 
G01 X-35.5802 Y19.5362 
G01 X-35.5694 Y19.5407 
G01 X-35.5586 Y19.5362 
G01 X-33.8116 Y19.5362 
G01 X-33.7798 Y19.5043 
G01 X-33.6510 Y19.3756 
G01 X-33.2416 Y19.2060 
G01 X-32.7984 Y19.2060 
G01 X-32.3890 Y19.3756 
G01 X-32.0756 Y19.6890 
G01 X-31.9060 Y20.0984 
G01 X-31.9060 Y20.5416 
G01 X-32.0756 Y20.9510 
G01 X-32.3890 Y21.2644 
G00 Z2.5400 
G00 X-32.3700 Y21.1120 
G01 Z-0.0500 F254.00 
G01 X-32.2280 Y20.9700 F254.00 
G01 X-32.1164 Y20.8030 
G01 X-32.0396 Y20.6174 
G01 X-32.0004 Y20.4204 
G01 X-32.0004 Y20.2196 
G01 X-32.0396 Y20.0226 
G01 X-32.1164 Y19.8370 
G01 X-32.2280 Y19.6700 
G01 X-32.3700 Y19.5280 
G01 X-32.5370 Y19.4164 
G01 X-32.7226 Y19.3396 
G01 X-32.9196 Y19.3004 
G01 X-33.1204 Y19.3004 
G01 X-33.3174 Y19.3396 
G01 X-33.5030 Y19.4164 
G01 X-33.6700 Y19.5280 
G01 X-33.7725 Y19.6306 
G01 X-35.6303 Y19.6306 
G01 X-35.6813 Y19.5965 
G01 X-35.8299 Y19.5350 
G01 X-35.9876 Y19.5036 
G01 X-37.6724 Y19.5036 
G01 X-37.8301 Y19.5350 
G01 X-37.9787 Y19.5965 
G01 X-38.1124 Y19.6859 
G01 X-38.2261 Y19.7996 
G01 X-38.3155 Y19.9333 
G01 X-38.3770 Y20.0819 
G01 X-38.4084 Y20.2396 
G01 X-38.4084 Y20.4004 
G01 X-38.3770 Y20.5581 
G01 X-38.3155 Y20.7067 
G01 X-38.2261 Y20.8404 
G01 X-38.1124 Y20.9541 
G01 X-37.9787 Y21.0435 
G01 X-37.8301 Y21.1050 
G01 X-37.6724 Y21.1364 
G01 X-35.9876 Y21.1364 
G01 X-35.8299 Y21.1050 
G01 X-35.6813 Y21.0435 
G01 X-35.6303 Y21.0094 
G01 X-33.7725 Y21.0094 
G01 X-33.6700 Y21.1120 
G01 X-33.5030 Y21.2236 
G01 X-33.3174 Y21.3004 
G01 X-33.1204 Y21.3396 
G01 X-32.9196 Y21.3396 
G01 X-32.7226 Y21.3004 
G01 X-32.5370 Y21.2236 
G01 X-32.3700 Y21.1120 
G00 Z2.5400 
G00 X-32.3890 Y16.1844 
G01 Z-0.0500 F254.00 
G01 X-32.7984 Y16.3540 F254.00 
G01 X-33.2416 Y16.3540 
G01 X-33.6510 Y16.1844 
G01 X-33.8116 Y16.0238 
G01 X-33.8567 Y16.0238 
G01 X-35.5586 Y16.0238 
G01 X-35.5694 Y16.0193 
G01 X-35.5802 Y16.0238 
G01 X-35.5919 Y16.0238 
G01 X-35.6002 Y16.0321 
G01 X-35.8868 Y16.1508 
G01 X-37.7732 Y16.1508 
G01 X-38.1079 Y16.0121 
G01 X-38.3642 Y15.7559 
G01 X-38.5028 Y15.4212 
G01 X-38.5028 Y15.0588 
G01 X-38.3642 Y14.7241 
G01 X-38.1079 Y14.4678 
G01 X-37.7732 Y14.3292 
G01 X-35.8868 Y14.3292 
G01 X-35.6002 Y14.4479 
G01 X-35.5919 Y14.4562 
G01 X-35.5802 Y14.4562 
G01 X-35.5694 Y14.4607 
G01 X-35.5586 Y14.4562 
G01 X-33.8116 Y14.4562 
G01 X-33.7798 Y14.4243 
G01 X-33.6510 Y14.2956 
G01 X-33.2416 Y14.1260 
G01 X-32.7984 Y14.1260 
G01 X-32.3890 Y14.2956 
G01 X-32.0756 Y14.6090 
G01 X-31.9060 Y15.0184 
G01 X-31.9060 Y15.4616 
G01 X-32.0756 Y15.8710 
G01 X-32.3890 Y16.1844 
G00 Z2.5400 
G00 X-32.3700 Y16.0320 
G01 Z-0.0500 F254.00 
G01 X-32.2280 Y15.8900 F254.00 
G01 X-32.1164 Y15.7230 
G01 X-32.0396 Y15.5374 
G01 X-32.0004 Y15.3404 
G01 X-32.0004 Y15.1396 
G01 X-32.0396 Y14.9426 
G01 X-32.1164 Y14.7570 
G01 X-32.2280 Y14.5900 
G01 X-32.3700 Y14.4480 
G01 X-32.5370 Y14.3364 
G01 X-32.7226 Y14.2596 
G01 X-32.9196 Y14.2204 
G01 X-33.1204 Y14.2204 
G01 X-33.3174 Y14.2596 
G01 X-33.5030 Y14.3364 
G01 X-33.6700 Y14.4480 
G01 X-33.7725 Y14.5506 
G01 X-35.6303 Y14.5506 
G01 X-35.6813 Y14.5165 
G01 X-35.8299 Y14.4550 
G01 X-35.9876 Y14.4236 
G01 X-37.6724 Y14.4236 
G01 X-37.8301 Y14.4550 
G01 X-37.9787 Y14.5165 
G01 X-38.1124 Y14.6059 
G01 X-38.2261 Y14.7196 
G01 X-38.3155 Y14.8533 
G01 X-38.3770 Y15.0019 
G01 X-38.4084 Y15.1596 
G01 X-38.4084 Y15.3204 
G01 X-38.3770 Y15.4781 
G01 X-38.3155 Y15.6267 
G01 X-38.2261 Y15.7604 
G01 X-38.1124 Y15.8741 
G01 X-37.9787 Y15.9635 
G01 X-37.8301 Y16.0250 
G01 X-37.6724 Y16.0564 
G01 X-35.9876 Y16.0564 
G01 X-35.8299 Y16.0250 
G01 X-35.6813 Y15.9635 
G01 X-35.6303 Y15.9294 
G01 X-33.7725 Y15.9294 
G01 X-33.6700 Y16.0320 
G01 X-33.5030 Y16.1436 
G01 X-33.3174 Y16.2204 
G01 X-33.1204 Y16.2596 
G01 X-32.9196 Y16.2596 
G01 X-32.7226 Y16.2204 
G01 X-32.5370 Y16.1436 
G01 X-32.3700 Y16.0320 
G00 Z2.5400 
G00 X-32.3890 Y13.6444 
G01 Z-0.0500 F254.00 
G01 X-32.7984 Y13.8140 F254.00 
G01 X-33.2416 Y13.8140 
G01 X-33.6510 Y13.6444 
G01 X-33.8116 Y13.4838 
G01 X-33.8567 Y13.4838 
G01 X-35.5586 Y13.4838 
G01 X-35.5694 Y13.4793 
G01 X-35.5802 Y13.4838 
G01 X-35.5919 Y13.4838 
G01 X-35.6002 Y13.4921 
G01 X-35.8868 Y13.6108 
G01 X-37.7732 Y13.6108 
G01 X-38.0598 Y13.4921 
G01 X-38.0681 Y13.4838 
G01 X-38.0798 Y13.4838 
G01 X-38.0906 Y13.4793 
G01 X-38.1014 Y13.4838 
G01 X-41.2228 Y13.4838 
G01 X-41.2336 Y13.4793 
G01 X-41.2444 Y13.4838 
G01 X-41.2561 Y13.4838 
G01 X-41.2644 Y13.4921 
G01 X-41.2903 Y13.5028 
G01 X-41.6097 Y13.5028 
G01 X-41.9048 Y13.3806 
G01 X-42.1306 Y13.1548 
G01 X-42.2528 Y12.8597 
G01 X-42.2528 Y12.5403 
G01 X-42.1306 Y12.2452 
G01 X-41.9048 Y12.0194 
G01 X-41.6097 Y11.8972 
G01 X-41.2903 Y11.8972 
G01 X-41.2644 Y11.9079 
G01 X-41.2561 Y11.9162 
G01 X-41.2444 Y11.9162 
G01 X-41.2336 Y11.9207 
G01 X-41.2228 Y11.9162 
G01 X-38.1014 Y11.9162 
G01 X-38.0906 Y11.9207 
G01 X-38.0798 Y11.9162 
G01 X-38.0681 Y11.9162 
G01 X-38.0598 Y11.9079 
G01 X-37.7732 Y11.7892 
G01 X-35.8868 Y11.7892 
G01 X-35.6002 Y11.9079 
G01 X-35.5919 Y11.9162 
G01 X-35.5802 Y11.9162 
G01 X-35.5694 Y11.9207 
G01 X-35.5586 Y11.9162 
G01 X-33.8116 Y11.9162 
G01 X-33.7798 Y11.8843 
G01 X-33.6510 Y11.7556 
G01 X-33.2416 Y11.5860 
G01 X-32.7984 Y11.5860 
G01 X-32.3890 Y11.7556 
G01 X-32.0756 Y12.0690 
G01 X-31.9060 Y12.4784 
G01 X-31.9060 Y12.9216 
G01 X-32.0756 Y13.3310 
G01 X-32.3890 Y13.6444 
G00 Z2.5400 
G00 X-32.3700 Y13.4920 
G01 Z-0.0500 F254.00 
G01 X-32.2280 Y13.3500 F254.00 
G01 X-32.1164 Y13.1830 
G01 X-32.0396 Y12.9974 
G01 X-32.0004 Y12.8004 
G01 X-32.0004 Y12.5996 
G01 X-32.0396 Y12.4026 
G01 X-32.1164 Y12.2170 
G01 X-32.2280 Y12.0500 
G01 X-32.3700 Y11.9080 
G01 X-32.5370 Y11.7964 
G01 X-32.7226 Y11.7196 
G01 X-32.9196 Y11.6804 
G01 X-33.1204 Y11.6804 
G01 X-33.3174 Y11.7196 
G01 X-33.5030 Y11.7964 
G01 X-33.6700 Y11.9080 
G01 X-33.7725 Y12.0106 
G01 X-35.6303 Y12.0106 
G01 X-35.6813 Y11.9765 
G01 X-35.8299 Y11.9150 
G01 X-35.9876 Y11.8836 
G01 X-37.6724 Y11.8836 
G01 X-37.8301 Y11.9150 
G01 X-37.9787 Y11.9765 
G01 X-38.0297 Y12.0106 
G01 X-41.2847 Y12.0106 
G01 X-41.3802 Y11.9916 
G01 X-41.5198 Y11.9916 
G01 X-41.6566 Y12.0188 
G01 X-41.7856 Y12.0722 
G01 X-41.9016 Y12.1497 
G01 X-42.0002 Y12.2484 
G01 X-42.0778 Y12.3644 
G01 X-42.1312 Y12.4934 
G01 X-42.1584 Y12.6302 
G01 X-42.1584 Y12.7698 
G01 X-42.1312 Y12.9066 
G01 X-42.0778 Y13.0356 
G01 X-42.0002 Y13.1516 
G01 X-41.9016 Y13.2502 
G01 X-41.7856 Y13.3278 
G01 X-41.6566 Y13.3812 
G01 X-41.5198 Y13.4084 
G01 X-41.3802 Y13.4084 
G01 X-41.2847 Y13.3894 
G01 X-38.0297 Y13.3894 
G01 X-37.9787 Y13.4235 
G01 X-37.8301 Y13.4850 
G01 X-37.6724 Y13.5164 
G01 X-35.9876 Y13.5164 
G01 X-35.8299 Y13.4850 
G01 X-35.6813 Y13.4235 
G01 X-35.6303 Y13.3894 
G01 X-33.7725 Y13.3894 
G01 X-33.6700 Y13.4920 
G01 X-33.5030 Y13.6036 
G01 X-33.3174 Y13.6804 
G01 X-33.1204 Y13.7196 
G01 X-32.9196 Y13.7196 
G01 X-32.7226 Y13.6804 
G01 X-32.5370 Y13.6036 
G01 X-32.3700 Y13.4920 
G00 Z2.5400 
G00 X-32.3890 Y11.1044 
G01 Z-0.0500 F254.00 
G01 X-32.7984 Y11.2740 F254.00 
G01 X-33.2416 Y11.2740 
G01 X-33.6510 Y11.1044 
G01 X-33.8116 Y10.9438 
G01 X-35.5586 Y10.9438 
G01 X-35.5694 Y10.9393 
G01 X-35.5802 Y10.9438 
G01 X-35.5919 Y10.9438 
G01 X-35.6002 Y10.9521 
G01 X-35.8868 Y11.0708 
G01 X-37.7732 Y11.0708 
G01 X-38.0598 Y10.9521 
G01 X-38.0681 Y10.9438 
G01 X-38.0798 Y10.9438 
G01 X-38.0906 Y10.9393 
G01 X-38.1014 Y10.9438 
G01 X-42.6343 Y10.9438 
G01 X-42.6662 Y10.9757 
G01 X-42.6662 Y12.4728 
G01 X-42.6707 Y12.4836 
G01 X-42.6662 Y12.4944 
G01 X-42.6662 Y12.5062 
G01 X-42.6579 Y12.5144 
G01 X-42.6472 Y12.5403 
G01 X-42.6472 Y12.8597 
G01 X-42.7694 Y13.1548 
G01 X-42.9952 Y13.3806 
G01 X-43.2903 Y13.5028 
G01 X-43.6097 Y13.5028 
G01 X-43.9048 Y13.3806 
G01 X-44.1306 Y13.1548 
G01 X-44.2528 Y12.8597 
G01 X-44.2528 Y12.5403 
G01 X-44.2421 Y12.5144 
G01 X-44.2338 Y12.5062 
G01 X-44.2338 Y12.4944 
G01 X-44.2293 Y12.4836 
G01 X-44.2338 Y12.4728 
G01 X-44.2338 Y10.0041 
G01 X-44.1145 Y9.7160 
G01 X-43.8940 Y9.4955 
G01 X-43.6059 Y9.3762 
G01 X-38.1014 Y9.3762 
G01 X-38.0906 Y9.3807 
G01 X-38.0798 Y9.3762 
G01 X-38.0681 Y9.3762 
G01 X-38.0598 Y9.3679 
G01 X-37.7732 Y9.2492 
G01 X-35.8868 Y9.2492 
G01 X-35.6002 Y9.3679 
G01 X-35.5919 Y9.3762 
G01 X-35.5802 Y9.3762 
G01 X-35.5694 Y9.3807 
G01 X-35.5586 Y9.3762 
G01 X-33.8116 Y9.3762 
G01 X-33.7798 Y9.3443 
G01 X-33.6510 Y9.2156 
G01 X-33.2416 Y9.0460 
G01 X-32.7984 Y9.0460 
G01 X-32.3890 Y9.2156 
G01 X-32.0756 Y9.5290 
G01 X-31.9060 Y9.9384 
G01 X-31.9060 Y10.3816 
G01 X-32.0756 Y10.7910 
G01 X-32.3890 Y11.1044 
G00 Z2.5400 
G00 X-32.3700 Y10.9520 
G01 Z-0.0500 F254.00 
G01 X-32.2280 Y10.8100 F254.00 
G01 X-32.1164 Y10.6430 
G01 X-32.0396 Y10.4574 
G01 X-32.0004 Y10.2604 
G01 X-32.0004 Y10.0596 
G01 X-32.0396 Y9.8626 
G01 X-32.1164 Y9.6770 
G01 X-32.2280 Y9.5100 
G01 X-32.3700 Y9.3680 
G01 X-32.5370 Y9.2564 
G01 X-32.7226 Y9.1796 
G01 X-32.9196 Y9.1404 
G01 X-33.1204 Y9.1404 
G01 X-33.3174 Y9.1796 
G01 X-33.5030 Y9.2564 
G01 X-33.6700 Y9.3680 
G01 X-33.7725 Y9.4706 
G01 X-35.6303 Y9.4706 
G01 X-35.6813 Y9.4365 
G01 X-35.8299 Y9.3750 
G01 X-35.9876 Y9.3436 
G01 X-37.6724 Y9.3436 
G01 X-37.8301 Y9.3750 
G01 X-37.9787 Y9.4365 
G01 X-38.0297 Y9.4706 
G01 X-43.5179 Y9.4706 
G01 X-43.6511 Y9.4971 
G01 X-43.7766 Y9.5491 
G01 X-43.8895 Y9.6245 
G01 X-43.9855 Y9.7205 
G01 X-44.0609 Y9.8334 
G01 X-44.1129 Y9.9589 
G01 X-44.1394 Y10.0921 
G01 X-44.1394 Y12.5347 
G01 X-44.1584 Y12.6302 
G01 X-44.1584 Y12.7698 
G01 X-44.1312 Y12.9066 
G01 X-44.0778 Y13.0356 
G01 X-44.0002 Y13.1516 
G01 X-43.9016 Y13.2502 
G01 X-43.7856 Y13.3278 
G01 X-43.6566 Y13.3812 
G01 X-43.5198 Y13.4084 
G01 X-43.3802 Y13.4084 
G01 X-43.2434 Y13.3812 
G01 X-43.1144 Y13.3278 
G01 X-42.9984 Y13.2502 
G01 X-42.8997 Y13.1516 
G01 X-42.8222 Y13.0356 
G01 X-42.7688 Y12.9066 
G01 X-42.7416 Y12.7698 
G01 X-42.7416 Y12.6302 
G01 X-42.7606 Y12.5347 
G01 X-42.7606 Y10.8494 
G01 X-38.0297 Y10.8494 
G01 X-37.9787 Y10.8835 
G01 X-37.8301 Y10.9450 
G01 X-37.6724 Y10.9764 
G01 X-35.9876 Y10.9764 
G01 X-35.8299 Y10.9450 
G01 X-35.6813 Y10.8835 
G01 X-35.6303 Y10.8494 
G01 X-33.7725 Y10.8494 
G01 X-33.6700 Y10.9520 
G01 X-33.5030 Y11.0636 
G01 X-33.3174 Y11.1404 
G01 X-33.1204 Y11.1796 
G01 X-32.9196 Y11.1796 
G01 X-32.7226 Y11.1404 
G01 X-32.5370 Y11.0636 
G01 X-32.3700 Y10.9520 
G00 Z2.5400 
G00 X-32.3890 Y8.5644 
G01 Z-0.0500 F254.00 
G01 X-32.7984 Y8.7340 F254.00 
G01 X-33.2416 Y8.7340 
G01 X-33.6510 Y8.5644 
G01 X-33.8116 Y8.4038 
G01 X-35.5586 Y8.4038 
G01 X-35.5694 Y8.3993 
G01 X-35.5802 Y8.4038 
G01 X-35.5919 Y8.4038 
G01 X-35.6002 Y8.4121 
G01 X-35.8868 Y8.5308 
G01 X-37.7732 Y8.5308 
G01 X-38.1079 Y8.3922 
G01 X-38.3642 Y8.1359 
G01 X-38.5028 Y7.8012 
G01 X-38.5028 Y7.4388 
G01 X-38.3642 Y7.1041 
G01 X-38.1079 Y6.8478 
G01 X-37.7732 Y6.7092 
G01 X-35.8868 Y6.7092 
G01 X-35.6002 Y6.8279 
G01 X-35.5919 Y6.8362 
G01 X-35.5802 Y6.8362 
G01 X-35.5694 Y6.8407 
G01 X-35.5586 Y6.8362 
G01 X-33.8116 Y6.8362 
G01 X-33.7798 Y6.8043 
G01 X-33.6510 Y6.6756 
G01 X-33.2416 Y6.5060 
G01 X-32.7984 Y6.5060 
G01 X-32.3890 Y6.6756 
G01 X-32.0756 Y6.9890 
G01 X-31.9060 Y7.3984 
G01 X-31.9060 Y7.8416 
G01 X-32.0756 Y8.2510 
G01 X-32.3890 Y8.5644 
G00 Z2.5400 
G00 X-32.3700 Y8.4120 
G01 Z-0.0500 F254.00 
G01 X-32.2280 Y8.2700 F254.00 
G01 X-32.1164 Y8.1030 
G01 X-32.0396 Y7.9174 
G01 X-32.0004 Y7.7204 
G01 X-32.0004 Y7.5196 
G01 X-32.0396 Y7.3226 
G01 X-32.1164 Y7.1370 
G01 X-32.2280 Y6.9700 
G01 X-32.3700 Y6.8280 
G01 X-32.5370 Y6.7164 
G01 X-32.7226 Y6.6396 
G01 X-32.9196 Y6.6004 
G01 X-33.1204 Y6.6004 
G01 X-33.3174 Y6.6396 
G01 X-33.5030 Y6.7164 
G01 X-33.6700 Y6.8280 
G01 X-33.7725 Y6.9306 
G01 X-35.6303 Y6.9306 
G01 X-35.6813 Y6.8965 
G01 X-35.8299 Y6.8350 
G01 X-35.9876 Y6.8036 
G01 X-37.6724 Y6.8036 
G01 X-37.8301 Y6.8350 
G01 X-37.9787 Y6.8965 
G01 X-38.1124 Y6.9859 
G01 X-38.2261 Y7.0996 
G01 X-38.3155 Y7.2333 
G01 X-38.3770 Y7.3819 
G01 X-38.4084 Y7.5396 
G01 X-38.4084 Y7.7004 
G01 X-38.3770 Y7.8581 
G01 X-38.3155 Y8.0067 
G01 X-38.2261 Y8.1404 
G01 X-38.1124 Y8.2541 
G01 X-37.9787 Y8.3435 
G01 X-37.8301 Y8.4050 
G01 X-37.6724 Y8.4364 
G01 X-35.9876 Y8.4364 
G01 X-35.8299 Y8.4050 
G01 X-35.6813 Y8.3435 
G01 X-35.6303 Y8.3094 
G01 X-33.7725 Y8.3094 
G01 X-33.6700 Y8.4120 
G01 X-33.5030 Y8.5236 
G01 X-33.3174 Y8.6004 
G01 X-33.1204 Y8.6396 
G01 X-32.9196 Y8.6396 
G01 X-32.7226 Y8.6004 
G01 X-32.5370 Y8.5236 
G01 X-32.3700 Y8.4120 
G00 Z2.5400 
G00 X-32.3890 Y6.0244 
G01 Z-0.0500 F254.00 
G01 X-32.7984 Y6.1940 F254.00 
G01 X-33.2416 Y6.1940 
G01 X-33.6510 Y6.0244 
G01 X-33.8116 Y5.8638 
G01 X-33.8567 Y5.8638 
G01 X-35.5586 Y5.8638 
G01 X-35.5694 Y5.8593 
G01 X-35.5802 Y5.8638 
G01 X-35.5919 Y5.8638 
G01 X-35.6002 Y5.8721 
G01 X-35.8868 Y5.9908 
G01 X-37.7732 Y5.9908 
G01 X-38.1079 Y5.8522 
G01 X-38.3642 Y5.5959 
G01 X-38.5028 Y5.2612 
G01 X-38.5028 Y4.8988 
G01 X-38.3642 Y4.5641 
G01 X-38.1079 Y4.3078 
G01 X-37.7732 Y4.1692 
G01 X-35.8868 Y4.1692 
G01 X-35.6002 Y4.2879 
G01 X-35.5919 Y4.2962 
G01 X-35.5802 Y4.2962 
G01 X-35.5694 Y4.3007 
G01 X-35.5586 Y4.2962 
G01 X-33.8116 Y4.2962 
G01 X-33.7798 Y4.2643 
G01 X-33.6510 Y4.1356 
G01 X-33.2416 Y3.9660 
G01 X-32.7984 Y3.9660 
G01 X-32.3890 Y4.1356 
G01 X-32.0756 Y4.4490 
G01 X-31.9060 Y4.8584 
G01 X-31.9060 Y5.3016 
G01 X-32.0756 Y5.7110 
G01 X-32.3890 Y6.0244 
G00 Z2.5400 
G00 X-32.3700 Y5.8720 
G01 Z-0.0500 F254.00 
G01 X-32.2280 Y5.7300 F254.00 
G01 X-32.1164 Y5.5630 
G01 X-32.0396 Y5.3774 
G01 X-32.0004 Y5.1804 
G01 X-32.0004 Y4.9796 
G01 X-32.0396 Y4.7826 
G01 X-32.1164 Y4.5970 
G01 X-32.2280 Y4.4300 
G01 X-32.3700 Y4.2880 
G01 X-32.5370 Y4.1764 
G01 X-32.7226 Y4.0996 
G01 X-32.9196 Y4.0604 
G01 X-33.1204 Y4.0604 
G01 X-33.3174 Y4.0996 
G01 X-33.5030 Y4.1764 
G01 X-33.6700 Y4.2880 
G01 X-33.7725 Y4.3906 
G01 X-35.6303 Y4.3906 
G01 X-35.6813 Y4.3565 
G01 X-35.8299 Y4.2950 
G01 X-35.9876 Y4.2636 
G01 X-37.6724 Y4.2636 
G01 X-37.8301 Y4.2950 
G01 X-37.9787 Y4.3565 
G01 X-38.1124 Y4.4459 
G01 X-38.2261 Y4.5596 
G01 X-38.3155 Y4.6933 
G01 X-38.3770 Y4.8419 
G01 X-38.4084 Y4.9996 
G01 X-38.4084 Y5.1604 
G01 X-38.3770 Y5.3181 
G01 X-38.3155 Y5.4667 
G01 X-38.2261 Y5.6004 
G01 X-38.1124 Y5.7141 
G01 X-37.9787 Y5.8035 
G01 X-37.8301 Y5.8650 
G01 X-37.6724 Y5.8964 
G01 X-35.9876 Y5.8964 
G01 X-35.8299 Y5.8650 
G01 X-35.6813 Y5.8035 
G01 X-35.6303 Y5.7694 
G01 X-33.7725 Y5.7694 
G01 X-33.6700 Y5.8720 
G01 X-33.5030 Y5.9836 
G01 X-33.3174 Y6.0604 
G01 X-33.1204 Y6.0996 
G01 X-32.9196 Y6.0996 
G01 X-32.7226 Y6.0604 
G01 X-32.5370 Y5.9836 
G01 X-32.3700 Y5.8720 
G00 Z2.5400 
G00 X-24.8548 Y6.9394 
G01 Z-0.0500 F254.00 
G01 X-24.5597 Y6.8172 F254.00 
G01 X-24.2403 Y6.8172 
G01 X-23.9452 Y6.9394 
G01 X-23.7194 Y7.1652 
G01 X-23.5972 Y7.4603 
G01 X-23.5972 Y7.7797 
G01 X-23.7194 Y8.0748 
G01 X-23.9452 Y8.3006 
G01 X-24.2403 Y8.4228 
G01 X-24.5597 Y8.4228 
G01 X-24.8548 Y8.3006 
G01 X-25.0806 Y8.0748 
G01 X-25.2028 Y7.7797 
G01 X-25.2028 Y7.4603 
G01 X-25.0806 Y7.1652 
G01 X-24.8548 Y6.9394 
G00 Z2.5400 
G00 X-24.8516 Y7.0697 
G01 Z-0.0500 F254.00 
G01 X-24.9502 Y7.1684 F254.00 
G01 X-25.0278 Y7.2844 
G01 X-25.0812 Y7.4134 
G01 X-25.1084 Y7.5502 
G01 X-25.1084 Y7.6898 
G01 X-25.0812 Y7.8266 
G01 X-25.0278 Y7.9556 
G01 X-24.9502 Y8.0716 
G01 X-24.8516 Y8.1702 
G01 X-24.7356 Y8.2478 
G01 X-24.6066 Y8.3012 
G01 X-24.4698 Y8.3284 
G01 X-24.3302 Y8.3284 
G01 X-24.1934 Y8.3012 
G01 X-24.0644 Y8.2478 
G01 X-23.9484 Y8.1702 
G01 X-23.8498 Y8.0716 
G01 X-23.7722 Y7.9556 
G01 X-23.7188 Y7.8266 
G01 X-23.6916 Y7.6898 
G01 X-23.6916 Y7.5502 
G01 X-23.7188 Y7.4134 
G01 X-23.7722 Y7.2844 
G01 X-23.8498 Y7.1684 
G01 X-23.9484 Y7.0697 
G01 X-24.0644 Y6.9922 
G01 X-24.1934 Y6.9388 
G01 X-24.3302 Y6.9116 
G01 X-24.4698 Y6.9116 
G01 X-24.6066 Y6.9388 
G01 X-24.7356 Y6.9922 
G01 X-24.8516 Y7.0697 
G00 Z2.5400 
G00 X-45.8889 Y5.1157 
G01 Z-0.0500 F254.00 
G01 X-46.8478 Y5.7421 F254.00 
G01 X-46.8541 Y5.7421 
G01 X-46.8594 Y5.7474 
G01 X-47.9709 Y6.0289 
G01 X-49.1086 Y5.9346 
G01 X-49.1215 Y5.9328 
G01 X-50.1737 Y5.4713 
G01 X-50.1824 Y5.4626 
G01 X-51.0227 Y4.6903 
G01 X-51.5689 Y3.6809 
G01 X-51.5689 Y3.6721 
G01 X-51.5726 Y3.6685 
G01 X-51.7609 Y2.5400 
G01 X-51.5726 Y1.4115 
G01 X-51.5689 Y1.4079 
G01 X-51.5689 Y1.3991 
G01 X-51.0227 Y0.3897 
G01 X-50.1837 Y-0.3826 
G01 X-50.1737 Y-0.3913 
G01 X-49.1194 Y-0.8537 
G01 X-47.9709 Y-0.9489 
G01 X-46.8537 Y-0.6660 
G01 X-45.8889 Y-0.0357 
G01 X-45.1870 Y0.8662 
G01 X-45.1870 Y0.8701 
G01 X-45.1799 Y0.8771 
G01 X-44.8069 Y1.9638 
G01 X-44.8069 Y3.1162 
G01 X-45.1799 Y4.2029 
G01 X-45.1870 Y4.2099 
G01 X-45.1870 Y4.2138 
G01 X-45.8889 Y5.1157 
G00 Z2.5400 
G00 X-43.9048 Y34.8794 
G01 Z-0.0500 F254.00 
G01 X-43.6097 Y34.7572 F254.00 
G01 X-43.2903 Y34.7572 
G01 X-42.9952 Y34.8794 
G01 X-42.7694 Y35.1052 
G01 X-42.6472 Y35.4003 
G01 X-42.6472 Y35.7197 
G01 X-42.7694 Y36.0148 
G01 X-42.9952 Y36.2406 
G01 X-43.2903 Y36.3628 
G01 X-43.6097 Y36.3628 
G01 X-43.9048 Y36.2406 
G01 X-44.1306 Y36.0148 
G01 X-44.2528 Y35.7197 
G01 X-44.2528 Y35.4003 
G01 X-44.1306 Y35.1052 
G01 X-43.9048 Y34.8794 
G00 Z2.5400 
G00 X-43.9016 Y35.0097 
G01 Z-0.0500 F254.00 
G01 X-44.0002 Y35.1084 F254.00 
G01 X-44.0778 Y35.2244 
G01 X-44.1312 Y35.3534 
G01 X-44.1584 Y35.4902 
G01 X-44.1584 Y35.6298 
G01 X-44.1312 Y35.7666 
G01 X-44.0778 Y35.8956 
G01 X-44.0002 Y36.0116 
G01 X-43.9016 Y36.1102 
G01 X-43.7856 Y36.1878 
G01 X-43.6566 Y36.2412 
G01 X-43.5198 Y36.2684 
G01 X-43.3802 Y36.2684 
G01 X-43.2434 Y36.2412 
G01 X-43.1144 Y36.1878 
G01 X-42.9984 Y36.1102 
G01 X-42.8997 Y36.0116 
G01 X-42.8222 Y35.8956 
G01 X-42.7688 Y35.7666 
G01 X-42.7416 Y35.6298 
G01 X-42.7416 Y35.4902 
G01 X-42.7688 Y35.3534 
G01 X-42.8222 Y35.2244 
G01 X-42.8997 Y35.1084 
G01 X-42.9984 Y35.0097 
G01 X-43.1144 Y34.9322 
G01 X-43.2434 Y34.8788 
G01 X-43.3802 Y34.8516 
G01 X-43.5198 Y34.8516 
G01 X-43.6566 Y34.8788 
G01 X-43.7856 Y34.9322 
G01 X-43.9016 Y35.0097 
G00 Z2.5400 
G00 X-45.8889 Y45.6843 
G01 Z-0.0500 F254.00 
G01 X-45.1870 Y46.5862 F254.00 
G01 X-45.1870 Y46.5901 
G01 X-45.1799 Y46.5971 
G01 X-44.8069 Y47.6838 
G01 X-44.8069 Y48.8362 
G01 X-45.1799 Y49.9229 
G01 X-45.1870 Y49.9299 
G01 X-45.1870 Y49.9338 
G01 X-45.8889 Y50.8357 
G01 X-46.8478 Y51.4621 
G01 X-46.8541 Y51.4621 
G01 X-46.8594 Y51.4674 
G01 X-47.9709 Y51.7489 
G01 X-49.1086 Y51.6546 
G01 X-49.1215 Y51.6528 
G01 X-50.1737 Y51.1913 
G01 X-50.1824 Y51.1826 
G01 X-51.0227 Y50.4103 
G01 X-51.5689 Y49.4009 
G01 X-51.5689 Y49.3921 
G01 X-51.5726 Y49.3885 
G01 X-51.7609 Y48.2600 
G01 X-51.5726 Y47.1315 
G01 X-51.5689 Y47.1279 
G01 X-51.5689 Y47.1191 
G01 X-51.0227 Y46.1097 
G01 X-50.1837 Y45.3374 
G01 X-50.1737 Y45.3287 
G01 X-49.1215 Y44.8672 
G01 X-49.1104 Y44.8672 
G01 X-47.9709 Y44.7711 
G01 X-46.8594 Y45.0525 
G01 X-46.8541 Y45.0579 
G01 X-46.8478 Y45.0579 
G01 X-45.8889 Y45.6843 
G00 Z2.5400 
G00 X-47.4500 Y12.7000 
G01 Z-0.2794 F508.00 
G00 Z2.5400 
G00 X-45.4500 Y12.7000 
G01 Z-0.2794 F508.00 
G00 Z2.5400 
G00 X-43.4500 Y12.7000 
G01 Z-0.2794 F508.00 
G00 Z2.5400 
G00 X-41.4500 Y12.7000 
G01 Z-0.2794 F508.00 
G00 Z2.5400 
G00 X-47.4500 Y35.5600 
G01 Z-0.2794 F508.00 
G00 Z2.5400 
G00 X-45.4500 Y35.5600 
G01 Z-0.2794 F508.00 
G00 Z2.5400 
G00 X-43.4500 Y35.5600 
G01 Z-0.2794 F508.00 
G00 Z2.5400 
G00 X-41.4500 Y35.5600 
G01 Z-0.2794 F508.00 
G00 Z2.5400 
G00 X-2.5400 Y48.2600 
G01 Z-0.2794 F508.00 
G00 Z2.5400 
G00 X-2.5400 Y22.8600 
G01 Z-0.2794 F508.00 
G00 Z2.5400 
G00 X-48.2600 Y48.2600 
G01 Z-0.2794 F508.00 
G00 Z2.5400 
G00 X-48.2600 Y2.5400 
G01 Z-0.2794 F508.00 
G00 Z2.5400 
G00 X-36.8300 Y5.0800 
G01 Z-0.2794 F508.00 
G00 Z2.5400 
G00 X-36.8300 Y7.6200 
G01 Z-0.2794 F508.00 
G00 Z2.5400 
G00 X-36.8300 Y10.1600 
G01 Z-0.2794 F508.00 
G00 Z2.5400 
G00 X-36.8300 Y12.7000 
G01 Z-0.2794 F508.00 
G00 Z2.5400 
G00 X-36.8300 Y15.2400 
G01 Z-0.2794 F508.00 
G00 Z2.5400 
G00 X-36.8300 Y17.7800 
G01 Z-0.2794 F508.00 
G00 Z2.5400 
G00 X-36.8300 Y20.3200 
G01 Z-0.2794 F508.00 
G00 Z2.5400 
G00 X-36.8300 Y22.8600 
G01 Z-0.2794 F508.00 
G00 Z2.5400 
G00 X-36.8300 Y25.4000 
G01 Z-0.2794 F508.00 
G00 Z2.5400 
G00 X-36.8300 Y27.9400 
G01 Z-0.2794 F508.00 
G00 Z2.5400 
G00 X-36.8300 Y30.4800 
G01 Z-0.2794 F508.00 
G00 Z2.5400 
G00 X-36.8300 Y33.0200 
G01 Z-0.2794 F508.00 
G00 Z2.5400 
G00 X-36.8300 Y35.5600 
G01 Z-0.2794 F508.00 
G00 Z2.5400 
G00 X-36.8300 Y38.1000 
G01 Z-0.2794 F508.00 
G00 Z2.5400 
G00 X-36.8300 Y40.6400 
G01 Z-0.2794 F508.00 
G00 Z2.5400 
G00 X-36.8300 Y43.1800 
G01 Z-0.2794 F508.00 
G00 Z2.5400 
G00 X-36.8300 Y45.7200 
G01 Z-0.2794 F508.00 
G00 Z2.5400 
G00 X-13.9700 Y5.0800 
G01 Z-0.2794 F508.00 
G00 Z2.5400 
G00 X-13.9700 Y7.6200 
G01 Z-0.2794 F508.00 
G00 Z2.5400 
G00 X-13.9700 Y10.1600 
G01 Z-0.2794 F508.00 
G00 Z2.5400 
G00 X-13.9700 Y12.7000 
G01 Z-0.2794 F508.00 
G00 Z2.5400 
G00 X-13.9700 Y15.2400 
G01 Z-0.2794 F508.00 
G00 Z2.5400 
G00 X-13.9700 Y17.7800 
G01 Z-0.2794 F508.00 
G00 Z2.5400 
G00 X-13.9700 Y20.3200 
G01 Z-0.2794 F508.00 
G00 Z2.5400 
G00 X-13.9700 Y22.8600 
G01 Z-0.2794 F508.00 
G00 Z2.5400 
G00 X-13.9700 Y25.4000 
G01 Z-0.2794 F508.00 
G00 Z2.5400 
G00 X-13.9700 Y27.9400 
G01 Z-0.2794 F508.00 
G00 Z2.5400 
G00 X-13.9700 Y30.4800 
G01 Z-0.2794 F508.00 
G00 Z2.5400 
G00 X-13.9700 Y33.0200 
G01 Z-0.2794 F508.00 
G00 Z2.5400 
G00 X-13.9700 Y35.5600 
G01 Z-0.2794 F508.00 
G00 Z2.5400 
G00 X-13.9700 Y38.1000 
G01 Z-0.2794 F508.00 
G00 Z2.5400 
G00 X-13.9700 Y40.6400 
G01 Z-0.2794 F508.00 
G00 Z2.5400 
G00 X-13.9700 Y43.1800 
G01 Z-0.2794 F508.00 
G00 Z2.5400 
G00 X-13.9700 Y45.7200 
G01 Z-0.2794 F508.00 
G00 Z2.5400 
G00 X-2.5400 Y12.7000 
G01 Z-0.2794 F508.00 
G00 Z2.5400 
G00 X-5.0800 Y12.7000 
G01 Z-0.2794 F508.00 
G00 Z2.5400 
G00 X-7.6200 Y12.7000 
G01 Z-0.2794 F508.00 
G00 Z2.5400 
G00 X-10.1600 Y12.7000 
G01 Z-0.2794 F508.00 
G00 Z2.5400 
G00 X-2.5400 Y17.7800 
G01 Z-0.2794 F508.00 
G00 Z2.5400 
G00 X-5.0800 Y17.7800 
G01 Z-0.2794 F508.00 
G00 Z2.5400 
G00 X-7.6200 Y17.7800 
G01 Z-0.2794 F508.00 
G00 Z2.5400 
G00 X-10.1600 Y17.7800 
G01 Z-0.2794 F508.00 
G00 Z2.5400 
G00 X-3.3500 Y33.0200 
G01 Z-0.2794 F508.00 
G00 Z2.5400 
G00 X-5.3500 Y33.0200 
G01 Z-0.2794 F508.00 
G00 Z2.5400 
G00 X-7.3500 Y33.0200 
G01 Z-0.2794 F508.00 
G00 Z2.5400 
G00 X-9.3500 Y33.0200 
G01 Z-0.2794 F508.00 
G00 Z2.5400 
G00 X-28.4000 Y7.6200 
G01 Z-0.2794 F508.00 
G00 Z2.5400 
G00 X-26.4000 Y7.6200 
G01 Z-0.2794 F508.00 
G00 Z2.5400 
G00 X-24.4000 Y7.6200 
G01 Z-0.2794 F508.00 
G00 Z2.5400 
G00 X-22.4000 Y7.6200 
G01 Z-0.2794 F508.00 
